<?xml version="1.0" encoding="UTF-8"?>
<map version="1.10" tiledversion="1.12.2" orientation="isometric" renderorder="right-down" width="96" height="96" tilewidth="64" tileheight="32" infinite="0" backgroundcolor="#05070f" nextlayerid="12" nextobjectid="174">
 <editorsettings>
  <export target="espiral-estelar_2.json" format="json"/>
 </editorsettings>
 <properties>
  <property name="nebulosaActiva" type="bool" value="true"/>
 </properties>
 <tileset firstgid="1" source="tilesets/logica.tsx"/>
 <tileset firstgid="9" source="tilesets/suelo.tsx"/>
 <tileset firstgid="24" source="tilesets/asteroides.tsx"/>
 <tileset firstgid="32" source="tilesets/estructuras.tsx"/>
 <tileset firstgid="48" source="tilesets/plataformas.tsx"/>
 <tileset firstgid="51" source="tilesets/altura.tsx"/>
 <tileset firstgid="53" source="assets-externos/robotsitoo.tsx"/>
 <tileset firstgid="61" source="assets-externos/robot-sal.tsx"/>
 <tileset firstgid="69" source="planetafondo.tsx"/>
 <tileset firstgid="118" source="tilesets/decorado_externo.tsx"/>
 <layer id="1" name="fondo" width="96" height="96">
  <data encoding="csv">
9,11,9,10,12,12,12,10,9,9,9,11,9,12,9,12,11,10,12,11,11,11,12,9,11,9,11,11,12,10,11,9,11,11,12,12,9,12,12,9,12,12,12,11,12,12,9,10,10,9,9,12,12,10,12,10,9,12,12,11,12,11,12,12,12,10,11,11,9,9,10,12,12,11,10,11,12,12,12,12,9,11,11,12,9,12,11,12,10,12,12,9,11,12,11,9,
10,12,10,12,9,9,9,12,9,10,10,9,9,11,11,10,9,11,12,10,10,12,10,11,9,12,10,10,11,12,12,10,10,12,9,9,12,9,9,11,11,9,9,12,11,11,12,11,9,12,12,10,10,10,12,11,12,10,9,12,9,10,10,9,9,12,10,12,9,10,10,10,10,10,12,11,12,12,9,12,11,10,11,10,11,12,12,12,11,12,10,11,12,12,9,11,
9,10,10,9,9,12,11,12,10,9,11,10,11,10,9,11,10,11,11,10,9,11,9,12,10,9,9,11,10,9,11,11,9,11,11,10,11,11,9,9,12,11,12,9,9,9,10,9,11,9,71,11,11,12,9,12,11,10,12,12,9,11,11,12,11,11,9,12,9,11,11,11,9,11,12,11,9,11,10,9,9,10,9,9,9,10,11,11,9,12,10,11,12,12,12,10,
12,10,10,10,9,12,11,10,10,9,9,11,12,12,11,11,10,9,10,9,71,11,11,9,9,10,12,9,10,10,12,11,10,11,11,10,11,11,12,12,12,11,10,10,12,10,12,9,11,12,9,10,9,11,11,11,10,9,9,10,11,9,12,12,10,9,9,10,12,11,11,11,9,10,10,11,11,11,11,10,12,10,9,12,12,11,10,9,10,11,10,10,9,9,9,11,
9,11,11,10,71,10,10,9,11,12,9,9,12,11,11,9,11,12,12,9,10,11,12,11,9,9,9,12,11,11,10,10,11,12,11,11,12,12,11,10,10,12,10,11,11,12,12,10,10,12,10,12,11,11,9,11,11,12,11,10,11,10,11,10,9,11,11,12,12,12,9,11,12,11,9,12,10,12,11,11,9,12,10,9,11,11,10,11,12,12,12,11,9,9,10,9,
11,11,9,10,12,11,11,9,10,9,9,10,11,10,12,10,10,11,9,12,10,9,9,11,12,9,10,10,12,11,11,11,11,12,11,12,11,11,9,12,10,9,12,11,11,12,10,11,11,12,11,10,9,12,9,11,12,9,11,12,11,11,11,10,9,10,11,12,9,10,9,12,10,10,12,10,10,11,12,10,11,11,12,10,10,10,10,10,9,9,11,11,10,10,11,11,
10,12,10,10,9,10,10,12,12,9,11,10,11,9,12,12,10,11,10,9,12,9,9,9,11,11,11,9,10,10,9,12,12,10,10,10,10,12,10,11,10,12,12,12,11,10,11,12,12,9,10,10,9,9,11,10,9,10,10,12,10,12,9,10,11,11,11,12,9,12,12,11,11,12,10,9,10,10,11,12,12,9,11,11,9,12,12,11,9,11,11,9,9,9,9,12,
9,12,12,12,9,10,11,10,9,9,12,9,10,11,9,9,9,9,11,10,11,12,10,11,12,10,12,10,11,12,9,12,10,10,12,10,9,12,12,12,9,12,10,12,9,12,10,11,10,11,11,12,9,11,10,9,11,10,9,10,12,12,9,9,12,12,9,10,10,9,11,10,11,11,9,11,10,9,10,9,12,9,11,12,9,10,12,9,11,9,10,9,11,10,9,11,
9,12,11,9,10,10,12,9,11,10,12,12,9,10,9,9,12,12,9,12,10,10,10,10,10,11,12,11,10,12,9,9,11,9,10,10,12,10,11,10,12,9,10,9,12,9,12,12,11,11,9,9,11,10,9,12,10,11,10,11,71,9,11,10,12,9,10,12,10,12,9,9,10,9,11,10,12,11,9,12,11,10,12,9,12,9,9,10,11,12,9,12,11,12,12,11,
11,12,12,12,11,11,10,9,9,10,10,11,12,10,11,10,9,10,12,10,11,12,10,11,12,11,11,12,10,10,11,9,10,11,10,12,10,12,12,12,9,11,9,11,11,12,10,11,11,11,12,10,9,12,12,12,11,10,12,11,9,9,10,10,10,12,12,12,10,12,10,11,9,9,9,9,10,12,9,12,11,9,12,10,11,11,9,9,9,11,10,12,12,9,9,10,
12,11,10,9,9,11,10,10,12,12,9,12,10,9,9,12,12,9,12,12,9,12,12,11,9,9,12,10,12,9,11,10,12,9,11,10,9,10,11,11,12,9,10,11,9,12,9,11,11,12,11,10,10,12,11,9,11,12,11,12,11,10,12,10,11,11,11,11,9,10,9,10,11,11,9,11,12,12,12,12,9,11,12,12,11,12,11,9,11,12,11,11,12,9,11,12,
12,9,9,11,9,9,11,12,11,12,11,11,9,10,10,9,9,10,10,9,11,12,9,9,11,10,9,12,10,9,9,9,9,12,9,10,12,9,11,12,11,12,10,9,12,11,10,11,10,12,9,9,12,12,12,12,10,9,11,9,10,12,10,11,12,10,10,11,10,11,9,9,10,12,12,9,11,12,9,9,11,9,11,10,10,11,11,9,11,9,9,10,12,11,10,10,
10,10,11,9,12,11,12,11,10,10,10,11,12,9,10,11,9,11,10,11,12,9,11,10,11,12,12,9,10,11,9,11,12,9,12,11,11,11,10,9,9,11,12,9,10,10,9,9,11,10,9,11,9,11,12,12,11,10,9,11,12,12,12,9,11,11,10,11,11,12,9,9,12,12,9,9,12,10,12,12,9,11,9,11,9,10,12,10,10,11,10,12,9,9,9,12,
11,10,12,10,10,11,10,11,12,11,12,12,12,10,9,12,12,11,10,12,11,11,10,11,9,10,11,10,9,12,10,10,10,11,12,12,12,9,11,11,9,9,11,12,11,9,12,12,11,12,9,9,11,9,9,10,10,11,11,10,11,11,9,11,10,11,12,11,12,9,10,11,11,12,9,10,12,9,11,12,9,9,9,9,9,9,11,10,9,9,12,9,9,9,12,9,
10,10,12,10,10,9,11,12,9,10,9,11,12,12,9,12,12,9,9,11,12,10,11,9,9,9,10,9,10,10,9,9,11,9,10,9,9,11,10,12,10,12,9,12,12,9,11,11,10,10,9,9,10,12,12,9,9,10,12,12,9,11,12,10,10,10,9,10,10,12,9,10,12,9,12,9,11,9,10,9,11,12,9,12,12,11,11,11,11,9,12,12,10,11,9,12,
12,12,10,11,12,10,11,9,10,11,9,12,10,12,11,10,12,12,10,10,9,10,9,10,11,10,10,9,11,10,12,10,10,12,9,11,9,12,9,9,12,9,11,9,11,9,12,9,9,10,10,10,11,10,12,11,12,10,12,10,12,12,9,10,9,12,9,10,9,10,11,12,9,12,9,9,10,10,10,12,12,11,10,11,10,10,12,11,12,11,11,9,9,10,11,9,
9,9,12,10,12,9,12,9,9,10,11,10,10,11,9,12,11,11,9,12,9,9,11,11,10,9,12,9,9,10,9,10,10,11,9,10,9,11,10,9,11,9,9,11,10,11,9,10,11,9,9,10,10,12,9,10,11,10,9,10,10,10,10,12,10,12,12,12,12,9,11,9,11,11,10,11,12,11,11,10,11,10,12,12,11,9,10,12,11,11,12,12,12,9,11,12,
9,10,10,12,9,11,11,9,11,12,11,12,9,12,9,11,12,11,10,10,10,12,10,12,12,12,9,9,12,11,11,11,12,11,9,10,12,10,9,11,12,10,10,12,12,9,12,11,12,12,11,9,12,11,9,12,10,9,10,12,10,10,9,12,12,11,10,12,9,9,9,9,12,12,9,9,10,10,10,9,12,9,9,12,10,11,11,10,12,10,9,12,10,11,11,10,
9,12,12,11,12,12,11,10,10,10,9,12,12,12,12,10,9,11,9,11,10,11,11,12,12,12,10,11,10,9,9,10,10,10,9,10,12,12,12,10,10,12,9,10,10,9,10,11,12,9,11,9,10,11,10,10,9,12,11,10,11,12,11,12,10,12,9,12,12,10,11,11,10,12,9,12,11,11,9,9,9,11,11,11,12,9,12,11,11,11,9,9,12,11,11,9,
11,9,9,9,10,10,9,11,12,9,11,9,10,12,9,11,12,9,9,9,9,9,11,11,11,11,12,9,11,9,11,12,11,10,10,9,9,10,11,11,9,10,9,9,11,11,10,9,11,10,10,12,10,10,12,12,11,9,12,11,11,10,11,12,11,11,9,11,11,9,12,11,11,11,12,10,11,10,11,11,12,9,12,10,11,9,11,12,9,10,11,12,11,9,12,11,
10,12,12,9,11,10,10,9,12,9,11,10,9,12,11,12,12,12,12,10,12,9,9,11,11,9,12,9,10,11,9,12,11,12,10,9,11,10,11,11,12,9,9,12,11,12,12,9,12,10,11,12,12,11,9,10,10,9,10,11,11,10,11,9,10,11,12,12,9,12,12,12,11,12,9,12,12,11,11,12,11,12,12,9,11,11,11,10,12,12,9,12,11,10,9,12,
10,11,11,12,9,12,12,11,10,12,11,9,10,10,9,9,9,12,10,10,9,10,11,12,11,9,11,9,12,12,12,11,11,11,12,9,9,9,12,10,10,10,10,12,9,12,11,11,9,11,10,11,9,9,11,10,12,12,10,12,12,12,11,12,9,11,12,10,10,10,9,10,11,11,10,12,12,9,10,10,12,11,11,9,11,10,9,12,11,10,10,11,10,9,11,10,
10,11,9,71,9,11,11,12,11,11,9,11,12,12,10,12,9,10,11,10,9,11,10,12,11,9,9,12,10,12,11,10,11,9,10,12,9,9,11,10,12,11,11,12,9,11,11,9,10,9,9,9,12,9,11,12,11,11,11,12,10,10,10,11,10,9,10,10,12,11,11,9,10,10,10,11,10,9,11,9,12,9,10,10,12,11,11,10,11,11,10,11,11,12,11,11,
11,9,11,11,10,10,9,12,9,10,12,9,10,12,10,9,10,12,11,10,12,9,11,12,12,9,11,9,10,12,12,9,10,11,10,10,11,12,11,10,12,9,12,10,9,9,9,12,10,12,12,10,10,12,11,11,11,10,12,11,10,12,9,11,10,9,9,11,9,12,10,12,9,11,10,10,11,9,11,10,9,12,11,12,12,12,11,10,12,9,11,9,11,10,10,10,
9,12,12,9,9,10,9,12,11,12,9,12,9,9,12,12,12,12,11,11,12,12,10,12,12,9,12,12,12,9,10,11,10,10,12,11,12,12,9,10,12,10,12,11,11,12,11,9,11,11,12,12,10,10,10,12,11,10,12,12,10,9,11,11,12,9,9,9,10,10,9,12,10,9,11,11,9,11,9,11,10,10,9,12,12,9,12,11,11,10,9,12,10,12,12,11,
9,10,12,10,11,11,11,12,11,9,12,11,12,10,12,9,9,9,10,9,10,12,12,10,12,12,10,12,12,12,12,12,12,9,12,12,10,9,12,11,9,11,9,10,12,12,11,12,10,10,11,11,9,9,11,12,9,11,9,12,10,12,11,11,9,11,10,12,11,11,9,10,11,10,9,12,9,12,12,10,12,11,10,11,9,9,11,12,9,12,12,9,10,12,11,9,
11,12,9,12,10,10,12,10,11,10,9,12,9,12,12,11,11,11,10,11,11,10,10,10,11,9,11,10,11,9,12,12,9,11,10,11,10,9,12,10,9,12,10,11,12,9,12,10,9,9,11,9,9,10,11,10,11,12,12,11,10,9,9,11,9,10,12,12,11,12,11,12,9,9,9,9,9,9,10,10,10,9,10,9,12,11,11,12,12,9,10,10,12,12,10,12,
10,9,11,11,10,10,9,12,9,9,11,11,10,10,12,12,9,9,9,10,9,10,9,12,12,12,9,10,9,11,11,10,10,10,11,9,12,9,9,11,12,11,12,12,9,10,12,11,10,11,9,10,9,9,11,12,10,9,10,10,11,10,10,12,9,12,10,10,10,11,9,9,9,10,11,10,11,11,10,9,11,10,9,10,11,12,12,10,9,9,10,11,12,12,9,11,
10,9,11,11,10,9,9,9,9,12,12,10,11,11,9,9,11,12,12,10,9,12,9,9,10,9,9,12,11,11,11,11,11,9,11,12,9,10,11,9,10,11,10,11,9,9,9,12,9,9,11,12,11,10,9,11,9,11,9,9,11,10,11,9,9,9,12,11,10,9,9,10,11,12,11,10,9,10,11,9,12,12,11,9,11,10,11,12,12,9,11,10,10,12,11,12,
10,9,9,9,9,9,12,11,10,9,12,9,9,9,11,10,12,9,9,9,12,10,12,9,12,10,10,11,11,11,9,11,11,10,10,9,10,9,10,9,9,10,12,11,11,9,9,12,11,10,12,9,12,12,9,10,10,11,12,11,12,12,11,9,12,11,12,11,10,10,9,9,12,12,10,11,12,11,11,9,9,9,10,9,10,11,11,11,10,11,10,12,11,9,12,12,
12,10,11,11,9,11,9,11,10,9,11,12,11,9,9,10,11,9,12,11,9,10,10,9,11,12,9,10,12,10,11,11,11,12,10,12,11,12,10,9,10,9,11,9,12,9,12,12,12,11,9,11,10,12,11,9,12,9,10,10,12,12,11,10,12,11,10,10,12,12,11,10,11,10,12,11,11,12,9,10,11,12,9,10,10,12,10,12,9,10,9,12,11,12,9,9,
11,10,11,9,11,12,11,11,10,10,11,10,11,10,10,10,12,10,9,9,11,9,9,12,9,10,12,12,11,10,9,12,10,9,11,11,12,9,10,11,10,11,12,11,11,12,10,9,11,11,11,11,12,11,10,10,10,12,9,12,10,11,12,12,11,11,9,12,9,10,11,10,11,10,12,12,10,12,12,9,9,12,11,9,12,10,11,12,11,11,10,12,9,9,10,9,
12,11,9,12,9,9,9,9,11,10,11,9,9,12,11,9,11,10,10,9,10,11,9,9,9,11,9,11,12,11,11,11,12,9,12,9,12,11,12,12,10,9,11,11,10,9,11,11,10,9,10,11,11,11,9,10,9,9,12,11,9,11,11,11,11,10,9,11,10,9,11,12,12,9,9,9,10,11,9,11,12,12,11,12,11,9,10,12,12,9,12,11,9,12,11,12,
9,10,9,12,11,9,12,11,9,9,9,11,11,12,11,12,11,11,12,9,11,12,10,11,9,10,10,12,11,10,9,10,12,10,11,12,12,12,9,11,9,9,11,12,9,10,11,9,11,12,11,10,9,10,10,12,9,12,10,11,9,9,10,10,12,9,10,12,10,11,10,10,12,12,12,9,10,12,11,10,12,9,11,12,11,11,11,9,9,11,9,12,10,10,10,10,
9,9,10,9,12,9,9,11,12,11,12,9,12,12,10,9,11,11,9,10,11,10,10,9,11,9,11,11,9,12,10,11,10,11,12,10,9,10,9,10,12,12,10,12,10,12,9,9,9,12,12,11,11,12,11,9,10,10,10,11,12,9,9,12,10,12,10,9,11,9,11,11,11,12,9,9,10,10,10,10,10,11,11,12,11,9,11,11,10,11,11,10,11,10,9,10,
9,9,11,9,10,11,10,10,9,11,11,11,12,11,10,10,10,10,10,10,12,12,11,11,9,9,10,10,10,10,10,11,9,12,10,9,11,12,11,10,10,9,10,11,9,11,11,11,12,9,11,11,11,10,10,10,9,11,9,12,11,11,9,10,10,9,12,12,11,10,12,11,12,9,11,12,9,12,11,9,11,9,11,12,9,12,11,11,71,12,9,12,10,11,10,9,
12,9,12,11,9,9,11,9,12,9,10,9,10,10,9,9,9,11,11,11,11,11,12,9,9,12,11,12,10,10,9,12,11,10,10,11,11,11,12,11,10,12,9,11,9,9,12,10,9,9,10,9,11,9,10,10,10,11,9,9,12,10,10,12,10,10,12,12,12,11,9,12,12,9,10,11,10,9,12,12,11,9,12,11,11,12,10,11,11,12,12,12,12,12,12,10,
11,11,9,9,10,10,10,11,9,12,10,11,11,11,12,11,11,10,10,10,11,10,9,10,9,11,11,9,12,10,11,12,10,9,12,9,9,9,10,12,10,12,9,10,9,11,12,9,12,12,11,9,11,11,10,12,10,11,11,10,12,11,9,12,10,9,11,11,12,12,9,10,12,11,12,10,10,9,9,10,10,11,11,9,9,10,10,10,11,11,10,11,11,9,11,12,
11,10,11,10,10,11,10,12,10,9,11,12,12,11,10,11,9,11,9,9,9,12,10,12,12,9,9,12,10,11,10,11,12,11,10,10,11,11,11,11,12,10,9,12,10,10,12,11,11,10,12,9,10,10,10,11,10,11,9,11,10,11,10,12,11,12,11,10,11,10,12,10,10,10,12,12,10,9,10,10,10,9,9,10,12,9,11,11,12,11,9,11,10,9,9,10,
12,12,11,12,10,10,12,9,9,9,9,12,9,11,11,12,10,11,9,11,9,12,9,12,10,11,10,11,9,12,12,10,9,10,12,11,11,11,10,9,9,11,9,10,11,9,12,9,10,9,10,12,10,11,10,10,12,12,9,10,9,11,12,12,10,10,12,11,11,12,12,9,10,11,10,11,9,10,10,11,10,11,9,12,10,11,10,11,9,11,11,12,10,12,10,11,
11,11,9,11,10,12,10,12,11,9,9,10,11,9,11,11,9,12,11,9,9,10,12,11,9,11,9,11,9,9,12,9,11,9,12,12,11,9,9,11,11,11,10,11,11,10,12,11,9,12,10,12,9,10,12,11,10,11,12,10,11,11,12,9,10,12,11,11,10,10,11,11,9,11,11,12,12,9,11,12,11,10,12,12,11,9,11,9,12,11,12,10,12,12,11,10,
10,10,12,11,9,10,11,9,11,12,10,10,12,10,10,11,11,10,11,10,9,10,11,11,9,10,10,10,12,12,12,12,12,11,12,11,11,11,12,10,10,11,12,12,10,9,12,12,9,9,10,11,9,10,10,10,11,9,12,12,12,12,11,11,12,11,9,9,9,11,10,12,12,9,9,9,9,10,12,10,9,11,10,9,9,10,9,11,12,9,12,12,11,12,9,9,
9,12,12,10,10,10,11,11,11,9,10,12,10,9,10,9,10,10,10,11,12,9,12,11,9,12,11,9,12,12,10,10,11,12,10,10,12,10,10,9,10,9,12,9,9,10,11,9,11,11,12,12,11,12,11,11,12,9,12,12,12,9,11,12,12,11,9,9,9,10,11,12,12,10,11,12,9,11,9,12,11,9,12,11,12,10,9,12,10,11,10,12,12,12,11,11,
10,12,9,12,12,10,10,9,11,12,10,9,12,12,12,9,10,12,10,11,12,10,12,12,12,10,12,11,10,9,11,10,12,12,10,9,10,10,12,11,9,9,10,11,9,12,9,11,10,11,11,12,10,10,9,9,9,9,10,11,9,9,12,11,10,9,10,9,12,11,10,9,9,11,10,12,10,11,10,10,9,9,12,11,9,12,10,12,11,10,9,12,9,12,12,12,
12,11,10,11,9,12,9,12,12,11,9,9,11,12,12,12,10,9,9,11,11,9,10,12,10,11,12,11,10,10,12,11,10,10,9,12,12,12,12,10,11,10,9,12,10,9,11,10,11,11,11,12,9,9,9,9,10,11,12,10,12,9,12,10,11,11,10,9,10,9,9,10,10,10,10,10,9,12,12,9,12,11,11,9,9,12,11,12,9,10,11,9,9,11,10,10,
12,12,12,12,10,11,9,12,9,9,12,11,12,10,12,9,9,11,10,11,12,11,12,9,11,10,11,11,9,11,10,12,11,9,10,12,9,9,10,10,10,10,9,12,9,9,12,12,11,11,12,10,12,12,9,10,11,9,12,9,9,11,9,10,10,11,10,12,11,9,11,12,10,11,10,11,12,12,12,12,11,10,11,9,10,11,9,12,9,9,11,12,9,9,11,11,
12,9,11,10,10,11,10,12,9,11,9,10,12,11,11,11,11,9,11,11,9,11,11,10,9,10,10,9,10,10,10,10,12,12,12,11,12,12,10,12,9,9,10,10,11,10,9,12,9,12,11,12,11,11,11,9,11,12,9,11,10,12,11,12,12,10,10,11,12,11,9,12,9,9,9,9,10,9,10,9,9,11,9,11,10,10,12,9,12,11,11,12,9,11,10,10,
10,10,12,11,12,11,11,11,12,12,9,11,12,10,12,10,9,11,10,12,9,11,9,12,9,12,10,9,11,12,11,11,9,12,10,9,9,10,11,9,10,9,9,9,10,11,10,11,11,9,9,11,12,10,11,12,9,10,9,9,12,11,12,10,11,11,11,12,11,11,12,11,9,10,11,11,11,12,10,11,10,11,11,12,10,10,9,11,12,11,11,10,9,10,9,12,
9,10,9,9,10,9,12,9,11,12,9,10,12,11,9,10,11,9,9,12,11,9,11,9,9,9,12,11,10,11,11,9,11,9,10,11,10,11,12,11,11,9,11,11,11,12,12,10,10,11,11,10,11,9,9,11,11,11,12,11,10,10,10,10,11,12,12,9,9,11,10,9,9,11,10,12,9,12,11,10,11,12,9,11,11,12,12,12,9,12,10,9,10,9,12,11,
10,12,12,9,11,10,9,9,10,11,10,12,9,11,11,9,10,11,11,11,9,12,11,10,10,10,11,10,12,11,9,10,10,10,9,9,11,12,9,11,12,10,12,11,12,9,9,10,11,12,9,9,12,10,11,9,9,9,9,9,12,10,9,12,10,10,9,10,11,11,10,10,12,11,11,9,12,9,12,9,12,9,12,9,9,11,12,11,11,11,9,12,9,9,9,9,
12,10,71,10,12,11,11,10,11,9,10,10,12,11,11,12,11,10,12,11,9,11,10,11,12,9,10,9,12,10,12,10,12,12,9,9,9,12,10,12,9,12,9,12,11,11,12,9,12,9,11,11,9,11,9,10,11,10,10,11,10,12,11,10,12,11,11,9,9,12,9,9,11,10,11,9,11,10,11,9,9,11,12,9,11,10,10,12,12,11,10,10,10,11,12,10,
10,9,10,12,10,12,11,9,12,10,12,12,10,11,12,10,11,9,9,12,12,9,9,9,9,12,12,10,9,11,10,10,9,10,12,12,12,11,9,9,11,9,11,11,9,11,11,9,9,11,11,11,11,9,10,9,9,12,10,9,10,10,11,10,11,10,12,10,9,9,9,10,11,12,11,11,10,12,12,9,12,12,10,9,9,9,11,10,9,10,9,9,10,9,11,9,
12,10,10,12,9,9,10,10,11,10,11,12,12,10,10,12,12,9,12,12,12,12,11,9,11,12,11,10,9,10,12,11,9,9,12,10,11,11,10,12,11,9,11,11,10,9,10,12,10,12,10,11,9,12,9,10,10,10,10,10,10,11,9,10,10,12,9,12,10,12,9,10,11,10,9,12,10,11,12,10,11,10,9,9,10,12,9,9,11,9,10,9,9,10,10,11,
11,12,11,11,12,12,11,12,11,9,12,12,9,11,9,9,12,10,10,12,12,10,9,9,12,11,12,11,9,10,9,11,10,11,10,10,11,9,10,10,12,9,9,10,11,12,9,10,10,9,12,9,12,11,12,10,9,12,10,12,11,9,11,12,10,11,10,12,9,10,9,12,12,10,9,11,11,12,11,12,11,9,12,9,12,11,11,10,10,9,11,10,9,9,9,11,
11,12,11,11,12,9,12,11,11,9,10,9,9,10,12,11,10,11,11,11,9,12,12,10,9,9,10,11,9,9,12,10,10,11,9,12,12,12,12,10,10,12,11,9,12,9,10,10,9,12,12,11,9,12,10,10,9,11,11,12,10,10,12,11,12,12,12,11,9,11,10,10,12,10,9,11,10,12,12,12,12,10,12,11,12,9,12,9,11,12,11,9,10,11,9,9,
12,9,10,12,10,12,10,12,11,11,9,11,11,11,11,9,12,11,11,9,10,11,10,11,11,11,11,10,10,9,11,10,10,12,10,10,9,11,9,12,11,11,10,10,10,9,11,11,10,12,10,9,10,9,11,9,10,12,12,10,9,12,10,11,12,12,9,11,12,12,10,11,12,10,10,9,10,10,9,12,11,12,9,9,12,10,9,12,9,12,11,9,12,11,12,10,
11,9,12,11,9,9,10,11,10,10,12,9,9,12,11,10,12,10,11,12,10,10,11,10,10,11,9,9,12,12,11,12,10,10,9,11,12,10,11,11,10,11,9,11,11,11,12,11,10,10,9,9,12,11,10,11,10,11,11,11,10,12,11,9,12,9,9,9,12,10,9,11,11,10,11,11,10,11,12,10,11,10,12,10,12,11,9,10,11,9,9,12,11,11,12,10,
10,12,11,9,9,12,10,9,11,11,9,9,12,11,12,12,10,12,9,11,11,11,11,12,11,12,9,11,10,10,9,12,11,9,9,9,9,10,10,12,10,11,10,9,12,9,9,12,9,11,10,12,12,12,10,11,9,10,10,11,11,10,12,12,12,11,9,12,10,10,10,9,10,10,10,10,10,10,9,10,9,12,9,12,10,10,10,12,10,12,12,10,10,11,9,10,
10,10,10,11,10,10,10,9,11,9,12,10,11,9,11,10,10,10,12,9,12,12,12,9,11,9,11,12,12,12,11,10,9,12,10,9,9,12,9,11,9,9,12,11,12,11,9,9,11,9,12,10,12,10,12,11,11,9,12,9,9,11,11,9,11,11,10,10,12,11,11,11,11,11,11,11,12,10,12,10,11,12,10,11,10,12,11,11,9,9,12,12,9,11,10,9,
11,12,10,12,9,10,11,11,10,11,10,9,10,12,11,9,10,12,11,9,10,12,11,9,11,10,9,11,11,12,12,12,12,11,9,10,9,11,11,9,9,10,10,11,12,11,10,10,12,12,12,12,10,9,10,9,9,9,9,10,9,12,9,12,9,9,10,11,11,12,9,10,11,10,12,10,12,11,10,9,11,12,12,9,10,9,11,12,10,10,9,9,11,10,10,11,
12,10,10,11,10,11,12,10,71,10,12,12,9,12,10,12,11,10,11,11,12,9,9,11,12,9,9,9,12,10,9,10,12,10,12,9,11,9,11,9,9,11,12,10,10,11,12,9,11,11,9,10,9,10,12,10,12,9,12,12,9,9,9,10,11,11,9,10,11,11,9,10,11,12,12,10,12,12,10,9,10,9,10,9,11,11,12,11,9,9,9,11,11,10,9,10,
11,12,12,12,9,9,9,12,12,9,9,9,12,9,10,10,12,11,12,12,9,12,9,11,9,9,10,10,11,10,9,12,11,11,12,9,9,9,11,12,12,10,12,10,10,9,11,10,10,11,9,12,10,12,10,10,12,11,9,11,9,10,12,9,10,10,10,12,11,10,10,11,11,11,10,9,11,10,11,12,10,9,12,10,9,10,10,10,12,9,11,9,9,11,9,10,
9,11,11,9,12,11,12,12,10,12,12,11,12,11,11,9,12,9,10,11,9,10,11,10,10,11,11,10,9,9,10,10,12,11,10,9,9,11,11,12,12,9,9,11,11,12,11,9,12,12,12,12,12,9,11,11,11,11,11,11,10,12,10,11,12,12,10,9,12,11,10,9,10,9,11,9,9,12,9,9,11,10,11,9,11,12,9,11,10,11,10,9,11,12,10,9,
12,11,11,10,11,12,10,12,11,11,10,11,9,9,9,10,9,12,9,12,10,12,10,9,10,11,11,11,10,12,11,11,12,10,10,9,12,10,11,11,11,10,10,11,9,11,11,9,12,10,12,12,9,10,10,9,12,10,9,12,10,11,10,10,11,10,12,10,11,10,9,12,9,10,12,12,12,10,9,12,12,9,10,11,12,11,9,9,12,9,11,12,10,9,10,10,
10,9,12,9,12,11,9,9,10,9,9,12,9,10,12,11,10,10,10,9,12,12,11,10,9,10,10,10,11,12,11,9,12,11,12,11,10,10,11,12,10,9,9,12,10,9,11,11,9,11,11,10,10,12,9,11,11,9,11,11,11,9,11,10,12,11,12,12,10,10,11,9,12,11,10,11,12,12,12,11,9,10,11,12,10,12,12,10,11,12,12,10,9,11,12,11,
9,9,12,9,10,11,12,10,10,10,12,10,12,11,11,12,11,9,12,9,10,9,11,12,10,9,12,11,11,11,9,10,10,11,11,11,11,11,12,12,10,9,10,10,12,10,11,12,12,11,9,11,10,11,9,10,11,9,10,9,10,12,11,12,9,10,10,11,9,10,10,12,12,12,10,10,11,12,9,10,12,11,12,12,9,10,11,10,10,12,10,9,11,10,9,10,
10,10,9,11,9,12,10,9,9,11,11,12,11,9,11,11,11,9,9,10,11,12,10,12,12,10,11,12,11,10,12,9,10,9,9,9,9,11,9,11,9,11,11,11,9,9,12,10,9,11,12,9,11,9,10,12,11,9,9,9,12,11,11,12,12,11,10,9,11,11,10,9,9,10,10,9,11,9,10,10,11,11,11,12,10,9,12,12,11,12,11,12,12,9,9,11,
9,9,10,10,10,11,10,9,11,11,12,9,10,9,12,12,10,9,12,10,9,12,9,10,12,11,11,10,11,9,12,12,9,12,12,10,10,9,10,12,11,9,12,11,10,12,12,12,11,11,12,10,10,9,9,10,12,9,12,10,10,11,11,12,9,9,10,11,10,12,9,12,11,11,12,11,12,11,11,11,10,11,11,12,12,9,9,10,11,11,12,10,9,12,11,12,
10,10,11,9,9,12,9,10,11,11,12,9,9,10,10,10,12,12,12,10,9,11,11,11,9,12,9,12,10,11,10,12,10,10,12,12,9,9,11,11,10,12,12,11,10,12,10,12,12,11,10,12,12,9,10,10,11,9,9,10,11,12,11,9,9,9,12,9,10,12,10,9,11,9,11,9,9,12,11,9,12,12,9,12,9,11,11,10,9,9,10,9,10,9,10,9,
9,12,10,9,11,12,12,10,10,11,9,11,12,11,10,12,12,12,9,11,12,12,12,11,12,12,11,10,10,9,11,12,9,10,10,11,10,12,12,9,10,9,11,9,12,9,10,12,10,9,11,9,9,9,10,10,12,11,11,10,9,11,9,12,11,12,9,9,9,11,9,12,9,11,12,9,12,10,9,11,12,12,10,10,11,9,11,10,12,9,12,11,12,11,10,12,
9,11,10,12,9,9,9,11,11,9,12,10,12,9,10,12,12,12,12,10,9,12,9,10,12,9,10,11,12,9,9,9,11,9,9,12,12,10,11,11,11,9,11,9,10,11,11,12,11,10,12,9,9,11,11,10,12,11,10,9,10,10,10,11,11,9,11,11,9,11,10,12,12,12,9,9,9,10,10,10,12,11,11,12,12,11,10,12,9,10,11,12,10,11,10,12,
9,12,11,12,11,12,9,11,12,11,11,9,12,9,10,12,11,11,12,9,11,9,12,10,10,12,9,9,9,9,11,10,9,10,10,9,11,11,9,9,12,11,12,12,11,12,11,11,12,10,12,10,11,10,12,11,9,12,10,12,11,11,12,9,9,9,9,10,11,10,11,10,12,10,11,12,12,10,10,10,9,12,12,10,11,11,9,11,9,12,9,10,9,11,9,12,
9,11,9,11,10,11,10,11,10,9,10,12,11,9,11,12,9,10,10,11,9,9,11,9,11,10,9,12,9,10,12,12,12,12,12,9,10,12,12,10,10,12,11,9,10,10,9,9,12,11,10,12,9,11,9,12,12,11,10,10,12,10,9,12,12,11,9,10,11,12,11,9,11,10,11,10,12,12,11,12,11,10,9,12,11,10,9,9,11,12,10,12,12,12,12,12,
9,12,12,12,11,11,11,12,9,10,12,12,9,9,10,10,12,12,10,9,11,9,11,12,9,10,12,9,11,9,11,12,10,9,10,12,12,11,12,10,9,11,9,12,12,9,11,12,12,10,12,12,10,12,12,12,11,12,12,9,12,11,12,12,12,12,11,9,10,10,12,12,12,10,9,10,9,11,11,12,11,10,10,11,11,12,12,12,11,10,10,10,71,10,9,11,
11,11,9,10,12,9,11,9,10,9,9,10,9,9,10,12,12,12,10,11,10,12,12,10,10,10,10,12,11,9,10,9,12,10,10,10,11,12,11,11,9,9,12,11,12,12,9,9,10,10,10,10,10,9,9,12,10,12,12,9,10,11,12,11,11,10,10,10,11,10,9,11,10,9,12,9,10,12,11,11,10,10,12,10,10,10,12,9,12,11,12,9,12,9,10,9,
10,12,12,12,11,11,12,10,11,11,10,10,10,9,12,11,11,9,10,11,11,12,9,12,9,10,12,11,10,11,11,9,9,12,12,11,12,11,11,11,10,9,10,9,12,11,12,12,9,11,11,10,11,10,12,12,10,11,11,12,10,12,9,11,11,11,10,10,11,12,11,12,10,9,12,9,12,10,9,12,10,9,11,11,10,10,9,12,11,10,11,10,12,11,11,9,
11,11,9,9,10,10,12,9,11,9,12,11,11,9,10,9,12,9,10,9,11,11,10,10,11,12,10,10,9,12,12,11,12,12,11,11,11,12,11,10,11,11,12,11,10,12,9,12,11,9,11,10,12,9,12,9,9,12,12,9,10,10,10,11,12,12,9,12,12,11,10,12,9,9,9,9,11,9,10,9,11,10,12,9,9,11,10,12,11,9,11,12,12,9,9,9,
11,10,10,10,12,9,12,10,9,12,12,9,12,11,12,12,11,10,12,9,11,11,11,12,12,9,10,10,12,9,12,9,10,11,12,11,10,9,11,10,11,12,10,12,12,9,9,11,9,10,12,9,9,9,10,11,9,9,11,12,9,11,10,11,12,12,12,11,10,12,10,10,10,10,11,11,9,12,12,10,11,9,10,11,10,12,12,10,9,9,11,12,10,11,9,9,
12,12,11,11,12,12,10,10,12,12,11,10,9,12,12,9,11,11,11,11,9,12,9,10,10,12,10,9,11,12,12,10,12,12,9,10,11,11,11,11,9,11,10,9,10,11,10,12,12,11,11,9,11,10,10,12,12,9,11,11,9,10,9,9,9,12,10,10,11,10,10,9,9,10,12,12,11,11,10,10,11,9,11,12,10,10,12,10,10,9,12,11,11,9,10,12,
9,11,12,10,12,9,11,12,12,10,12,10,9,12,12,9,11,12,12,11,10,12,10,9,11,11,10,10,10,10,9,11,10,9,12,11,10,11,10,9,9,10,11,12,12,11,10,9,9,10,11,12,12,11,9,12,9,10,12,9,9,12,10,10,12,12,10,11,11,9,9,12,12,10,9,9,9,11,10,10,11,11,10,9,10,12,11,10,11,11,11,11,11,10,12,12,
9,12,9,11,9,10,10,9,12,10,11,10,11,9,11,11,9,10,10,11,10,11,11,12,9,11,12,10,12,11,9,11,12,11,11,12,10,9,12,12,12,12,11,9,12,10,12,9,9,12,12,10,9,9,10,11,10,11,11,11,11,12,12,10,12,9,12,9,10,12,12,9,10,10,10,9,9,12,11,10,9,10,10,10,12,9,11,10,12,9,10,12,11,12,11,9,
11,10,9,9,12,11,11,10,11,9,12,10,12,11,10,9,10,9,9,9,11,12,12,12,9,9,10,11,12,12,9,9,9,12,9,9,9,10,10,10,9,11,12,10,10,10,11,9,9,9,9,9,10,9,10,11,9,11,11,10,11,9,10,9,11,9,9,12,11,10,10,12,11,9,10,12,12,12,12,12,11,9,10,12,9,10,12,10,12,12,9,9,9,11,10,11,
9,12,9,11,12,10,10,9,9,11,11,11,10,11,9,10,9,12,11,9,11,9,9,9,11,12,11,11,9,12,12,11,12,12,9,11,10,11,9,12,11,12,11,10,9,11,9,11,12,11,12,12,10,11,10,10,12,10,11,9,12,9,10,12,10,9,9,12,12,10,12,9,9,9,11,11,11,9,10,9,10,12,9,12,11,12,9,11,12,10,10,9,12,11,11,10,
10,10,11,9,10,9,10,11,12,9,12,11,11,9,12,12,11,10,12,9,10,12,9,11,10,10,10,10,10,11,11,9,9,12,10,10,12,10,9,12,10,10,12,9,9,12,10,10,11,11,9,11,10,12,12,10,10,12,10,10,12,11,12,9,10,11,11,10,9,12,12,12,12,10,10,12,10,11,12,9,11,12,10,11,9,10,10,11,11,9,10,12,11,9,11,10,
12,12,10,11,12,9,12,10,11,11,9,11,9,11,11,11,11,9,10,9,9,10,12,9,9,11,10,11,10,11,10,10,12,11,9,9,10,10,12,9,9,10,11,10,10,9,12,9,11,10,12,10,10,10,12,11,10,11,10,9,10,9,10,12,9,12,11,9,10,10,11,9,9,12,12,9,12,12,9,11,9,10,11,10,11,12,10,12,10,10,11,10,10,9,12,12,
10,12,10,11,9,9,11,10,12,11,12,12,10,12,12,10,10,9,11,10,10,10,9,10,12,12,11,10,11,12,10,10,9,11,11,9,9,11,10,9,10,12,9,12,12,9,10,9,12,10,12,12,9,9,11,11,11,9,10,10,9,10,11,9,11,10,9,12,11,12,9,11,11,12,10,12,9,11,10,12,12,11,9,11,11,9,9,9,9,11,11,10,9,12,11,10,
11,9,11,9,12,11,11,10,12,9,12,11,10,9,12,9,10,11,12,9,9,10,12,9,9,11,9,9,9,10,9,10,9,11,9,11,11,10,11,10,10,9,12,9,12,10,11,9,11,12,9,9,10,9,11,10,9,11,11,10,10,12,9,9,10,9,10,9,9,11,12,11,10,10,10,9,10,11,10,10,11,12,12,11,12,12,9,11,12,9,9,12,12,11,9,10,
12,11,12,12,11,12,9,12,9,10,9,10,12,9,12,12,11,10,9,11,9,11,11,10,9,10,10,12,9,9,12,11,11,9,10,9,10,12,11,10,10,11,11,12,11,11,11,11,10,12,9,12,9,11,9,11,10,10,12,12,10,9,11,12,11,10,10,9,11,10,10,12,9,12,9,9,11,12,10,9,9,9,10,9,12,12,12,10,10,9,9,11,9,10,9,12,
12,9,11,11,12,12,11,12,9,9,11,12,10,11,9,10,9,12,11,9,11,11,9,10,10,10,11,11,12,10,12,12,9,11,10,71,10,11,11,12,10,12,12,11,10,12,12,11,10,12,12,12,10,9,10,9,10,10,9,9,10,12,11,11,12,9,12,11,9,11,12,11,12,10,9,10,10,11,11,10,10,11,11,9,9,10,9,12,10,11,9,10,11,12,12,11,
11,9,11,11,9,11,9,10,11,10,10,9,11,11,9,11,9,12,9,12,12,9,11,9,10,9,10,9,9,11,10,11,9,9,12,10,11,10,10,9,12,10,12,10,11,12,9,12,12,12,10,12,12,12,12,10,10,11,9,11,10,10,11,10,9,10,12,11,12,11,10,11,10,9,11,11,9,9,9,10,11,9,11,11,11,9,10,12,9,12,10,11,9,11,9,12,
9,10,10,9,11,12,10,9,12,9,12,11,12,10,11,12,11,11,10,12,10,11,10,11,12,9,9,10,10,12,9,12,9,11,9,9,12,12,12,9,12,12,11,10,11,9,10,10,9,9,9,9,10,11,11,10,9,12,11,12,11,9,9,11,10,10,11,10,9,10,10,9,9,12,10,9,12,10,10,9,12,10,12,10,11,12,11,9,10,9,71,10,11,12,10,10,
9,11,10,12,12,12,10,11,9,10,10,12,10,9,12,10,12,12,10,12,12,11,12,11,11,11,9,11,11,12,9,11,10,10,11,9,12,10,9,12,11,9,11,11,11,11,12,9,10,11,12,11,12,12,12,11,9,9,10,12,10,10,10,9,10,11,12,9,11,10,11,10,10,10,11,9,9,10,9,11,10,9,9,10,12,10,9,11,12,12,10,9,11,12,9,9,
12,10,9,10,12,10,11,12,11,11,11,10,9,10,9,10,12,9,11,9,12,11,12,10,10,10,10,11,9,10,9,9,12,11,12,11,9,11,11,12,12,10,9,11,9,12,9,11,9,12,12,11,10,9,12,11,10,11,12,10,11,11,12,10,9,9,11,10,12,10,9,12,10,12,10,71,9,12,12,11,12,12,12,12,9,10,11,9,11,10,11,11,10,10,9,12,
10,9,12,9,9,12,9,12,10,12,12,12,11,9,10,12,12,10,9,11,9,9,12,9,10,9,10,11,10,10,11,9,11,10,11,10,12,12,9,10,9,12,9,10,11,11,12,10,11,11,11,9,9,9,12,10,10,9,12,10,11,10,9,9,10,10,10,10,12,11,10,10,11,12,11,10,9,12,9,10,9,9,12,9,12,9,10,10,9,12,12,10,10,9,10,12,
9,10,9,9,9,10,12,11,9,12,12,9,12,10,11,10,12,11,12,9,12,10,9,9,11,12,9,12,10,12,12,11,9,10,11,10,10,10,9,9,9,10,12,9,12,10,10,11,10,12,9,9,10,11,12,11,9,9,11,12,9,11,9,9,9,10,12,10,10,11,10,11,9,10,10,10,10,9,12,12,10,10,10,9,12,12,11,11,11,10,10,12,10,11,11,12,
11,11,12,12,10,12,12,11,11,12,10,9,9,10,10,9,9,11,12,10,10,12,10,12,12,11,12,9,12,9,9,12,11,10,9,9,12,11,9,9,9,10,9,12,9,11,9,11,11,12,12,12,10,10,9,12,9,10,11,10,12,10,10,11,11,10,10,10,12,10,11,10,12,11,10,11,11,11,11,10,12,12,11,11,9,12,12,11,10,10,11,11,11,9,9,9
</data>
 </layer>
 <layer id="2" name="terreno-visual" width="96" height="96">
  <data encoding="csv">
22,23,21,22,22,23,21,21,23,22,23,22,21,23,22,21,22,23,23,22,21,22,21,23,21,21,23,21,21,22,22,22,21,22,22,22,21,21,22,23,21,23,22,21,23,22,22,23,23,21,21,23,22,23,21,21,21,22,21,23,23,22,22,23,21,22,23,23,23,21,22,21,21,23,22,23,22,21,23,23,22,22,21,22,21,23,21,22,22,22,21,23,21,22,21,21,
23,22,23,22,22,23,22,23,23,22,21,21,21,21,23,23,23,21,22,23,21,23,22,23,23,22,23,23,23,22,22,22,23,21,23,21,23,22,22,23,22,22,21,22,23,22,23,22,23,20,20,19,19,20,20,19,19,19,19,19,20,20,19,23,20,20,21,22,23,21,22,23,22,21,22,23,23,21,23,21,22,23,23,21,21,22,21,21,23,23,21,21,21,21,22,21,
21,23,22,23,21,21,21,22,21,23,21,22,23,23,23,23,22,23,21,22,22,21,23,21,22,22,23,22,22,22,23,22,22,23,23,21,22,22,22,22,22,21,22,22,22,23,21,20,20,19,20,20,20,20,20,19,20,19,19,19,20,20,19,19,19,19,20,20,20,20,19,22,21,21,23,21,22,21,21,23,21,21,22,21,23,23,21,23,22,22,21,21,23,21,21,23,
22,22,23,21,23,22,23,23,21,22,21,22,21,23,22,21,23,22,21,21,21,22,21,23,23,22,23,22,21,22,22,21,23,23,21,21,23,21,22,23,21,21,21,23,20,20,19,19,20,19,19,20,20,19,20,19,19,20,20,19,19,19,19,19,19,20,20,20,19,20,20,19,22,23,22,22,23,21,22,21,21,21,22,21,21,22,21,22,22,23,23,21,22,23,21,22,
22,22,21,23,23,22,21,23,23,21,22,22,22,21,22,21,23,21,23,23,22,21,22,22,22,23,21,23,23,22,22,21,21,22,21,22,23,22,23,22,22,20,20,20,19,19,19,20,20,19,20,19,20,19,19,19,20,19,20,19,20,19,19,19,20,20,20,19,19,20,19,20,19,19,22,21,21,21,23,23,23,23,22,23,23,21,23,23,23,23,21,23,22,22,23,21,
23,23,21,22,22,23,21,21,21,21,21,22,22,21,22,21,22,21,23,21,21,23,21,23,22,21,23,22,23,22,21,23,22,23,21,22,22,21,20,19,19,19,19,19,20,20,20,20,19,20,19,20,20,20,20,19,20,19,20,20,20,20,20,19,20,19,19,19,20,19,20,20,19,19,20,20,20,23,22,23,23,48,50,49,48,48,22,21,23,22,21,21,21,22,21,22,
21,22,21,23,21,21,23,21,23,21,21,21,22,22,21,21,21,22,22,23,22,22,23,21,21,22,23,23,22,23,49,48,49,50,48,23,19,19,19,19,20,19,19,19,20,20,20,20,20,19,20,20,19,20,20,20,19,20,20,20,19,19,19,20,20,19,19,20,20,20,19,20,19,19,19,20,20,20,19,49,48,50,49,49,50,50,49,49,22,23,22,23,21,22,21,21,
21,23,22,23,23,21,21,21,23,21,21,21,22,22,22,21,23,22,21,20,20,19,20,20,19,19,19,20,19,50,50,50,49,49,48,48,19,19,19,20,19,19,19,19,20,19,19,19,19,19,20,20,19,19,20,20,20,19,19,19,19,19,20,19,23,21,20,20,20,20,19,19,19,20,19,19,20,19,48,49,49,50,48,50,50,49,49,48,48,23,21,23,22,21,23,23,
23,23,21,21,23,21,23,23,22,21,23,21,23,23,21,21,23,20,20,19,20,19,19,19,19,20,19,20,50,48,49,48,50,48,48,48,49,20,20,19,20,20,19,20,19,20,20,19,20,23,23,23,21,23,22,22,22,22,22,22,21,22,22,21,23,23,22,22,19,20,19,20,20,19,20,20,19,19,48,48,49,48,49,48,50,48,50,50,48,22,22,23,21,23,22,22,
22,22,23,22,21,21,21,21,21,22,23,21,15,15,14,15,19,19,20,20,20,19,19,20,20,19,20,20,50,49,48,48,49,49,49,50,48,19,19,20,19,20,19,20,19,23,23,21,23,23,23,22,21,23,22,22,21,21,22,22,21,22,21,23,21,22,21,21,21,23,20,20,19,19,20,19,20,50,50,49,50,48,49,49,48,50,48,50,48,50,21,21,21,21,22,22,
23,21,21,21,22,21,21,21,23,23,13,14,15,14,15,15,13,19,20,20,19,19,19,19,20,19,19,19,49,50,50,50,49,49,49,48,50,20,19,19,19,19,20,20,23,23,21,23,23,23,22,23,23,21,22,21,21,22,23,22,21,22,23,21,21,22,21,21,23,23,23,21,20,20,19,19,19,48,49,48,49,50,48,50,50,48,48,50,49,49,23,21,21,21,22,21,
22,21,22,22,22,22,21,21,21,21,14,15,13,13,14,14,13,19,20,20,19,20,19,20,19,20,20,20,50,49,48,50,49,48,48,48,48,19,19,23,21,23,23,23,22,21,23,22,23,23,23,22,21,22,23,22,22,23,23,22,21,22,23,23,21,21,22,21,23,21,23,21,21,22,21,21,19,50,48,48,49,50,49,48,50,48,49,48,48,49,21,22,22,22,21,23,
21,21,23,21,22,22,22,22,23,15,15,13,13,15,13,14,13,14,19,19,19,20,19,19,20,19,19,19,50,50,48,48,49,49,49,50,48,19,23,21,21,22,22,23,21,21,23,22,23,22,23,21,23,22,22,21,23,21,23,22,23,21,23,23,21,22,22,21,22,21,22,22,21,23,21,21,23,48,48,49,48,49,49,50,50,50,49,50,50,48,21,23,22,22,23,21,
23,21,23,23,21,21,22,22,23,15,14,13,15,13,14,13,15,13,20,20,19,19,19,20,20,20,19,19,19,49,49,50,49,48,49,48,20,19,19,21,23,21,22,22,22,22,22,22,22,23,23,23,22,23,23,21,21,22,23,23,21,21,23,22,22,22,21,22,22,23,23,21,23,21,21,21,21,49,49,50,49,50,48,48,49,48,48,49,48,48,22,21,21,23,23,21,
22,23,23,22,22,22,21,22,21,14,15,14,13,14,15,13,14,13,19,19,19,22,23,22,23,23,22,22,21,22,50,49,49,50,50,19,19,20,20,19,20,23,22,22,23,23,23,22,22,21,22,21,22,23,22,22,23,22,21,22,22,22,23,21,21,21,23,22,22,22,23,22,23,23,23,21,21,21,48,49,48,50,48,50,48,48,48,48,48,23,23,23,23,22,22,22,
21,23,23,21,21,21,21,21,21,15,15,14,14,13,13,13,13,14,21,21,23,23,22,21,21,21,21,23,22,22,21,21,22,22,20,19,20,20,19,19,20,22,22,23,22,23,22,23,22,23,22,22,22,23,23,23,23,21,23,22,22,23,22,23,23,22,23,21,22,22,21,22,23,22,23,22,22,22,48,48,50,48,48,48,50,50,50,48,50,22,23,23,23,22,21,21,
22,23,22,23,23,22,21,23,23,19,13,13,13,15,14,13,15,15,21,22,23,22,23,22,22,22,22,21,23,23,23,23,21,22,19,20,20,20,20,19,19,20,22,21,21,23,21,21,22,22,22,23,23,21,21,23,23,22,21,22,22,23,23,23,21,21,23,23,21,23,22,23,21,23,22,21,22,21,21,49,49,50,50,48,50,48,50,48,20,21,21,23,23,23,21,21,
23,21,23,22,21,21,22,22,20,19,19,19,14,13,13,14,15,22,21,23,23,23,22,23,22,21,21,22,21,22,22,22,22,23,23,19,20,19,19,19,20,19,19,23,23,22,21,22,22,23,21,21,21,23,21,21,22,23,23,23,22,21,23,22,23,21,21,22,21,22,23,23,21,22,23,22,21,22,21,22,22,48,49,49,49,50,20,19,20,23,22,23,23,23,22,23,
23,22,21,21,23,23,22,21,20,20,20,20,19,20,19,21,21,21,21,23,21,22,21,22,23,21,22,23,21,21,21,22,21,23,21,23,19,19,20,19,19,19,20,19,23,21,22,22,22,23,21,22,22,22,22,23,21,21,23,23,21,21,22,23,21,23,23,21,21,21,21,21,23,22,21,23,22,22,23,21,23,22,19,20,20,19,20,20,19,23,22,21,23,22,22,22,
22,23,22,21,23,21,23,20,19,20,20,20,19,20,19,21,22,23,23,21,22,22,23,21,22,22,23,23,23,23,23,23,21,21,22,23,23,19,20,19,20,20,20,19,20,22,23,21,23,21,23,21,22,21,23,21,22,23,23,23,21,23,23,22,23,23,23,21,22,22,23,23,22,23,23,21,21,23,23,23,23,22,23,19,19,19,20,19,20,22,23,22,23,23,22,22,
21,21,22,21,22,21,22,20,20,20,19,19,19,19,19,23,23,23,21,22,21,21,23,22,21,21,22,21,21,22,21,23,22,22,22,23,21,21,20,19,20,19,20,19,20,19,23,21,22,22,22,21,21,23,21,21,22,23,23,23,22,23,22,21,23,23,23,22,23,23,22,22,22,22,23,23,22,21,21,21,23,21,21,19,20,19,19,20,19,21,22,22,21,23,23,21,
22,23,21,22,21,23,22,19,19,19,19,20,20,19,22,23,22,23,22,22,21,23,21,23,21,21,23,21,21,22,21,22,23,22,21,23,22,21,19,19,20,20,19,19,20,20,23,22,21,22,22,22,21,22,23,21,23,21,22,21,23,21,23,21,22,21,21,23,23,23,23,22,23,21,21,22,23,23,22,22,21,23,23,21,19,19,19,20,20,19,21,21,21,23,23,22,
21,22,23,21,22,21,23,20,19,19,19,19,19,19,23,22,23,22,21,23,23,21,23,23,22,21,22,23,22,22,22,21,23,22,23,22,21,21,21,20,19,20,19,19,19,19,20,22,23,23,23,22,22,23,21,21,21,22,23,22,22,22,22,21,22,22,23,22,21,21,21,23,23,22,22,21,23,22,23,22,23,22,21,23,20,20,20,19,19,19,20,22,23,21,23,21,
23,23,21,23,22,23,21,20,19,20,19,20,19,20,22,21,22,23,22,21,22,23,23,23,22,23,22,21,21,22,23,21,21,21,21,22,22,22,23,22,21,20,19,20,19,20,20,19,22,23,21,21,22,21,23,21,22,23,23,23,23,23,23,22,23,22,22,23,22,22,21,23,21,21,23,23,23,23,22,21,23,22,22,22,20,20,19,20,20,19,20,22,21,23,22,23,
21,23,22,23,22,22,21,19,19,20,20,19,20,20,23,21,22,22,23,22,21,21,22,22,21,23,22,23,21,23,23,23,22,23,21,23,22,21,22,21,22,22,20,19,20,19,19,20,19,20,23,22,22,23,23,23,23,22,23,23,23,23,23,21,22,22,22,21,21,23,21,21,22,23,21,21,23,23,23,23,21,23,21,21,19,20,19,20,19,20,19,22,22,23,23,23,
21,22,22,22,23,21,22,19,20,19,19,20,19,20,23,21,22,21,21,22,21,21,21,23,23,22,22,13,13,14,13,15,23,23,22,22,22,22,21,23,21,23,21,20,19,20,20,19,19,19,22,22,21,21,21,21,23,21,22,21,23,21,21,21,23,23,21,22,23,23,22,21,21,23,21,21,21,23,22,22,22,21,22,22,20,19,20,19,19,19,19,23,23,22,22,22,
23,23,23,23,21,23,23,19,19,20,19,20,19,19,22,21,22,21,22,23,22,23,22,22,22,22,14,15,15,13,15,14,13,21,21,22,22,21,23,22,22,22,23,19,20,19,19,19,19,19,19,22,22,23,23,21,23,22,21,21,21,21,23,21,22,21,23,22,23,23,23,22,21,21,22,21,21,22,21,22,21,23,22,23,22,19,19,20,20,19,20,23,22,22,23,22,
21,23,22,22,23,22,23,20,20,20,19,20,19,19,22,23,21,22,23,23,21,21,23,21,23,13,15,13,13,15,13,14,15,21,23,23,23,21,23,23,21,22,22,23,19,20,20,20,19,19,20,20,21,22,22,23,22,22,23,21,23,23,23,21,21,22,21,22,23,22,23,21,23,22,22,21,23,22,22,23,21,23,22,21,22,21,19,20,19,20,19,20,23,23,22,22,
21,23,22,21,23,23,22,19,50,50,49,50,50,19,21,22,23,21,21,23,21,21,22,21,21,13,15,13,15,13,15,15,14,13,22,21,22,21,23,23,22,21,23,22,22,19,20,20,20,20,20,19,22,23,21,23,22,21,22,22,21,21,23,23,22,22,21,22,22,23,22,21,21,21,21,23,22,22,22,23,22,21,21,22,23,23,19,19,19,19,19,20,19,23,23,21,
22,22,22,22,22,22,23,50,48,49,50,49,50,49,22,22,23,22,21,23,22,22,22,22,23,14,13,15,13,13,14,15,14,15,22,23,23,21,23,21,21,23,23,21,22,22,20,19,20,20,19,19,19,22,23,23,23,23,21,23,21,22,22,22,23,22,22,23,22,22,22,23,23,21,23,23,23,22,22,21,23,21,21,22,22,22,19,20,19,20,19,19,20,23,23,23,
22,22,23,22,22,21,49,50,49,48,50,48,48,49,50,21,23,22,21,23,21,21,22,23,23,13,15,13,15,14,13,13,15,13,23,21,21,23,23,22,23,21,21,22,21,21,22,19,19,19,20,20,19,19,23,23,23,22,23,21,21,22,23,21,21,23,21,21,21,23,23,23,22,21,22,23,22,23,23,22,20,19,19,19,20,19,20,20,19,19,19,20,20,23,22,21,
22,22,22,21,21,23,48,50,48,48,50,50,48,50,49,21,23,22,22,23,23,22,21,21,23,15,14,14,15,15,13,14,15,14,20,22,22,21,22,23,22,23,22,22,22,22,23,19,19,20,20,19,19,20,19,23,23,21,21,23,21,21,22,23,22,23,23,21,22,21,14,14,13,23,22,21,20,19,20,20,20,20,20,20,19,20,19,20,20,19,20,19,20,21,23,23,
21,23,22,23,21,22,49,49,50,49,49,49,49,49,49,22,21,22,21,21,22,23,23,21,22,23,13,15,14,14,15,15,13,19,19,20,22,23,23,21,21,21,23,21,21,21,23,21,20,20,20,20,20,19,20,19,22,22,23,23,21,21,22,22,23,23,23,23,15,15,13,13,14,13,19,19,20,20,19,19,19,19,20,19,20,19,20,19,20,20,19,19,19,21,23,21,
22,21,23,23,22,23,50,49,48,49,49,48,49,48,50,22,22,23,23,21,22,22,22,21,23,23,21,21,13,15,13,14,19,19,19,19,23,21,23,21,22,21,22,21,22,23,21,22,21,19,20,20,20,20,19,19,20,21,22,22,21,22,23,21,21,19,19,13,14,14,14,15,15,15,15,19,19,19,19,20,19,20,20,19,20,19,20,20,19,19,19,19,20,22,22,23,
22,23,23,21,21,21,48,48,48,49,49,48,49,49,50,20,19,23,21,22,22,21,23,21,21,22,21,23,22,22,23,20,19,19,20,19,19,20,22,22,21,23,22,23,21,23,21,23,22,23,23,20,19,20,20,20,19,20,19,20,20,19,19,19,19,20,19,14,14,13,13,15,14,13,14,14,20,20,19,19,20,20,19,19,19,20,19,20,20,20,19,20,19,23,21,21,
22,21,21,21,22,22,23,48,48,50,48,48,50,48,19,19,20,19,23,23,23,23,22,22,23,22,22,23,21,23,21,22,20,19,19,20,19,19,20,21,21,23,23,23,21,23,23,23,23,22,23,23,20,19,20,19,20,20,19,20,20,20,19,20,20,19,20,15,14,13,14,13,14,14,14,15,19,19,20,20,19,20,20,19,23,23,22,19,19,19,19,20,20,22,22,23,
21,23,22,23,23,22,19,19,49,48,50,48,48,20,19,20,20,20,19,23,21,22,21,22,22,22,22,23,22,23,21,22,22,23,19,19,19,20,20,19,22,22,21,22,21,21,23,22,22,21,23,22,20,19,20,19,20,19,20,19,20,20,19,20,19,19,19,15,15,14,15,14,14,13,13,14,20,19,20,19,22,23,22,21,23,23,22,20,19,19,20,20,20,21,23,21,
21,22,22,21,22,21,19,19,20,19,20,19,19,19,20,20,20,19,19,19,21,21,21,22,21,22,21,21,21,21,23,21,23,21,20,19,20,19,19,19,20,22,21,22,22,21,23,21,21,22,23,21,21,20,19,20,20,20,20,20,20,19,20,19,20,20,20,20,15,14,15,15,15,15,14,20,23,23,23,23,23,23,23,22,21,21,23,20,20,20,19,20,19,21,22,23,
22,22,22,22,23,20,19,19,20,19,19,19,23,19,20,19,20,19,20,20,20,19,21,23,22,21,23,23,23,23,23,22,23,23,22,20,20,19,19,20,19,19,21,21,22,22,22,23,23,21,21,23,19,19,20,19,20,20,19,19,19,19,20,19,20,20,19,20,14,13,15,15,14,14,15,23,22,23,23,22,21,23,21,23,23,21,22,19,20,20,19,20,20,21,21,21,
23,23,22,23,22,19,19,20,19,20,19,23,21,21,19,19,19,19,19,19,19,19,20,22,21,23,22,23,23,21,22,23,21,21,22,21,19,19,20,20,20,20,19,21,23,21,23,23,22,23,23,19,20,20,19,20,19,20,20,20,20,19,19,19,19,19,19,22,21,14,14,13,22,23,22,23,22,23,22,21,22,23,22,21,21,23,22,19,20,19,20,20,20,22,23,21,
21,22,22,21,22,19,20,19,20,19,19,21,21,23,20,20,19,20,19,20,20,20,19,21,22,21,22,21,22,21,23,22,21,22,21,21,22,20,19,20,20,19,20,20,21,23,23,48,22,21,19,20,19,19,20,19,20,20,20,20,19,20,19,19,19,23,23,23,22,23,22,23,22,21,22,23,22,21,23,22,23,22,22,22,21,23,21,19,19,19,20,19,19,23,22,22,
23,22,21,21,20,19,19,19,20,20,19,23,22,21,23,22,20,19,19,20,19,20,20,20,22,23,22,22,21,23,21,23,21,21,23,23,22,22,19,20,19,20,20,20,49,48,50,49,48,50,50,20,20,20,19,19,19,20,20,20,19,19,19,20,19,19,21,21,21,21,23,22,23,22,23,23,21,23,21,22,21,21,23,22,23,23,21,20,20,20,20,20,20,20,23,21,
22,21,22,21,20,19,19,19,19,19,20,23,22,22,22,22,22,19,20,20,20,19,19,19,20,21,23,22,23,23,21,22,23,22,22,23,21,21,21,19,20,20,20,48,49,50,48,50,50,50,50,48,20,19,19,19,19,22,20,19,20,19,20,19,19,20,23,22,22,21,21,21,21,21,21,22,22,22,21,23,23,23,21,21,22,21,21,20,20,19,19,20,20,19,21,23,
21,22,22,23,20,19,19,19,20,20,20,23,23,22,22,23,21,23,19,19,19,19,19,20,19,20,19,23,22,21,22,22,21,21,23,23,22,22,21,21,20,20,48,48,48,50,49,50,48,50,48,49,50,20,20,19,22,22,22,20,19,19,19,19,20,19,20,19,21,21,23,23,22,23,22,21,21,22,22,22,22,23,23,22,22,21,23,19,19,19,19,20,19,19,23,22,
23,23,22,20,19,20,20,20,19,19,23,22,21,22,23,22,21,23,23,20,20,20,19,19,20,19,20,19,22,22,21,22,21,22,21,21,21,22,22,23,21,49,49,48,48,48,49,49,48,48,49,48,49,49,19,21,22,21,21,23,21,19,20,19,20,20,19,19,20,23,23,22,23,21,22,23,23,21,21,22,23,22,21,23,22,23,23,20,19,20,19,19,19,20,23,23,
22,22,23,20,19,20,20,19,20,23,23,21,21,22,23,23,23,22,21,22,19,20,19,20,19,20,19,20,19,22,21,22,21,23,23,23,21,21,22,21,23,48,50,50,48,49,50,49,48,48,50,50,50,50,23,23,22,23,22,21,22,23,19,20,20,19,19,20,20,20,23,21,23,22,22,23,22,21,23,22,23,23,21,21,21,21,19,20,20,20,19,20,19,20,22,22,
22,23,21,19,19,20,20,19,20,23,21,23,23,22,23,22,21,21,22,23,23,23,20,20,19,20,19,20,20,20,22,23,23,21,21,23,23,23,22,23,23,50,48,49,49,50,49,50,48,49,50,48,48,49,21,22,23,21,23,21,23,21,19,19,20,19,20,20,19,20,19,21,23,21,21,22,23,21,21,22,23,22,21,23,23,22,19,20,19,19,20,20,19,23,23,23,
23,22,20,19,20,20,20,19,19,21,23,22,22,22,22,23,21,22,22,21,21,22,22,19,20,19,19,20,20,19,19,19,21,22,23,23,22,21,23,23,48,49,50,50,49,49,50,48,49,49,48,50,48,50,50,21,23,21,22,21,21,22,22,20,19,19,19,19,19,20,20,20,22,22,23,21,23,21,21,22,22,21,21,23,21,19,20,20,20,19,19,20,20,23,22,21,
23,23,20,20,20,19,20,19,20,23,23,23,23,22,22,22,22,22,22,23,22,21,23,22,19,19,19,19,20,20,19,19,20,21,22,23,22,21,23,22,22,48,50,48,48,48,48,49,49,49,48,49,50,49,22,21,23,23,21,23,21,21,21,23,22,20,19,19,19,19,19,19,20,20,21,22,23,21,22,22,23,21,22,23,23,19,20,20,19,19,19,19,20,23,21,21,
21,20,19,19,19,20,19,19,23,23,23,23,22,23,21,23,22,23,23,21,22,22,23,23,20,19,19,19,20,20,19,20,20,19,23,22,21,22,21,23,21,50,50,50,48,48,49,49,49,50,50,49,48,48,21,23,21,21,22,23,23,22,23,21,22,22,22,19,20,20,19,19,19,19,19,23,21,22,23,23,21,22,22,22,23,19,19,20,20,20,19,20,19,21,21,23,
21,20,20,19,20,19,20,20,23,23,22,23,23,23,22,22,22,21,21,23,22,22,23,21,23,22,19,20,20,19,20,20,20,20,23,23,23,23,21,23,19,50,50,48,49,50,50,48,48,50,48,50,50,50,23,21,21,22,22,23,21,22,23,21,22,22,21,23,19,19,20,19,19,20,19,20,21,22,21,22,21,23,22,22,22,19,19,19,20,20,19,19,23,23,22,23,
23,19,20,20,19,20,20,20,23,22,23,22,21,23,21,22,23,21,22,21,21,22,22,21,22,22,22,20,19,19,20,19,20,20,20,23,22,21,23,19,20,20,48,49,48,50,48,50,49,49,50,48,49,20,20,23,21,22,23,23,22,21,22,23,22,23,21,22,20,20,20,20,19,19,19,19,22,23,21,22,21,23,21,23,22,19,19,20,19,20,20,19,23,22,21,22,
22,19,20,20,20,20,19,19,21,21,23,21,23,22,22,22,23,21,22,22,21,21,22,22,22,21,22,21,22,19,19,19,20,20,19,20,20,21,19,20,19,20,20,50,49,50,48,48,50,48,50,49,19,20,20,19,22,22,21,23,22,22,23,21,21,22,21,21,22,19,20,19,19,20,20,20,19,21,23,21,21,22,23,23,20,20,20,20,20,20,19,21,23,22,23,23,
23,20,20,19,19,20,20,19,23,23,21,22,22,23,23,23,21,23,22,21,23,22,23,21,23,21,23,22,23,22,19,20,19,20,20,19,19,20,19,20,19,20,19,20,49,50,49,50,49,48,50,20,20,19,19,20,19,22,23,23,21,22,23,23,23,22,22,22,21,21,19,19,20,19,20,19,19,20,19,22,23,23,23,21,19,20,19,20,19,19,19,22,21,23,21,23,
21,20,20,20,19,20,20,20,22,22,22,23,22,23,22,23,21,21,22,23,21,23,21,23,23,21,23,22,21,23,23,19,20,19,20,20,20,19,20,19,20,19,19,20,19,23,21,50,22,21,23,20,20,19,20,20,19,20,21,22,23,23,21,23,22,23,21,23,21,22,23,22,19,20,19,20,19,20,20,19,19,21,22,23,20,20,20,19,19,20,22,21,21,23,21,21,
21,19,19,19,19,19,20,20,22,22,21,22,21,21,22,23,23,21,23,21,21,21,21,21,23,21,21,23,23,23,23,23,19,19,20,19,19,20,19,20,19,19,19,19,21,23,22,21,21,23,21,23,19,20,20,20,19,20,20,21,22,23,21,21,21,23,22,23,23,21,21,22,21,19,20,19,20,20,20,19,20,21,23,23,20,19,20,20,20,20,22,23,21,21,22,23,
21,19,20,19,20,20,19,20,22,21,21,22,23,21,23,23,23,22,21,22,22,23,21,22,23,23,23,22,22,23,23,23,22,20,19,20,20,20,20,19,20,19,19,22,22,22,23,23,23,21,21,21,22,19,19,19,20,19,20,20,22,22,22,23,22,21,22,21,21,23,22,21,23,21,20,19,19,20,19,19,19,20,22,20,20,19,20,20,19,20,23,23,23,23,22,22,
22,19,19,20,19,19,20,19,22,21,22,23,21,22,22,21,22,23,21,23,23,21,22,23,22,21,22,22,21,23,22,21,22,21,20,20,19,20,20,20,20,20,22,22,21,23,21,21,23,21,22,22,22,22,20,20,19,20,20,19,19,23,23,22,22,23,22,21,21,21,21,21,22,23,21,19,20,19,19,20,19,19,20,20,20,20,19,20,19,20,21,22,23,23,21,22,
21,19,19,20,20,20,20,19,22,22,23,23,23,23,21,23,21,23,23,23,23,22,23,23,23,22,21,23,22,21,23,21,23,22,19,19,20,20,19,20,20,20,20,22,21,22,23,22,21,22,22,23,21,23,21,20,20,20,19,20,19,20,21,23,21,21,23,21,21,21,21,21,23,22,23,22,20,19,20,20,19,19,50,50,49,48,49,20,19,21,21,23,21,22,22,23,
23,19,19,19,19,20,20,19,22,22,22,22,22,23,22,22,22,23,23,23,23,21,22,23,23,21,21,21,22,23,21,23,23,22,20,20,19,20,19,20,20,20,19,20,23,21,21,21,23,23,23,23,23,23,22,21,20,19,20,19,19,19,20,21,23,23,23,21,21,23,23,23,22,22,22,21,21,20,19,20,19,48,49,50,48,49,50,49,19,21,22,23,21,21,22,21,
23,20,20,19,20,20,19,19,21,21,21,21,23,21,22,22,22,22,21,21,22,23,22,23,23,23,21,23,21,21,21,21,21,21,20,20,20,20,19,20,19,19,20,19,21,22,23,21,21,23,21,22,22,21,23,22,22,19,19,19,19,19,20,19,23,22,23,23,21,21,23,23,22,22,23,22,23,22,20,20,50,50,50,49,48,49,49,50,48,21,23,21,21,21,21,23,
22,20,20,19,19,20,19,19,22,22,22,22,21,21,22,23,23,21,21,23,23,21,22,23,23,21,21,23,21,22,22,21,21,22,19,20,20,19,19,19,20,19,19,19,19,23,21,22,21,22,22,21,22,22,23,23,22,23,20,19,19,19,20,15,14,14,13,15,22,21,22,21,23,23,21,22,21,23,23,20,48,48,50,49,49,50,50,48,48,23,22,22,22,21,21,23,
22,19,19,19,19,20,19,20,22,21,23,23,23,23,23,22,23,23,22,23,22,23,22,23,23,21,23,23,23,22,23,22,22,23,19,19,19,20,20,19,19,19,20,19,20,19,19,22,21,23,23,22,23,23,21,21,22,23,21,20,20,20,13,14,15,14,13,13,15,22,23,21,21,22,22,23,22,23,21,21,50,50,50,48,50,48,48,49,50,22,23,23,21,21,23,22,
23,23,19,19,19,19,20,19,21,23,21,23,23,22,21,23,23,22,23,22,21,21,21,22,21,21,21,21,23,22,21,23,22,21,19,20,20,19,19,19,19,20,19,19,19,20,19,20,23,21,21,23,21,23,23,21,23,22,23,21,19,15,14,13,13,13,13,14,14,14,22,22,21,22,23,21,21,21,23,23,49,50,48,49,48,48,49,48,48,21,22,21,22,21,22,23,
21,20,19,19,20,20,20,23,23,21,21,21,21,22,21,23,21,23,21,23,23,22,22,23,22,23,22,21,22,23,21,22,23,21,19,20,19,20,20,19,19,19,19,20,20,20,20,19,22,22,22,22,21,23,22,21,22,22,21,23,23,14,15,13,15,15,15,15,13,14,23,21,23,23,21,22,21,22,21,21,49,50,49,49,48,48,48,49,49,22,22,23,22,22,23,22,
22,20,19,20,20,19,19,21,23,22,22,21,22,22,21,22,21,21,23,23,23,21,22,22,22,23,21,22,22,22,23,23,23,19,20,19,19,20,20,19,23,19,20,19,20,19,19,19,20,22,22,23,22,22,23,23,21,23,21,23,22,14,14,13,15,15,13,13,13,13,14,22,22,21,22,22,21,23,21,21,22,49,50,50,49,49,48,50,22,23,22,22,23,21,22,22,
23,21,20,20,20,19,19,20,22,21,21,22,22,21,23,23,23,21,23,23,23,21,23,22,22,21,23,21,21,22,21,23,23,19,19,20,19,20,19,19,23,21,23,20,19,19,20,19,19,22,21,21,21,22,21,22,22,22,23,23,23,13,13,13,15,13,15,13,13,13,22,22,22,21,23,23,22,23,23,23,21,20,50,48,48,48,48,19,21,23,21,23,23,21,22,22,
23,22,20,20,19,19,20,20,22,21,21,21,21,22,22,21,23,22,21,21,22,23,22,23,21,22,22,22,22,23,21,21,23,13,14,15,15,20,20,22,23,21,22,19,19,20,20,19,19,19,23,22,21,22,23,23,21,21,21,21,23,15,13,14,15,13,13,15,13,14,21,23,22,22,21,21,23,22,22,23,22,19,19,20,19,20,20,20,21,22,23,21,23,21,22,21,
23,23,20,19,19,20,20,20,19,21,23,23,22,22,22,22,21,21,21,22,23,23,21,22,21,23,23,23,22,22,21,22,15,14,14,14,15,15,14,21,22,21,22,21,20,20,19,19,19,20,19,20,22,21,21,23,21,21,21,21,21,22,15,14,13,13,13,13,14,23,23,22,21,21,22,21,21,21,22,21,22,20,20,20,19,19,20,22,23,21,21,23,22,21,23,22,
21,21,20,20,20,19,20,20,20,23,23,21,21,23,22,22,23,22,21,22,23,23,21,22,23,23,23,22,23,22,23,21,15,14,13,13,14,14,13,14,23,21,21,21,23,20,20,20,19,20,19,20,19,21,22,21,23,21,21,23,21,21,22,14,14,13,13,14,23,22,22,22,23,21,21,21,21,21,23,22,22,19,20,20,20,19,19,22,22,21,23,23,22,22,21,21,
22,22,19,20,19,20,19,19,19,20,23,23,22,23,23,21,22,23,21,23,22,23,21,21,21,22,23,23,22,22,23,14,13,14,13,14,15,15,15,14,22,23,21,23,23,23,19,20,19,19,20,20,20,19,23,21,22,21,21,23,23,22,23,22,23,14,22,21,23,22,21,23,22,22,21,22,21,22,21,21,23,19,19,20,19,20,20,20,22,22,23,22,21,23,22,23,
21,23,22,19,20,20,20,19,20,20,21,21,22,21,22,22,23,23,21,23,22,22,23,23,21,21,22,21,21,23,23,14,13,15,15,13,14,15,15,13,23,22,21,23,22,21,21,20,19,19,19,20,19,19,22,22,21,21,21,23,23,21,21,22,21,22,22,23,22,22,23,23,22,23,21,23,21,21,23,23,23,20,20,20,20,20,20,20,23,22,21,23,23,22,21,23,
21,22,21,22,19,19,19,19,20,19,20,21,21,23,23,23,21,21,23,22,22,23,23,21,22,21,21,23,21,23,22,13,14,15,14,14,14,15,14,22,22,23,21,22,23,23,23,22,20,19,19,19,19,20,19,21,23,22,23,22,22,23,21,21,23,22,22,22,21,23,22,22,22,22,21,21,23,23,23,21,21,19,19,19,20,19,20,19,21,22,23,23,23,23,22,23,
23,21,21,23,19,19,19,20,19,19,20,22,23,21,23,22,23,22,22,23,22,21,22,21,23,23,21,22,21,21,21,23,13,15,13,14,13,15,14,23,21,22,21,23,21,22,21,22,20,19,20,19,20,19,20,19,21,23,22,22,22,23,22,22,23,21,21,22,21,21,22,23,22,21,22,22,22,22,21,22,23,20,19,20,20,20,19,19,23,22,22,21,23,21,23,21,
22,22,23,22,22,20,19,19,20,20,19,21,21,21,23,23,22,23,21,23,23,21,22,23,21,21,22,22,21,23,22,22,19,15,14,14,13,14,15,22,22,23,21,22,22,22,21,23,21,19,19,19,20,20,19,20,20,21,23,22,23,21,22,23,21,22,23,21,22,21,21,21,21,22,22,21,21,21,23,22,23,19,20,20,20,19,19,19,21,22,21,22,21,21,23,21,
23,23,21,22,21,20,20,19,20,19,19,21,21,21,21,22,21,22,23,21,23,22,21,23,21,21,21,21,23,23,23,21,19,19,14,15,14,20,23,23,23,23,22,21,23,23,22,21,22,23,20,19,20,19,20,19,19,19,22,21,22,22,23,21,22,22,23,21,21,21,22,23,21,22,21,22,21,22,22,23,20,19,19,20,20,19,20,21,21,23,23,22,22,23,22,21,
22,23,22,23,21,20,20,20,19,20,19,19,23,21,21,22,22,21,22,21,22,23,23,23,23,21,21,23,22,23,22,20,20,19,20,19,20,23,22,22,22,21,22,21,23,22,23,23,23,21,21,22,19,19,19,20,19,20,20,21,23,21,22,21,21,21,22,23,21,21,21,21,23,22,21,21,22,22,21,22,19,20,20,20,19,19,19,21,21,23,21,23,22,22,22,23,
21,21,21,21,21,23,20,19,19,50,48,50,48,49,21,22,21,22,22,23,21,23,22,23,23,23,22,22,22,22,23,19,20,19,20,19,19,23,23,23,21,23,22,22,21,21,21,21,21,22,22,23,21,20,20,20,20,19,19,20,22,23,23,21,22,23,23,22,21,21,22,21,23,22,21,22,22,21,21,13,15,15,15,19,20,20,23,23,21,23,23,23,21,22,23,21,
23,23,21,22,23,22,19,48,48,50,49,48,48,49,48,48,21,21,23,23,21,22,23,22,23,22,21,22,22,22,23,20,19,19,19,20,20,23,23,22,23,21,21,22,21,23,21,21,22,23,21,21,23,19,20,20,19,19,20,19,20,23,21,23,21,21,23,22,22,23,21,23,23,21,23,22,21,21,14,15,14,14,14,13,13,19,21,22,23,23,21,23,22,21,22,22,
23,21,23,21,23,23,49,49,48,49,48,48,49,50,49,48,49,22,21,23,21,22,22,21,23,22,22,23,23,21,22,20,19,20,19,20,19,23,22,21,22,22,23,22,22,22,22,22,22,23,22,22,21,22,19,19,19,20,20,20,20,20,21,23,21,21,23,23,21,22,21,23,21,22,22,23,22,13,15,13,14,15,14,13,15,14,23,21,22,22,22,21,23,23,23,21,
22,22,21,21,23,23,48,49,49,50,49,49,48,49,48,50,49,22,23,23,23,21,23,23,21,22,21,21,22,23,20,20,19,19,20,19,22,23,21,22,23,21,23,22,23,23,23,22,23,21,21,21,21,23,19,20,19,19,19,19,50,48,50,49,49,22,21,22,22,22,23,23,21,23,23,20,19,15,14,14,13,15,14,15,14,14,23,21,22,22,21,23,22,23,23,21,
22,23,21,21,23,48,50,50,48,48,50,50,49,50,50,48,50,48,22,22,21,23,22,22,23,21,23,23,21,21,19,20,19,20,20,20,23,23,23,23,22,21,23,23,22,23,22,21,21,22,23,23,22,23,21,21,20,19,19,48,50,48,50,50,50,49,20,19,20,19,19,20,19,20,19,19,20,15,14,15,15,13,13,13,13,14,21,22,23,22,21,22,22,22,23,21,
21,23,22,22,22,50,49,48,49,49,48,49,49,48,48,48,50,49,19,23,21,23,21,22,21,22,22,22,21,21,19,20,20,20,19,20,22,23,21,22,22,23,21,23,21,21,21,21,22,22,22,21,23,23,22,23,22,20,50,49,50,50,50,48,49,50,50,19,20,20,19,20,19,19,20,19,20,15,14,14,14,13,15,14,15,13,22,22,23,23,22,22,23,23,22,21,
22,21,21,21,23,49,49,50,48,49,50,48,50,48,50,48,48,49,20,19,19,21,23,22,21,22,23,21,22,22,19,20,19,19,19,19,21,22,23,21,22,22,21,22,23,21,23,23,23,22,22,23,23,21,23,23,20,20,50,50,49,49,48,49,49,50,48,20,20,20,20,20,19,20,20,20,20,19,13,13,15,13,14,15,14,23,22,22,21,21,23,23,22,21,23,22,
21,21,23,21,23,48,50,50,50,48,50,50,50,49,48,50,50,49,20,19,20,19,20,20,19,20,22,22,23,22,20,19,20,20,19,23,23,21,23,21,21,23,22,22,22,21,23,21,23,23,22,22,20,19,20,20,20,20,49,48,48,49,50,48,48,49,48,19,19,20,19,20,20,20,20,20,19,20,13,15,14,13,15,14,21,21,22,21,21,22,21,23,21,23,21,22,
23,22,23,22,21,48,50,49,48,50,48,48,50,48,48,50,48,50,19,19,19,19,20,20,20,19,19,21,23,22,19,20,19,19,20,23,23,21,21,23,23,23,21,21,23,21,22,19,19,19,19,19,20,20,20,19,19,20,48,49,49,50,48,48,48,49,48,20,19,19,20,20,19,20,19,19,19,20,19,14,14,14,13,23,21,22,22,21,22,21,23,22,22,23,22,21,
21,21,21,21,23,22,49,49,50,48,48,49,49,48,48,50,50,20,20,20,19,19,20,19,19,20,19,19,19,19,20,19,20,20,19,22,22,23,22,22,21,21,21,23,23,19,19,20,20,19,19,19,20,19,20,20,20,19,49,50,49,50,48,49,48,48,48,20,20,19,20,20,20,19,19,20,19,23,21,23,23,21,22,22,22,22,22,23,23,22,23,21,21,22,23,21,
22,21,23,22,23,21,49,48,50,50,50,48,50,49,48,48,48,19,20,19,20,20,19,20,20,19,20,20,19,20,20,20,19,20,20,19,20,20,19,19,19,20,20,19,20,20,20,20,20,20,19,20,20,20,19,20,20,20,20,49,50,48,49,48,49,50,19,20,22,22,20,20,19,19,19,21,21,23,22,21,21,22,22,22,21,21,23,23,21,21,21,23,23,21,23,21,
22,23,22,22,23,23,22,48,48,48,49,48,50,48,48,50,20,20,19,20,19,20,19,20,19,19,20,19,19,19,19,20,20,19,20,19,19,20,20,20,19,20,20,19,19,20,19,20,19,20,20,19,20,19,19,20,19,19,19,19,48,48,50,48,49,22,21,21,23,22,22,23,21,23,21,21,21,21,23,22,22,23,23,21,21,22,23,21,21,21,21,22,21,22,22,23,
22,23,22,23,23,22,23,23,22,50,49,49,48,48,23,22,21,23,23,22,21,19,19,19,20,19,19,20,19,20,19,19,20,19,20,19,19,20,20,19,19,20,19,19,20,20,19,19,19,20,20,20,20,19,20,20,20,20,21,21,21,23,22,21,22,23,23,22,21,21,22,22,22,22,22,23,23,23,23,22,22,22,23,21,22,21,22,21,21,22,23,21,22,22,21,23,
21,21,21,23,21,21,22,21,22,21,23,21,21,22,23,23,21,22,22,23,22,21,20,20,19,19,20,19,19,19,19,20,19,19,19,19,20,19,19,20,20,20,19,19,19,19,20,19,19,19,19,20,19,19,22,22,23,21,21,22,23,22,23,22,22,22,21,23,21,23,23,21,23,22,21,23,21,23,21,22,21,21,22,23,21,23,23,21,21,23,22,22,23,21,21,21,
23,21,21,21,23,21,23,23,23,21,21,22,23,21,23,23,23,23,21,22,22,21,22,22,22,23,23,20,20,19,20,19,19,19,20,20,20,20,20,20,19,20,20,20,19,20,20,20,19,20,19,19,21,22,21,23,23,22,23,23,21,22,23,21,23,22,23,21,23,23,22,23,23,21,22,22,23,23,23,21,23,22,22,23,23,22,21,23,22,21,22,23,21,21,22,21,
21,21,23,22,22,21,21,22,21,21,21,22,22,21,23,23,23,23,23,23,21,21,23,21,22,23,22,23,19,20,20,20,19,20,19,20,20,19,20,20,19,20,20,19,19,19,19,20,20,19,23,23,23,21,21,21,23,23,21,21,21,22,21,22,22,23,23,23,22,22,21,23,23,23,21,22,22,21,22,23,22,22,23,22,21,22,21,23,21,22,23,21,22,21,23,22,
22,21,21,23,22,22,22,21,23,21,21,22,22,23,22,22,23,23,22,23,23,23,21,23,23,22,22,23,23,23,23,21,21,22,23,22,21,21,21,22,23,20,19,19,20,20,23,23,23,21,23,22,22,23,23,21,23,23,22,21,21,21,21,21,22,21,21,21,21,22,23,22,23,21,21,23,22,22,21,23,23,22,23,21,23,23,22,21,22,22,21,21,21,23,21,23,
21,22,21,21,23,21,21,23,22,22,22,21,23,23,22,21,21,22,22,22,23,23,23,22,23,22,23,22,23,23,22,23,23,22,21,22,23,22,21,23,22,23,21,23,23,22,23,22,21,21,22,21,23,21,21,22,22,21,22,22,21,21,23,22,23,22,22,22,23,21,22,21,22,23,23,22,22,23,22,23,23,23,22,23,21,22,23,23,22,21,21,22,23,21,21,21,
21,21,23,22,21,22,21,23,22,22,21,23,21,21,22,21,21,23,22,22,21,22,21,23,23,22,22,22,21,23,21,23,21,23,21,23,21,23,21,21,22,21,23,22,23,22,23,21,21,23,23,22,23,23,21,23,22,22,23,21,23,23,22,23,22,22,22,21,22,21,23,23,23,21,21,21,23,21,22,21,21,21,21,22,22,21,21,21,23,23,21,21,22,23,21,22
</data>
 </layer>
 <layer id="3" name="decoracion" width="96" height="96">
  <data encoding="csv">
0,25,29,0,29,25,25,0,28,25,27,27,0,27,28,0,25,26,27,0,27,24,26,27,25,25,0,28,0,24,29,24,28,25,28,25,28,25,0,29,0,26,29,25,0,27,28,0,31,0,0,31,31,0,30,31,0,0,30,30,31,30,0,0,0,30,0,0,0,28,28,0,31,0,27,0,25,28,0,0,0,0,25,29,0,29,28,29,0,25,0,26,28,26,27,0,
25,24,29,27,26,26,0,25,0,0,27,0,29,0,26,26,25,27,26,26,28,29,29,0,0,0,0,0,25,0,28,0,27,0,24,28,29,0,28,0,27,26,0,27,28,0,31,0,0,0,0,0,0,0,0,0,0,0,0,0,0,0,0,31,0,0,0,0,0,0,0,31,28,31,29,0,0,0,25,0,26,25,29,0,29,0,0,29,26,0,27,27,28,29,28,0,
29,29,0,24,25,0,0,0,0,26,0,0,26,0,28,25,0,26,0,29,0,0,26,28,24,0,0,24,0,26,0,24,28,0,26,0,0,0,0,0,0,27,31,0,0,30,0,0,0,0,0,0,0,0,0,0,0,0,0,0,0,0,0,0,0,0,0,0,0,0,0,0,0,0,31,0,25,25,28,29,29,27,0,0,29,26,27,24,27,26,28,0,26,0,0,26,
0,27,24,28,0,0,26,27,25,29,27,27,0,29,26,29,29,0,0,0,0,29,0,27,24,29,24,0,0,0,0,0,0,0,24,0,0,31,0,0,31,0,0,0,0,0,0,0,0,0,0,0,0,0,0,0,0,0,0,0,0,0,0,0,0,0,0,0,0,0,0,0,0,31,0,29,30,27,0,31,31,0,28,0,27,0,27,28,0,0,25,26,28,26,29,28,
29,26,25,0,28,0,28,0,0,0,25,0,0,27,0,0,28,0,0,0,0,0,0,0,29,0,25,25,31,0,30,31,0,0,0,27,0,0,0,0,30,0,0,0,0,0,0,0,0,0,0,0,0,0,0,0,0,0,0,0,0,0,0,0,0,0,0,0,0,0,0,0,0,0,31,30,0,0,0,0,0,0,31,0,0,0,0,0,31,0,25,27,25,25,25,27,
25,26,0,0,0,0,0,25,0,27,26,24,25,28,0,0,28,27,0,28,0,30,0,0,31,31,0,0,28,0,0,0,0,30,0,0,31,0,0,0,0,0,0,0,0,0,0,0,0,0,0,0,0,0,0,0,0,0,0,0,0,0,0,0,0,0,0,0,0,0,0,0,0,0,0,0,0,0,0,0,30,0,0,0,0,0,0,0,30,0,29,0,27,0,28,0,
25,0,0,26,28,0,0,28,0,27,26,28,25,26,24,27,0,0,30,30,0,31,0,0,31,31,30,31,0,0,0,0,0,0,0,0,0,0,0,0,0,0,0,0,0,0,0,0,0,0,0,0,0,0,0,0,0,0,0,0,0,0,0,0,0,0,0,0,0,0,0,0,0,0,0,0,0,0,0,0,0,0,0,0,0,0,0,0,0,0,0,27,29,24,0,0,
0,25,0,27,0,25,28,28,0,27,29,0,0,30,31,29,30,30,0,0,0,0,0,0,0,0,0,0,0,0,0,0,0,0,0,0,0,0,0,0,0,0,0,0,0,0,0,0,0,0,0,0,0,0,0,0,0,0,0,0,0,0,0,0,0,0,0,0,0,0,0,0,0,0,0,0,0,0,0,0,0,0,0,0,0,0,0,0,0,30,27,0,24,0,0,0,
28,0,0,25,0,0,0,0,0,0,0,0,0,0,0,0,0,0,0,0,0,0,0,0,0,0,0,0,0,0,0,0,0,0,0,0,0,0,0,0,0,0,0,0,0,0,0,0,0,0,30,30,0,0,0,30,31,0,31,0,30,0,0,30,0,0,0,0,0,0,0,0,0,0,0,0,0,0,0,0,0,0,0,0,0,0,0,0,0,0,0,28,29,0,26,0,
25,0,26,29,0,27,27,27,0,0,31,0,0,0,0,0,0,0,0,0,0,0,0,0,0,0,0,0,0,0,0,0,0,0,0,0,0,0,0,0,0,0,0,0,0,0,0,0,0,0,30,30,0,29,0,31,0,0,27,30,0,0,29,0,0,0,28,31,31,0,0,0,0,0,0,0,0,0,0,0,0,0,0,0,0,0,0,0,0,0,31,0,0,25,27,25,
27,27,0,27,25,26,26,29,0,31,0,0,0,0,0,0,0,0,0,0,0,0,0,0,0,0,0,0,0,0,0,0,0,0,0,0,0,0,0,0,0,0,0,0,31,0,0,27,0,0,30,0,28,25,25,25,0,0,0,0,0,28,0,0,0,24,27,0,27,31,30,30,0,0,0,0,0,0,0,0,0,0,0,0,0,0,0,0,0,0,0,0,0,24,28,27,
27,0,0,27,0,24,28,0,0,0,0,0,0,0,0,0,0,0,0,0,0,0,0,0,0,0,0,0,0,0,0,0,0,0,0,0,0,0,0,31,0,30,30,31,0,28,0,27,0,29,0,26,0,0,24,24,25,27,0,26,25,0,0,28,0,27,0,0,30,27,27,31,0,0,30,0,0,0,0,0,0,0,0,0,0,0,0,0,0,0,31,27,24,0,24,0,
0,29,26,0,0,25,25,0,0,0,0,0,0,0,0,0,0,0,0,0,0,0,0,0,0,0,0,0,0,0,0,0,0,0,0,0,0,0,0,0,30,0,27,0,0,0,29,25,27,0,0,29,0,0,26,29,0,0,0,26,0,26,25,29,26,0,0,28,24,27,0,28,29,29,31,0,30,0,0,0,0,0,0,0,0,0,0,0,0,0,0,27,24,27,29,28,
27,0,0,29,27,28,26,30,0,0,0,0,0,0,0,0,0,0,0,0,0,0,0,0,0,0,0,0,0,0,0,0,0,0,0,0,0,0,0,0,31,0,0,25,25,0,27,24,27,29,26,26,26,0,0,26,0,29,27,29,26,24,25,29,25,28,28,25,28,29,0,24,0,0,29,28,0,0,0,0,0,0,0,0,0,0,0,0,0,0,0,0,24,0,28,26,
28,26,28,26,0,0,24,31,0,0,0,0,0,0,0,0,0,0,0,0,0,0,0,0,30,0,0,0,31,31,0,0,0,0,0,0,0,0,0,0,0,30,0,28,26,0,0,28,24,27,0,0,26,0,27,27,27,24,0,29,0,0,25,24,29,26,0,26,24,24,25,26,29,29,27,0,0,31,0,0,0,0,0,0,0,0,0,0,0,0,0,28,24,24,26,0,
0,26,25,29,0,0,27,29,0,0,0,0,0,0,0,0,0,0,30,0,29,0,27,28,31,0,0,0,29,0,30,0,30,30,0,0,0,0,0,0,0,0,0,0,31,28,29,25,29,25,0,28,0,28,0,28,0,27,25,28,24,28,0,28,0,28,25,0,26,24,28,0,26,27,25,27,0,31,0,0,0,0,0,0,0,0,0,0,0,0,30,29,26,0,0,0,
25,25,0,29,28,28,0,30,0,0,0,0,0,0,0,0,0,0,0,0,25,25,0,0,0,26,28,29,30,0,29,0,0,31,0,0,0,0,0,0,0,0,0,0,0,28,0,0,28,0,28,0,24,0,24,0,27,25,0,28,26,26,29,24,0,28,29,0,0,27,25,26,29,27,0,0,0,31,30,0,0,0,0,0,0,0,0,0,0,30,0,27,0,24,29,28,
26,27,26,0,0,27,0,30,0,0,0,0,0,0,0,0,0,0,0,0,29,29,24,29,25,0,0,28,26,28,28,0,29,0,31,0,0,0,0,0,0,0,0,30,0,0,29,0,24,24,27,0,0,0,0,25,0,28,25,24,0,0,29,28,24,27,26,24,27,24,0,0,0,24,0,24,30,27,0,0,0,0,0,0,0,0,0,0,0,30,0,29,28,27,29,28,
27,26,0,0,0,0,30,0,0,0,0,0,0,0,0,30,0,0,31,0,0,29,0,0,29,0,25,0,0,27,0,28,0,0,0,0,0,0,0,0,0,0,0,0,31,31,28,0,0,25,25,0,27,0,0,0,24,27,24,27,27,0,29,0,29,27,28,25,0,27,25,28,25,0,27,0,27,0,30,30,0,31,0,0,0,0,0,0,0,0,0,25,24,29,0,0,
0,26,29,0,0,28,30,0,0,0,0,0,0,0,0,0,0,0,0,0,0,28,0,24,29,0,0,0,27,0,0,25,24,0,0,0,31,0,0,0,0,0,0,0,0,31,0,31,28,27,26,29,0,27,25,0,0,0,0,0,26,0,29,24,28,26,0,29,0,0,27,26,29,24,29,0,26,28,24,0,31,0,0,0,0,0,0,0,0,0,27,0,29,26,0,26,
27,28,0,0,0,0,0,0,0,0,0,0,0,0,0,29,25,29,0,0,24,27,24,0,0,26,25,29,0,0,26,24,0,0,0,27,27,0,0,0,0,0,0,0,0,0,0,29,29,0,26,25,0,27,24,29,24,0,0,28,27,0,27,0,0,0,24,0,25,28,0,26,0,0,26,27,29,29,27,0,29,0,0,0,0,0,0,0,0,0,0,0,0,26,0,29,
24,29,0,29,0,30,31,0,0,0,0,0,0,0,0,0,25,29,29,28,27,0,25,24,27,29,29,27,24,0,29,25,0,29,28,0,0,0,0,0,0,0,0,0,0,0,0,0,31,29,0,28,0,0,0,0,0,28,27,0,24,28,0,27,28,24,0,25,0,29,27,28,24,0,25,0,28,0,28,0,0,0,30,30,0,0,0,0,0,0,31,31,0,26,29,29,
26,29,26,0,0,0,0,0,0,0,0,0,0,0,0,27,0,24,0,0,24,25,29,26,0,29,24,24,29,0,29,28,28,28,29,29,27,30,0,0,0,0,0,0,0,0,0,31,0,31,29,0,0,29,0,0,27,0,27,0,27,24,29,0,27,0,25,26,26,0,0,0,0,0,24,0,29,26,0,0,27,0,30,0,0,0,0,0,0,0,0,0,0,0,26,28,
27,0,28,27,0,0,0,0,0,0,0,0,0,0,0,28,0,29,0,24,0,24,26,0,0,31,30,31,27,30,31,29,31,27,24,25,0,31,0,31,0,0,0,0,0,0,0,0,30,0,0,0,27,0,26,0,28,28,0,25,29,0,0,0,0,28,0,27,28,25,0,26,25,27,0,24,27,26,0,28,29,26,29,0,0,0,0,0,0,0,0,31,27,27,25,27,
25,0,24,24,29,31,31,0,0,0,0,0,0,0,30,31,0,25,29,29,0,27,0,0,30,0,0,0,0,31,0,0,0,0,31,26,0,0,28,0,0,30,0,0,0,0,0,0,0,0,31,0,28,26,27,0,0,29,0,25,26,29,0,28,27,27,24,28,26,0,27,26,27,0,24,0,24,24,0,25,26,0,29,31,0,0,0,0,0,0,0,0,30,0,26,0,
25,0,0,29,0,31,31,0,0,0,0,0,0,0,0,0,26,0,0,0,26,29,29,31,0,0,0,0,0,0,0,0,30,0,28,28,0,25,29,0,29,0,31,0,0,0,0,0,0,0,30,30,28,31,0,0,0,27,26,29,24,24,0,29,0,0,0,29,25,29,26,27,26,25,0,0,24,27,0,24,24,28,0,0,0,0,0,0,0,0,0,31,31,0,0,0,
0,0,0,24,25,0,30,0,0,0,0,0,0,0,0,0,28,0,25,0,25,29,24,30,0,0,0,0,0,0,0,0,0,31,0,31,29,26,28,26,0,0,0,0,0,0,0,0,0,0,0,0,0,27,0,28,25,26,26,0,0,24,0,27,0,0,24,27,27,26,27,24,0,28,25,0,29,26,26,24,0,26,27,0,0,0,0,0,0,0,0,0,0,27,0,26,
28,0,24,0,25,0,31,0,0,0,0,0,0,0,0,0,29,28,0,0,29,27,24,31,0,0,0,0,0,0,0,0,0,0,30,28,26,0,24,24,0,0,30,0,0,0,0,0,0,0,0,0,0,0,30,26,25,0,29,27,28,25,24,29,0,26,24,26,24,0,0,0,0,0,0,24,0,29,25,24,28,29,30,29,31,0,0,0,0,0,0,0,0,30,29,26,
0,25,0,0,31,28,0,0,0,0,0,0,0,0,31,29,30,26,0,27,0,24,29,27,0,0,0,0,0,0,0,0,0,0,0,0,24,24,0,27,29,0,31,31,0,0,0,0,0,0,0,0,0,30,0,29,27,25,24,24,26,25,25,27,29,25,27,25,0,0,26,28,29,0,0,26,0,24,28,30,27,28,0,0,0,0,0,0,0,0,0,0,0,0,28,26,
24,0,26,0,0,0,0,0,0,0,0,0,0,0,31,0,0,28,27,0,0,0,0,30,31,0,0,0,0,0,0,0,0,0,31,29,0,27,29,29,28,26,0,0,0,0,0,0,0,0,0,0,0,0,0,0,0,0,28,26,25,0,0,28,26,27,26,0,0,30,0,30,28,29,31,28,0,0,27,0,31,0,0,31,30,0,0,0,0,0,0,0,0,0,31,0,
29,28,0,0,30,0,0,0,0,0,0,0,0,0,0,30,29,28,0,0,26,29,29,31,0,0,0,0,0,0,0,0,0,0,30,0,28,31,27,24,0,25,27,0,30,0,0,0,0,0,0,0,0,0,0,0,27,31,0,25,0,29,29,27,29,0,31,0,30,0,0,0,0,30,28,0,0,0,30,30,0,0,0,0,0,0,0,0,0,0,0,0,0,0,30,24,
24,0,24,0,31,0,0,0,0,0,0,0,0,0,0,0,0,0,28,25,24,25,28,29,0,0,0,0,0,0,0,0,0,0,0,0,0,30,27,0,24,25,26,0,30,28,0,0,0,0,0,0,0,0,0,0,0,0,28,29,0,28,27,30,27,0,0,0,30,31,0,0,0,0,30,30,0,0,0,0,0,0,0,0,0,0,0,0,0,0,0,0,0,0,0,27,
28,27,28,0,0,0,0,0,0,0,0,0,0,0,0,30,0,29,0,24,0,0,28,31,0,30,0,0,0,0,0,0,0,0,0,0,0,0,30,30,0,0,28,0,0,31,0,0,0,0,0,0,0,0,0,0,30,31,0,0,30,0,28,27,0,0,0,0,0,0,0,0,0,0,0,0,0,0,0,0,0,0,0,0,0,0,0,0,0,0,0,0,0,0,28,29,
25,0,0,0,0,30,0,0,0,0,0,0,0,0,0,30,31,0,0,0,0,29,28,27,0,0,31,0,0,0,0,0,0,0,0,0,0,30,0,0,0,0,27,27,0,0,0,0,31,0,0,0,0,0,0,0,0,0,0,0,0,0,0,0,30,0,0,0,0,0,0,0,0,0,0,0,0,0,0,0,0,0,0,0,0,0,0,0,0,0,0,0,0,0,0,28,
28,24,26,24,0,0,0,0,0,0,0,0,0,0,0,0,0,31,0,0,0,28,29,24,31,28,0,30,0,31,30,0,0,0,0,0,0,0,0,0,31,29,29,0,0,25,0,27,0,0,31,0,0,0,0,0,0,0,0,0,0,0,0,0,0,0,0,0,0,0,0,0,0,0,0,0,0,0,0,0,0,0,0,0,0,0,0,0,0,0,0,0,0,0,0,27,
25,28,0,0,27,0,0,0,0,0,0,0,0,0,0,0,0,0,0,0,27,0,29,25,26,28,31,28,0,29,0,0,0,0,0,0,0,0,0,31,0,0,29,25,0,27,28,28,28,0,31,30,0,0,0,0,0,0,0,0,0,0,0,0,0,0,0,0,0,0,0,0,0,0,0,0,0,0,0,0,0,0,0,0,0,30,30,0,0,0,0,0,0,0,0,29,
28,29,0,0,0,31,0,0,0,0,0,0,0,0,0,0,0,0,0,31,27,0,27,0,0,0,29,26,24,0,28,0,0,0,0,0,0,0,0,0,31,0,27,0,0,0,0,0,29,0,29,31,0,0,0,0,0,0,0,0,0,0,0,0,0,0,0,0,0,0,0,0,0,0,0,0,0,0,0,0,0,30,31,0,0,0,31,0,0,0,0,0,0,31,31,0,
25,0,0,31,0,0,0,0,0,0,0,0,0,0,0,0,0,0,0,0,0,0,30,31,0,25,26,0,24,27,31,30,0,30,0,0,0,0,0,0,0,30,0,0,28,29,27,27,0,0,0,0,30,0,0,0,0,0,0,0,0,0,0,0,0,0,0,0,0,0,0,0,0,0,0,0,30,0,0,0,0,0,0,0,0,30,31,0,0,0,0,0,0,0,27,29,
0,28,0,0,0,0,0,0,0,0,0,0,0,0,0,0,0,0,0,0,0,0,0,0,28,29,28,24,0,29,27,27,30,0,0,0,0,0,0,0,0,0,0,0,29,0,0,0,0,28,0,31,0,0,0,0,0,0,0,0,0,0,0,0,0,0,0,0,0,0,0,0,0,0,0,0,0,0,31,0,0,27,0,28,0,31,0,0,0,0,0,0,0,0,30,0,
29,0,0,0,0,0,0,0,0,0,0,31,0,0,0,0,0,0,0,0,0,0,0,31,0,0,26,24,27,29,24,0,30,0,0,31,0,0,0,0,0,0,0,0,0,27,0,30,0,0,31,0,0,0,0,0,0,0,0,0,0,0,0,0,0,0,0,31,31,0,0,0,0,30,30,30,0,0,0,0,0,29,0,0,26,0,30,0,0,0,0,0,0,0,0,31,
0,27,0,31,30,0,0,0,0,0,0,0,30,31,0,0,0,0,0,0,0,0,0,0,0,29,0,0,29,28,0,24,0,0,31,0,31,0,0,0,0,0,0,0,0,0,0,0,0,0,0,0,0,0,0,0,0,0,0,0,0,0,0,0,0,30,0,0,0,0,30,0,0,0,28,0,29,0,26,28,25,0,0,24,0,0,0,0,0,0,0,0,0,0,0,29,
26,26,27,0,0,0,0,0,0,0,0,30,0,0,30,0,0,0,0,0,0,0,0,0,30,0,0,0,0,26,25,25,0,0,29,0,0,30,0,0,0,0,0,0,0,0,0,0,0,0,0,0,0,0,0,0,0,0,0,0,0,0,0,0,0,0,0,0,31,0,28,31,30,27,27,29,26,24,24,0,0,28,0,29,26,27,0,0,0,0,0,0,0,0,0,0,
29,0,31,0,0,0,0,0,0,0,0,30,27,0,0,0,0,0,0,0,0,0,0,0,0,31,0,30,31,0,27,26,28,27,29,29,27,0,0,0,0,0,0,0,0,0,0,0,0,0,0,0,0,0,0,0,0,0,0,0,0,0,0,0,0,0,0,0,31,27,27,28,26,26,28,27,0,29,0,28,28,28,0,24,24,0,0,0,0,0,0,0,0,0,30,29,
25,27,0,0,0,0,0,0,0,0,0,31,0,25,28,0,0,30,0,0,0,0,0,0,0,0,0,0,31,0,0,0,0,27,0,25,0,0,0,0,0,0,0,0,0,0,0,0,0,0,0,0,0,0,0,0,0,0,31,0,0,0,0,0,0,0,0,0,0,0,28,0,27,0,0,24,24,0,26,26,25,24,0,24,27,0,0,0,0,0,0,0,0,0,30,0,
0,28,0,0,0,0,0,0,0,0,31,0,0,25,26,31,0,0,31,0,0,0,0,0,0,0,0,0,0,0,30,30,0,0,0,0,0,28,29,0,0,0,0,0,0,0,0,0,0,0,0,0,0,0,0,0,0,28,0,0,0,0,0,0,0,0,0,0,0,30,0,30,31,28,28,26,27,25,0,26,0,27,0,26,29,0,0,0,0,0,0,0,0,0,30,31,
27,0,30,0,0,0,0,0,0,0,0,28,0,0,0,28,28,0,31,31,0,0,0,0,0,0,0,0,0,0,0,28,31,0,25,27,0,29,0,27,0,0,0,0,0,0,0,0,0,0,0,0,0,0,0,30,0,0,29,27,0,0,0,0,0,0,0,0,0,0,31,0,0,31,28,24,0,29,0,0,0,28,29,25,0,0,0,0,0,0,0,0,0,0,30,0,
28,31,0,0,0,0,0,0,0,0,0,0,29,27,0,29,0,29,28,0,0,0,0,0,0,0,0,0,0,0,0,0,0,0,0,28,0,27,0,0,0,0,0,0,0,0,0,0,0,0,0,0,0,0,31,0,28,0,25,0,27,31,0,0,0,0,0,0,0,0,0,0,0,0,31,30,0,26,25,27,0,0,27,0,0,30,0,0,0,0,0,0,0,31,0,31,
0,0,0,0,0,0,0,0,0,0,27,27,25,24,28,25,0,0,0,31,29,0,31,0,0,0,0,0,0,0,0,0,0,0,27,28,0,27,0,30,0,0,0,0,0,0,0,0,0,0,0,0,0,0,0,31,0,0,0,29,0,30,0,0,0,0,0,0,0,0,0,0,0,0,0,0,31,26,28,24,0,0,24,29,0,0,0,0,0,0,0,0,0,0,31,0,
31,0,0,0,0,0,0,0,0,0,0,0,27,27,24,29,28,24,0,28,29,31,0,30,0,0,0,0,0,0,0,0,0,31,0,28,29,0,0,0,0,0,0,0,0,0,0,0,0,0,0,0,0,0,0,0,31,27,0,0,0,0,0,30,31,0,0,0,0,0,0,0,0,0,0,0,28,0,24,0,27,26,24,0,27,0,0,0,0,0,0,0,0,0,29,27,
0,0,0,0,0,0,0,0,0,0,0,29,0,29,27,25,0,24,25,27,0,29,31,0,0,0,0,0,0,0,0,0,0,0,0,0,0,0,28,0,0,0,0,0,0,0,0,0,0,0,0,0,0,0,0,0,0,0,0,0,26,0,0,0,0,30,31,0,0,0,0,0,0,0,0,0,30,0,24,26,25,25,27,27,30,0,0,0,0,0,0,0,0,30,0,25,
0,0,0,0,0,0,0,0,30,30,30,0,0,26,0,0,28,27,25,26,26,0,29,0,31,30,0,0,0,0,0,0,0,0,31,31,29,0,0,31,0,0,0,0,0,0,0,0,0,0,0,0,0,0,0,0,0,31,26,25,27,0,26,30,0,30,0,31,0,0,0,0,0,0,0,0,31,31,0,24,25,29,0,0,0,0,0,0,0,0,0,0,0,31,0,29,
31,0,0,0,0,0,0,0,30,30,0,26,29,26,0,28,0,0,0,29,25,28,0,0,0,30,0,0,0,0,0,0,0,0,0,30,31,0,31,0,0,0,0,0,0,0,0,0,0,0,0,0,0,0,0,0,0,0,28,0,0,27,28,28,28,0,0,30,0,0,0,0,0,0,0,0,0,31,0,0,0,0,0,0,31,0,0,0,0,0,0,0,31,28,0,26,
31,0,0,0,0,0,0,0,0,0,28,0,0,26,26,0,24,0,27,0,0,0,0,27,28,28,0,0,0,0,0,0,0,0,0,0,0,30,0,0,0,0,0,0,0,0,0,0,0,0,0,0,0,0,0,0,31,31,0,0,0,0,29,24,26,27,0,31,31,0,0,0,0,0,0,0,0,31,0,30,31,0,28,31,0,0,0,0,0,0,0,31,0,0,0,24,
0,0,0,0,0,0,0,0,0,29,25,0,0,0,0,28,0,0,0,27,27,0,29,0,26,31,27,0,30,0,0,0,0,0,0,0,0,0,0,0,0,0,0,0,0,0,0,0,0,0,0,0,0,0,0,0,0,0,31,0,0,26,26,27,0,28,0,27,31,0,0,0,0,0,0,0,0,0,0,0,31,0,31,0,0,0,0,0,0,0,0,0,0,0,0,28,
30,0,0,0,0,0,0,0,0,0,25,24,26,0,27,0,24,0,0,25,24,0,0,26,27,0,0,30,0,0,0,0,0,0,0,0,0,0,0,0,0,0,0,0,0,0,31,0,0,0,0,0,0,0,0,0,0,0,0,30,0,0,28,29,25,24,27,0,0,0,0,0,0,0,0,0,0,0,0,0,0,0,0,0,0,0,0,0,0,0,31,0,31,27,24,0,
31,0,0,0,0,0,0,0,30,31,25,24,29,26,27,28,0,25,0,0,29,0,0,0,0,0,28,26,29,0,0,0,0,0,0,0,0,0,0,0,0,0,0,0,0,30,0,31,0,0,0,0,0,0,0,0,0,0,0,0,0,0,30,0,0,24,28,0,30,0,29,30,31,0,0,0,0,0,0,0,0,31,31,0,0,0,0,0,0,0,0,27,28,29,28,0,
0,0,0,0,0,0,0,0,31,0,0,25,0,0,27,0,27,0,24,0,24,0,27,28,0,0,25,25,27,0,27,0,30,0,0,0,0,0,0,0,0,0,0,0,0,0,28,0,31,0,0,0,31,0,0,0,0,0,0,0,0,0,27,0,29,29,25,26,0,28,0,28,0,0,0,0,0,0,0,0,0,0,0,0,0,0,0,0,0,0,30,28,29,0,24,27,
0,0,0,0,0,0,0,0,0,0,0,27,0,29,24,27,25,28,27,0,0,28,0,28,29,27,26,0,25,0,31,0,31,0,0,0,0,0,0,0,0,0,0,0,28,0,0,0,27,0,31,0,31,0,0,0,0,0,0,0,0,31,30,30,28,24,28,28,26,0,24,27,0,30,31,0,0,0,0,0,0,0,0,0,0,0,0,0,0,0,0,0,28,0,26,29,
30,0,0,0,0,0,0,0,31,27,0,0,0,27,0,25,0,25,24,0,0,27,27,0,0,26,26,29,24,28,0,28,0,0,0,0,0,0,0,0,0,0,0,31,0,29,25,0,0,0,26,28,0,31,0,0,0,0,0,0,0,0,0,0,27,31,0,26,0,28,25,0,30,0,31,0,0,0,0,0,0,0,0,0,0,0,0,0,0,0,30,0,0,0,27,28,
30,0,0,0,0,0,0,0,0,30,0,26,26,29,29,28,28,24,27,0,28,0,0,25,25,29,0,27,24,26,25,29,0,0,0,0,0,0,0,0,0,0,0,0,0,27,0,29,0,0,25,0,0,0,30,0,0,0,0,0,0,0,0,0,31,30,28,28,28,29,25,0,28,0,0,29,0,0,0,0,0,0,0,0,0,0,0,0,0,31,0,31,27,27,26,28,
31,0,0,0,0,0,0,0,30,0,0,25,0,26,0,24,26,0,27,26,27,24,27,29,26,24,0,28,26,25,0,0,30,0,0,0,0,0,0,0,0,0,0,0,0,0,27,0,0,26,27,0,0,0,0,0,0,0,0,0,0,0,0,0,0,0,30,0,0,30,0,29,26,0,26,29,0,0,0,0,0,0,0,0,0,0,0,0,0,0,31,24,27,0,25,29,
30,0,0,0,0,0,0,0,0,0,28,0,26,24,0,28,26,0,0,0,0,28,24,0,29,24,24,25,25,0,29,28,0,0,0,0,0,0,0,0,0,0,0,0,0,0,31,30,0,0,0,27,0,26,0,0,0,31,0,0,0,0,0,0,0,0,0,0,0,0,30,0,0,26,24,0,0,31,30,0,0,0,0,0,0,0,0,0,0,0,0,29,27,24,25,29,
0,0,0,0,0,0,0,0,0,29,0,0,25,25,25,0,29,29,29,29,27,0,29,0,0,0,0,24,25,0,29,27,28,0,0,0,0,0,0,0,0,0,0,0,0,0,0,0,0,0,26,28,29,26,28,30,27,30,0,0,0,0,0,0,0,0,0,0,0,30,31,0,0,27,27,26,0,0,31,0,0,0,0,0,0,0,0,0,0,31,29,29,0,28,27,25,
0,31,0,0,0,0,0,0,30,0,0,28,29,29,24,28,24,28,0,24,0,27,0,0,28,29,27,29,27,28,27,30,27,0,0,0,0,0,0,0,0,0,0,0,0,0,0,0,30,0,30,28,24,27,29,0,0,30,0,0,0,0,0,0,0,0,0,0,0,0,31,28,27,29,27,0,27,0,0,31,0,0,0,0,0,0,0,0,0,0,31,27,0,28,0,24,
0,0,0,0,0,0,0,0,0,0,0,0,26,25,29,0,0,24,29,28,0,28,27,0,27,0,0,0,29,26,29,27,0,30,0,0,0,0,0,0,0,0,0,0,0,0,0,0,31,0,0,28,26,0,25,0,29,28,27,31,0,0,0,0,0,0,0,0,0,0,0,31,0,25,0,29,0,25,0,30,0,0,0,0,0,0,0,0,0,30,0,27,26,0,0,24,
30,0,0,0,0,0,0,0,0,0,24,27,0,28,26,28,28,27,27,26,0,24,0,28,27,0,0,26,25,27,0,0,0,0,0,0,0,0,0,0,30,0,0,0,0,0,0,0,0,30,30,0,27,28,24,24,29,24,31,30,0,0,0,0,0,0,0,0,0,0,0,0,0,0,24,28,0,25,0,0,0,0,0,0,0,0,0,0,30,0,29,29,27,0,28,24,
0,0,0,0,0,0,0,0,0,28,27,0,0,28,0,25,29,26,28,0,24,0,25,0,24,0,24,24,27,26,31,0,0,0,0,0,0,0,0,0,0,0,0,0,0,0,0,0,0,31,0,0,0,0,27,28,25,28,0,28,30,0,0,0,0,0,0,0,0,0,0,0,28,26,24,25,24,24,31,0,0,0,0,0,0,0,0,0,30,0,27,0,25,0,0,0,
0,0,0,0,0,0,0,0,0,31,0,0,28,25,26,0,0,24,25,29,0,25,26,27,28,29,27,26,25,0,0,0,0,0,0,0,0,0,0,31,0,0,0,0,0,0,0,0,0,0,31,30,31,27,0,0,26,28,26,28,0,0,0,0,0,0,0,0,0,0,30,27,0,0,0,28,24,24,0,0,0,0,0,0,0,0,0,0,0,27,0,26,27,28,24,26,
0,0,0,0,0,0,0,0,0,31,27,30,24,28,24,26,0,27,0,0,25,0,26,28,26,25,27,24,0,0,30,30,0,0,0,0,0,0,0,31,0,31,31,0,0,0,0,0,0,0,0,0,31,31,0,30,0,26,0,28,0,0,0,0,0,0,0,0,0,0,31,0,0,29,0,25,28,28,25,0,0,0,0,0,0,0,0,0,0,0,25,28,0,0,28,0,
28,0,0,0,0,0,0,0,0,0,31,27,27,29,24,24,27,24,27,0,28,29,0,25,0,29,26,0,0,30,0,31,0,0,0,0,0,0,0,0,0,0,27,0,30,0,0,0,0,0,0,0,0,0,0,0,28,0,28,29,30,0,30,0,0,0,0,0,0,0,27,27,24,28,24,28,0,26,0,0,0,0,0,0,0,0,0,31,31,31,29,0,24,0,28,0,
28,0,0,0,0,0,0,0,0,0,30,27,0,0,25,28,25,0,25,27,0,27,0,0,27,26,27,0,26,0,0,0,0,0,0,0,0,0,0,0,30,28,27,28,0,31,0,0,0,0,0,0,0,0,0,29,0,24,25,25,0,30,31,31,0,0,0,30,31,27,0,27,0,25,0,24,28,24,0,0,30,0,0,0,0,0,0,0,0,0,25,25,25,27,0,28,
0,31,0,0,0,0,0,0,0,0,30,31,28,24,26,0,26,0,28,26,26,28,0,26,26,27,24,0,28,30,0,0,0,0,0,0,0,0,0,0,0,31,28,0,30,0,0,0,0,0,0,0,0,0,0,30,28,27,0,0,29,0,0,28,31,0,0,27,0,27,27,26,28,25,26,26,0,24,0,0,0,0,0,0,0,0,0,0,0,0,28,28,28,25,27,29,
31,28,0,0,0,0,0,0,0,0,0,0,29,0,29,26,29,0,25,29,0,24,0,25,27,26,0,0,29,28,0,0,0,0,0,0,0,0,0,0,0,30,26,27,31,0,0,0,0,0,0,0,0,0,0,31,0,0,30,28,26,0,0,27,0,0,28,0,0,24,0,28,26,0,28,28,27,0,0,27,30,0,0,0,0,0,0,0,0,28,0,0,27,0,28,27,
0,31,0,31,0,0,0,0,0,0,0,0,29,0,29,27,27,24,0,24,0,0,0,27,0,25,28,0,0,29,30,0,0,0,0,0,0,0,0,30,0,27,26,0,28,31,0,0,0,0,0,0,0,0,0,0,0,30,0,0,0,26,27,29,25,0,26,0,29,28,25,25,0,27,24,27,0,27,0,27,0,0,0,0,0,0,0,0,0,0,0,26,0,27,0,27,
27,29,31,0,31,0,0,0,0,0,0,30,31,29,27,25,0,0,27,29,26,25,24,0,24,0,25,0,0,31,28,30,0,0,0,0,0,0,0,30,28,27,28,0,28,28,31,0,0,0,0,0,0,0,0,0,0,31,31,0,26,24,27,27,0,24,24,0,0,24,0,26,28,24,0,26,24,26,28,0,30,0,0,0,0,0,0,0,0,29,28,0,0,27,0,28,
0,0,0,29,30,0,0,0,0,0,0,0,0,28,0,27,0,24,0,0,27,0,0,24,0,0,0,24,26,28,0,30,0,0,0,0,0,0,0,30,0,29,27,24,26,24,30,0,0,0,0,0,0,0,0,0,0,0,0,29,29,0,26,0,29,28,25,28,25,28,24,26,28,27,26,0,25,27,0,0,0,0,0,0,0,0,0,0,31,0,24,0,26,28,24,27,
25,0,25,30,0,0,0,0,0,0,0,0,30,0,0,0,0,30,27,26,29,28,29,27,24,24,29,0,0,0,0,0,0,0,0,0,0,30,0,0,29,26,0,24,27,0,0,31,28,30,31,0,0,0,0,0,0,0,0,0,0,0,0,27,0,0,24,24,28,0,28,0,27,0,24,25,0,30,0,0,0,0,0,0,0,0,0,0,27,0,24,28,28,28,24,25,
28,0,25,27,0,0,0,0,0,0,0,0,0,0,31,31,31,27,0,28,29,0,26,26,24,27,26,29,24,0,0,0,0,0,0,0,0,0,0,0,0,24,29,0,25,29,26,26,0,0,31,31,31,0,0,0,0,0,0,0,0,31,0,0,25,25,24,24,28,26,24,24,0,27,26,27,30,30,0,0,0,0,0,0,0,0,0,0,30,28,28,0,28,0,0,29,
0,25,28,0,0,0,0,0,0,0,0,0,0,0,0,0,30,0,30,24,27,28,0,0,0,0,26,25,28,27,30,0,0,0,0,0,0,0,31,0,26,24,0,26,0,0,25,28,24,24,0,0,0,0,0,0,0,0,0,0,0,30,31,0,0,0,31,0,25,0,0,0,0,0,28,0,0,0,0,0,0,0,0,0,0,0,30,0,0,27,0,28,28,0,0,24,
0,0,29,31,0,0,0,0,0,0,0,0,0,0,0,0,0,0,30,0,0,0,0,28,25,24,24,24,30,0,30,0,0,0,0,0,0,0,0,0,28,0,28,26,26,0,27,24,0,26,24,0,30,0,0,0,0,0,0,0,0,0,0,31,30,0,0,0,0,0,0,0,27,27,0,0,0,0,0,0,0,0,0,0,0,0,30,28,0,0,28,0,25,24,0,25,
0,26,29,31,0,30,0,0,0,0,0,0,0,0,0,0,0,0,0,31,29,0,27,29,26,24,0,28,27,31,0,0,0,0,0,0,0,0,0,0,25,0,28,25,0,0,0,0,27,25,25,0,31,31,0,0,0,0,0,0,0,0,0,0,0,0,0,0,0,0,30,0,30,0,30,0,0,0,0,0,0,0,0,0,0,0,0,0,0,28,29,27,0,0,27,27,
0,25,27,0,0,0,0,0,0,0,0,0,0,0,0,0,0,0,31,0,0,0,0,26,0,28,26,29,28,0,0,0,0,0,0,0,30,0,27,29,0,28,28,24,27,28,0,0,26,25,29,0,0,0,0,31,0,0,0,0,0,0,0,0,0,0,0,0,0,0,0,0,0,0,0,0,0,0,0,0,0,0,0,0,0,0,31,0,28,26,25,28,0,24,0,0,
25,29,0,28,31,0,0,0,0,0,0,0,0,0,0,0,0,0,0,0,0,30,30,29,29,0,27,30,0,0,0,0,0,0,0,0,31,0,0,0,0,0,0,0,0,29,27,24,24,27,0,0,28,31,0,31,0,0,0,0,0,0,0,0,0,0,0,0,0,0,0,0,0,0,0,0,0,0,0,0,0,0,0,0,0,0,0,0,0,24,24,0,29,0,26,0,
29,0,0,0,0,0,0,0,0,0,0,0,0,0,0,0,0,0,0,0,0,30,0,0,31,0,0,29,0,31,0,0,0,0,0,0,0,0,28,0,24,29,24,24,26,25,0,29,0,27,0,0,31,0,0,0,0,0,0,0,0,0,0,0,0,0,0,0,0,0,0,0,0,0,0,0,0,0,0,0,0,0,0,0,0,0,30,27,29,29,24,29,0,0,26,28,
0,29,29,27,0,0,0,0,0,0,0,0,0,0,0,0,0,0,0,0,0,0,0,0,0,0,0,31,0,30,0,0,0,0,0,0,0,0,0,26,0,26,24,27,29,0,0,0,27,30,0,31,0,0,0,0,0,0,0,0,0,0,0,0,0,0,0,0,0,0,0,0,0,0,0,0,0,0,0,0,0,0,0,0,0,0,27,30,26,29,26,28,26,25,0,29,
29,0,26,0,0,0,0,0,0,0,0,0,0,0,0,0,0,0,0,0,0,0,0,0,0,0,0,0,0,0,0,0,0,0,0,30,0,30,31,0,0,27,0,0,0,0,30,0,0,0,0,0,0,0,0,0,0,0,0,0,0,0,0,0,0,0,0,0,0,0,0,0,0,0,0,0,0,0,0,0,0,0,0,0,0,0,0,0,0,0,0,28,29,26,24,28,
28,0,27,27,0,0,0,0,0,0,0,0,0,0,0,0,0,0,0,0,0,0,0,0,0,0,0,0,0,0,0,0,0,0,0,30,31,31,0,30,0,0,0,0,0,0,0,0,0,0,0,0,0,0,0,0,0,0,0,0,0,0,0,0,0,0,0,0,0,0,0,0,0,0,0,0,0,0,30,30,0,31,0,30,27,0,28,25,0,26,27,29,0,29,29,28,
29,29,24,28,0,0,0,0,0,0,0,0,0,0,0,0,0,0,0,0,0,0,0,0,0,0,0,0,0,0,0,0,0,0,0,0,0,0,0,0,0,0,0,0,0,0,0,0,0,0,0,0,0,0,0,0,0,0,0,0,0,0,0,0,0,0,0,0,0,31,0,0,0,0,0,0,0,0,0,28,0,0,0,27,30,0,25,28,29,24,25,25,26,0,24,0,
0,26,27,0,31,30,0,0,0,0,0,0,0,0,0,0,0,0,0,0,0,0,0,0,0,0,0,0,0,0,0,0,0,0,0,0,0,0,0,0,0,0,0,0,0,0,0,0,0,0,0,0,0,0,0,0,0,0,0,0,0,0,0,0,0,30,30,0,0,31,0,0,0,0,0,31,27,30,0,0,0,28,0,29,26,0,0,29,0,29,29,24,29,25,0,29,
25,0,26,0,0,0,0,30,0,0,0,0,0,0,0,0,30,30,0,0,0,0,0,0,0,0,0,0,0,0,0,0,0,0,0,0,0,0,0,0,0,0,0,0,0,0,0,0,0,0,0,0,0,0,0,0,0,0,0,31,0,0,31,0,30,0,0,27,0,31,0,0,28,0,29,0,0,28,27,0,28,26,24,29,29,0,26,24,29,26,29,0,0,0,29,0,
0,27,28,25,25,29,0,27,0,31,0,31,0,0,0,30,0,0,0,27,0,31,0,0,0,0,0,0,0,0,0,0,0,0,0,0,0,0,0,0,0,0,0,0,0,0,0,0,0,0,0,0,0,0,31,0,30,0,30,0,31,0,29,31,0,29,27,0,25,29,25,28,0,0,28,24,24,28,0,28,29,25,24,24,26,0,27,25,29,29,26,27,29,0,27,24,
26,27,0,26,27,0,27,0,28,0,0,27,27,0,28,29,27,29,25,0,0,31,0,31,0,31,0,0,0,0,0,0,0,0,0,0,0,0,0,0,0,0,0,0,0,0,0,0,0,0,0,0,31,0,0,27,28,0,0,31,24,29,29,27,27,29,0,26,28,0,25,28,0,26,0,0,28,0,28,0,27,28,0,29,28,28,29,25,24,0,27,25,28,25,24,27,
28,28,26,28,25,27,29,24,29,0,0,24,24,24,24,26,0,28,24,29,0,0,0,27,30,31,0,0,0,0,0,0,0,0,0,0,0,0,0,0,0,0,0,0,0,0,0,0,0,0,0,31,0,0,31,28,29,28,0,27,27,27,0,0,26,27,25,27,0,24,25,28,27,0,0,26,28,28,28,25,0,0,29,0,26,29,0,26,29,0,29,28,0,27,26,0,
26,29,0,26,25,0,24,0,0,25,24,0,27,0,24,0,24,27,29,26,26,26,0,27,0,0,27,30,0,0,0,0,0,0,0,0,31,0,0,0,0,0,0,0,0,0,31,0,0,30,31,28,0,0,27,29,0,0,0,27,0,24,28,28,0,0,0,28,0,0,27,25,0,27,27,28,28,0,0,24,0,24,0,0,25,26,29,0,25,0,0,25,27,25,24,27,
27,28,0,29,25,28,0,0,26,27,28,24,29,28,26,0,29,29,0,0,0,29,26,25,26,0,0,29,28,31,30,0,28,0,0,0,31,27,30,0,0,0,30,30,30,30,0,31,29,0,0,0,0,0,24,28,24,26,27,26,25,25,27,0,0,28,0,24,28,28,0,27,28,0,0,24,24,0,0,0,27,0,26,26,0,24,29,24,0,29,27,24,26,24,25,26,
0,0,26,28,27,0,0,0,0,25,27,0,28,26,0,0,28,28,0,26,29,29,28,27,0,0,26,26,26,0,24,27,29,28,27,29,0,29,0,31,29,0,29,0,31,0,31,0,27,25,29,26,24,28,0,0,27,29,28,28,29,29,25,24,24,24,0,26,0,0,28,29,27,27,28,27,25,29,24,25,27,0,0,28,29,28,28,0,29,0,24,27,0,27,26,0
</data>
 </layer>
 <layer id="4" name="altura" width="96" height="96" opacity="0.35">
  <data encoding="csv">
51,51,51,51,51,51,51,51,51,51,51,51,51,51,51,51,51,51,51,51,51,51,51,51,51,51,51,51,51,51,51,51,51,51,51,51,51,51,51,51,51,51,51,51,51,51,51,51,51,51,51,51,51,51,51,51,51,51,51,51,51,51,51,51,51,51,51,51,51,51,51,51,51,51,51,51,51,51,51,51,51,51,51,51,51,51,51,51,51,51,51,51,51,51,51,51,
51,51,51,51,51,51,51,51,51,51,51,51,51,51,51,51,51,51,51,51,51,51,51,51,51,51,51,51,51,51,51,51,51,51,51,51,51,51,51,51,51,51,51,51,51,51,51,51,51,51,51,51,51,51,51,51,51,51,51,51,51,51,51,51,51,51,51,51,51,51,51,51,51,51,51,51,51,51,51,51,51,51,51,51,51,51,51,51,51,51,51,51,51,51,51,51,
51,51,51,51,51,51,51,51,51,51,51,51,51,51,51,51,51,51,51,51,51,51,51,51,51,51,51,51,51,51,51,51,51,51,51,51,51,51,51,51,51,51,51,51,51,51,51,51,51,51,51,51,51,51,51,51,51,51,51,51,51,51,51,51,51,51,51,51,51,51,51,51,51,51,51,51,51,51,51,51,51,51,51,51,51,51,51,51,51,51,51,51,51,51,51,51,
51,51,51,51,51,51,51,51,51,51,51,51,51,51,51,51,51,51,51,51,51,51,51,51,51,51,51,51,51,51,51,51,51,51,51,51,51,51,51,51,51,51,51,51,51,51,51,51,51,51,51,51,51,51,51,51,51,51,51,51,51,51,51,51,51,51,51,51,51,51,51,51,51,51,51,51,51,51,51,51,51,51,51,51,51,51,51,51,51,51,51,51,51,51,51,51,
51,51,51,51,51,51,51,51,51,51,51,51,51,51,51,51,51,51,51,51,51,51,51,51,51,51,51,51,51,51,51,51,51,51,51,51,51,51,51,51,51,51,51,51,51,51,51,51,51,51,51,51,51,51,51,51,51,51,51,51,51,51,51,51,51,51,51,51,51,51,51,51,51,51,51,51,51,51,51,51,51,51,51,51,51,51,51,51,51,51,51,51,51,51,51,51,
51,51,51,51,51,51,51,51,51,51,51,51,51,51,51,51,51,51,51,51,51,51,51,51,51,51,51,51,51,51,51,51,51,51,51,51,51,51,51,51,51,51,51,51,51,51,51,51,51,51,51,51,51,51,51,51,51,51,51,51,51,51,51,51,51,51,51,51,51,51,51,51,51,51,51,51,51,51,51,51,51,51,51,51,51,51,51,51,51,51,51,51,51,51,51,51,
51,51,51,51,51,51,51,51,51,51,51,51,51,51,51,51,51,51,51,51,51,51,51,51,51,51,51,51,51,51,51,51,51,51,51,51,51,51,51,51,51,51,51,51,51,51,51,51,51,51,51,51,51,51,51,51,51,51,51,51,51,51,51,51,51,51,51,51,51,51,51,51,51,51,51,51,51,51,51,51,51,51,51,51,51,51,51,51,51,51,51,51,51,51,51,51,
51,51,51,51,51,51,51,51,51,51,51,51,51,51,51,51,51,51,51,51,51,51,51,51,51,51,51,51,51,51,51,51,51,51,51,51,51,51,51,51,51,51,51,51,51,51,51,51,51,51,51,51,51,51,51,51,51,51,51,51,51,51,51,51,51,51,51,51,51,51,51,51,51,51,51,51,51,51,51,51,51,51,51,51,51,51,51,51,51,51,51,51,51,51,51,51,
51,51,51,51,51,51,51,51,51,51,51,51,51,51,51,51,51,51,51,51,51,51,51,51,51,51,51,51,51,51,51,51,51,51,51,51,51,51,51,51,51,51,51,51,51,51,51,51,51,51,51,51,51,51,51,51,51,51,51,51,51,51,51,51,51,51,51,51,51,51,51,51,51,51,51,51,51,51,51,51,51,51,51,51,51,51,51,51,51,51,51,51,51,51,51,51,
51,51,51,51,51,51,51,51,51,51,51,51,51,51,51,51,51,51,51,51,51,51,51,51,51,51,51,51,51,51,51,51,51,51,51,51,51,51,51,51,51,51,51,51,51,51,51,51,51,51,51,51,51,51,51,51,51,51,51,51,51,51,51,51,51,51,51,51,51,51,51,51,51,51,51,51,51,51,51,51,51,51,51,51,51,51,51,51,51,51,51,51,51,51,51,51,
51,51,51,51,51,51,51,51,51,51,51,51,51,51,51,51,51,51,51,51,51,51,51,51,51,51,51,51,51,51,51,51,51,51,51,51,51,51,51,51,51,51,51,51,51,51,51,51,51,51,51,51,51,51,51,51,51,51,51,51,51,51,51,51,51,51,51,51,51,51,51,51,51,51,51,51,51,51,51,51,51,51,51,51,51,51,51,51,51,51,51,51,51,51,51,51,
51,51,51,51,51,51,51,51,51,51,51,51,51,51,51,51,51,51,51,51,51,51,51,51,51,51,51,51,51,51,51,51,51,51,51,51,51,51,51,51,51,51,51,51,51,51,51,51,51,51,51,51,51,51,51,51,51,51,51,51,51,51,51,51,51,51,51,51,51,51,51,51,51,51,51,51,51,51,51,51,51,51,51,51,51,51,51,51,51,51,51,51,51,51,51,51,
51,51,51,51,51,51,51,51,51,51,51,51,51,51,51,51,51,51,51,51,51,51,51,51,51,51,51,51,51,51,51,51,51,51,51,51,51,51,51,51,51,51,51,51,51,51,51,51,51,51,51,51,51,51,51,51,51,51,51,51,51,51,51,51,51,51,51,51,51,51,51,51,51,51,51,51,51,51,51,51,51,51,51,51,51,51,51,51,51,51,51,51,51,51,51,51,
51,51,51,51,51,51,51,51,51,51,51,51,51,51,51,51,51,51,51,51,51,51,51,51,51,51,51,51,51,51,51,51,51,51,51,51,51,51,51,51,51,51,51,51,51,51,51,51,51,51,51,51,51,51,51,51,51,51,51,51,51,51,51,51,51,51,51,51,51,51,51,51,51,51,51,51,51,51,51,51,51,51,51,51,51,51,51,51,51,51,51,51,51,51,51,51,
51,51,51,51,51,51,51,51,51,51,51,51,51,51,51,51,51,51,51,51,51,51,51,51,51,51,51,51,51,51,51,51,51,51,51,51,51,51,51,51,51,51,51,51,51,51,51,51,51,51,51,51,51,51,51,51,51,51,51,51,51,51,51,51,51,51,51,51,51,51,51,51,51,51,51,51,51,51,51,51,51,51,51,51,51,51,51,51,51,51,51,51,51,51,51,51,
51,51,51,51,51,51,51,51,51,51,51,51,51,51,51,51,51,51,51,51,51,51,51,51,51,51,51,51,51,51,51,51,51,51,51,51,51,51,51,51,51,51,51,51,51,51,51,51,51,51,51,51,51,51,51,51,51,51,51,51,51,51,51,51,51,51,51,51,51,51,51,51,51,51,51,51,51,51,51,51,51,51,51,51,51,51,51,51,51,51,51,51,51,51,51,51,
51,51,51,51,51,51,51,51,51,51,51,51,51,51,51,51,51,51,51,51,51,51,51,51,51,51,51,51,51,51,51,51,51,51,51,51,51,51,51,51,51,51,51,51,51,51,51,51,51,51,51,51,51,51,51,51,51,51,51,51,51,51,51,51,51,51,51,51,51,51,51,51,51,51,51,51,51,51,51,51,51,51,51,51,51,51,51,51,51,51,51,51,51,51,51,51,
51,51,51,51,51,51,51,51,51,51,51,51,51,51,51,51,51,51,51,51,51,51,51,51,51,51,51,51,51,51,51,51,51,51,51,51,51,51,51,51,51,51,51,51,51,51,51,51,51,51,51,51,51,51,51,51,51,51,51,51,51,51,51,51,51,51,51,51,51,51,51,51,51,51,51,51,51,51,51,51,51,51,51,51,51,51,51,51,51,51,51,51,51,51,51,51,
51,51,51,51,51,51,51,51,51,51,51,51,51,51,51,51,51,51,51,51,51,51,51,51,51,51,51,51,51,51,51,51,51,51,51,51,51,51,51,51,51,51,51,51,51,51,51,51,51,51,51,51,51,51,51,51,51,51,51,51,51,51,51,51,51,51,51,51,51,51,51,51,51,51,51,51,51,51,51,51,51,51,51,51,51,51,51,51,51,51,51,51,51,51,51,51,
51,51,51,51,51,51,51,51,51,51,51,51,51,51,51,51,51,51,51,51,51,51,51,51,51,51,51,51,51,51,51,51,51,51,51,51,51,51,51,51,51,51,51,51,51,51,51,51,51,51,51,51,51,51,51,51,51,51,51,51,51,51,51,51,51,51,51,51,51,51,51,51,51,51,51,51,51,51,51,51,51,51,51,51,51,51,51,51,51,51,51,51,51,51,51,51,
51,51,51,51,51,51,51,51,51,51,51,51,51,51,51,51,51,51,51,51,51,51,51,51,51,51,51,51,51,51,51,51,51,51,51,51,51,51,51,51,51,51,51,51,51,51,51,51,51,51,51,51,51,51,51,51,51,51,51,51,51,51,51,51,51,51,51,51,51,51,51,51,51,51,51,51,51,51,51,51,51,51,51,51,51,51,51,51,51,51,51,51,51,51,51,51,
51,51,51,51,51,51,51,51,51,51,51,51,51,51,51,51,51,51,51,51,51,51,51,51,51,51,51,51,51,51,51,51,51,51,51,51,51,51,51,51,51,51,51,51,51,51,51,51,51,51,51,51,51,51,51,51,51,51,51,51,51,51,51,51,51,51,51,51,51,51,51,51,51,51,51,51,51,51,51,51,51,51,51,51,51,51,51,51,51,51,51,51,51,51,51,51,
51,51,51,51,51,51,51,51,51,51,51,51,51,51,51,51,51,51,51,51,51,51,51,51,51,51,51,51,51,51,51,51,51,51,51,51,51,51,51,51,51,51,51,51,51,51,51,51,51,51,51,51,51,51,51,51,51,51,51,51,51,51,51,51,51,51,51,51,51,51,51,51,51,51,51,51,51,51,51,51,51,51,51,51,51,51,51,51,51,51,51,51,51,51,51,51,
51,51,51,51,51,51,51,51,51,51,51,51,51,51,51,51,51,51,51,51,51,51,51,51,51,51,51,51,51,51,51,51,51,51,51,51,51,51,51,51,51,51,51,51,51,51,51,51,51,51,51,51,51,51,51,51,51,51,51,51,51,51,51,51,51,51,51,51,51,51,51,51,51,51,51,51,51,51,51,51,51,51,51,51,51,51,51,51,51,51,51,51,51,51,51,51,
51,51,51,51,51,51,51,51,51,51,51,51,51,51,51,51,51,51,51,51,51,51,51,51,51,51,51,51,51,51,51,51,51,51,51,51,51,51,51,51,51,51,51,51,51,51,51,51,51,51,51,51,51,51,51,51,51,51,51,51,51,51,51,51,51,51,51,51,51,51,51,51,51,51,51,51,51,51,51,51,51,51,51,51,51,51,51,51,51,51,51,51,51,51,51,51,
51,51,51,51,51,51,51,51,51,51,51,51,51,51,51,51,51,51,51,51,51,51,51,51,51,51,51,51,51,51,51,51,51,51,51,51,51,51,51,51,51,51,51,51,51,51,51,51,51,51,51,51,51,51,51,51,51,51,51,51,51,51,51,51,51,51,51,51,51,51,51,51,51,51,51,51,51,51,51,51,51,51,51,51,51,51,51,51,51,51,51,51,51,51,51,51,
51,51,51,51,51,51,51,51,51,51,51,51,51,51,51,51,51,51,51,51,51,51,51,51,51,51,51,51,51,51,51,51,51,51,51,51,51,51,51,51,51,51,51,51,51,51,51,51,51,51,51,51,51,51,51,51,51,51,51,51,51,51,51,51,51,51,51,51,51,51,51,51,51,51,51,51,51,51,51,51,51,51,51,51,51,51,51,51,51,51,51,51,51,51,51,51,
51,51,51,51,51,51,51,51,51,51,51,51,51,51,51,51,51,51,51,51,51,51,51,51,51,51,51,51,51,51,51,51,51,51,51,51,51,51,51,51,51,51,51,51,51,51,51,51,51,51,51,51,51,51,51,51,51,51,51,51,51,51,51,51,51,51,51,51,51,51,51,51,51,51,51,51,51,51,51,51,51,51,51,51,51,51,51,51,51,51,51,51,51,51,51,51,
51,51,51,51,51,51,51,51,51,51,51,51,51,51,51,51,51,51,51,51,51,51,51,51,51,51,51,51,51,51,51,51,51,51,51,51,51,51,51,51,51,51,51,51,51,51,51,51,51,51,51,51,51,51,51,51,51,51,51,51,51,51,51,51,51,51,51,51,51,51,51,51,51,51,51,51,51,51,51,51,51,51,51,51,51,51,51,51,51,51,51,51,51,51,51,51,
51,51,51,51,51,51,51,51,51,51,51,51,51,51,51,51,51,51,51,51,51,51,51,51,51,51,51,51,51,51,51,51,51,51,51,51,51,51,51,51,51,51,51,51,51,51,51,51,51,51,51,51,51,51,51,51,51,51,51,51,51,51,51,51,51,51,51,51,51,51,51,51,51,51,51,51,51,51,51,51,51,51,51,51,51,51,51,51,51,51,51,51,51,51,51,51,
51,51,51,51,51,51,51,51,51,51,51,51,51,51,51,51,51,51,51,51,51,51,51,51,51,51,51,51,51,51,51,51,51,51,51,51,51,51,51,51,51,51,51,51,51,51,51,51,51,51,51,51,51,51,51,51,51,51,51,51,51,51,51,51,51,51,51,51,51,51,51,51,51,51,51,51,51,51,51,51,51,51,51,51,51,51,51,51,51,51,51,51,51,51,51,51,
51,51,51,51,51,51,51,51,51,51,51,51,51,51,51,51,51,51,51,51,51,51,51,51,51,51,51,51,51,51,51,51,51,51,51,51,51,51,51,51,51,51,51,51,51,51,51,51,51,51,51,51,51,51,51,51,51,51,51,51,51,51,51,51,51,51,51,51,51,51,51,51,51,51,51,51,51,51,51,51,51,51,51,51,51,51,51,51,51,51,51,51,51,51,51,51,
51,51,51,51,51,51,51,51,51,51,51,51,51,51,51,51,51,51,51,51,51,51,51,51,51,51,51,51,51,51,51,51,51,51,51,51,51,51,51,51,51,51,51,51,51,51,51,51,51,51,51,51,51,51,51,51,51,51,51,51,51,51,51,51,51,51,51,51,51,51,51,51,51,51,51,51,51,51,51,51,51,51,51,51,51,51,51,51,51,51,51,51,51,51,51,51,
51,51,51,51,51,51,51,51,51,51,51,51,51,51,51,51,51,51,51,51,51,51,51,51,51,51,51,51,51,51,51,51,51,51,51,51,51,51,51,51,51,51,51,51,51,51,51,51,51,51,51,51,51,51,51,51,51,51,51,51,51,51,51,51,51,51,51,51,51,51,51,51,51,51,51,51,51,51,51,51,51,51,51,51,51,51,51,51,51,51,51,51,51,51,51,51,
51,51,51,51,51,51,51,51,51,51,51,51,51,51,51,51,51,51,51,51,51,51,51,51,51,51,51,51,51,51,51,51,51,51,51,51,51,51,51,51,51,51,51,51,51,51,51,51,51,51,51,51,51,51,51,51,51,51,51,51,51,51,51,51,51,51,51,51,51,51,51,51,51,51,51,51,51,51,51,51,51,51,51,51,51,51,51,51,51,51,51,51,51,51,51,51,
51,51,51,51,51,51,51,51,51,51,51,51,51,51,51,51,51,51,51,51,51,51,51,51,51,51,51,51,51,51,51,51,51,51,51,51,51,51,51,51,51,51,51,51,51,51,51,51,51,51,51,51,51,51,51,51,51,51,51,51,51,51,51,51,51,51,51,51,51,51,51,51,51,51,51,51,51,51,51,51,51,51,51,51,51,51,51,51,51,51,51,51,51,51,51,51,
51,51,51,51,51,51,51,51,51,51,51,51,51,51,51,51,51,51,51,51,51,51,51,51,51,51,51,51,51,51,51,51,51,51,51,51,51,51,51,51,51,51,51,51,51,51,51,51,51,51,51,51,51,51,51,51,51,51,51,51,51,51,51,51,51,51,51,51,51,51,51,51,51,51,51,51,51,51,51,51,51,51,51,51,51,51,51,51,51,51,51,51,51,51,51,51,
51,51,51,51,51,51,51,51,51,51,51,51,51,51,51,51,51,51,51,51,51,51,51,51,51,51,51,51,51,51,51,51,51,51,51,51,51,51,51,51,51,51,51,51,51,51,51,51,51,51,51,51,51,51,51,51,51,51,51,51,51,51,51,51,51,51,51,51,51,51,51,51,51,51,51,51,51,51,51,51,51,51,51,51,51,51,51,51,51,51,51,51,51,51,51,51,
51,51,51,51,51,51,51,51,51,51,51,51,51,51,51,51,51,51,51,51,51,51,51,51,51,51,51,51,51,51,51,51,51,51,51,51,51,51,51,51,51,51,51,51,51,51,51,51,51,51,51,51,51,51,51,51,51,51,51,51,51,51,51,51,51,51,51,51,51,51,51,51,51,51,51,51,51,51,51,51,51,51,51,51,51,51,51,51,51,51,51,51,51,51,51,51,
51,51,51,51,51,51,51,51,51,51,51,51,51,51,51,51,51,51,51,51,51,51,51,51,51,51,51,51,51,51,51,51,51,51,51,51,51,51,51,51,51,51,51,51,51,51,51,51,51,51,51,51,51,51,51,51,51,51,51,51,51,51,51,51,51,51,51,51,51,51,51,51,51,51,51,51,51,51,51,51,51,51,51,51,51,51,51,51,51,51,51,51,51,51,51,51,
51,51,51,51,51,51,51,51,51,51,51,51,51,51,51,51,51,51,51,51,51,51,51,51,51,51,51,51,51,51,51,51,51,51,51,51,51,51,51,51,51,51,51,51,51,51,51,51,51,51,51,51,51,51,51,51,51,51,51,51,51,51,51,51,51,51,51,51,51,51,51,51,51,51,51,51,51,51,51,51,51,51,51,51,51,51,51,51,51,51,51,51,51,51,51,51,
51,51,51,51,51,51,51,51,51,51,51,51,51,51,51,51,51,51,51,51,51,51,51,51,51,51,51,51,51,51,51,51,51,51,51,51,51,51,51,51,51,51,51,51,51,51,51,51,51,51,51,51,51,51,51,51,51,51,51,51,51,51,51,51,51,51,51,51,51,51,51,51,51,51,51,51,51,51,51,51,51,51,51,51,51,51,51,51,51,51,51,51,51,51,51,51,
51,51,51,51,51,51,51,51,51,51,51,51,51,51,51,51,51,51,51,51,51,51,51,51,51,51,51,51,51,51,51,51,51,51,51,51,51,51,51,51,51,51,51,51,51,51,51,51,51,51,51,51,51,51,51,51,51,51,51,51,51,51,51,51,51,51,51,51,51,51,51,51,51,51,51,51,51,51,51,51,51,51,51,51,51,51,51,51,51,51,51,51,51,51,51,51,
51,51,51,51,51,51,51,51,51,51,51,51,51,51,51,51,51,51,51,51,51,51,51,51,51,51,51,51,51,51,51,51,51,51,51,51,51,51,51,51,51,51,51,51,51,51,51,51,51,51,51,51,51,51,51,51,51,51,51,51,51,51,51,51,51,51,51,51,51,51,51,51,51,51,51,51,51,51,51,51,51,51,51,51,51,51,51,51,51,51,51,51,51,51,51,51,
51,51,51,51,51,51,51,51,51,51,51,51,51,51,51,51,51,51,51,51,51,51,51,51,51,51,51,51,51,51,51,51,51,51,51,51,51,51,51,51,51,51,51,51,51,51,51,51,51,51,51,51,51,51,51,51,51,51,51,51,51,51,51,51,51,51,51,51,51,51,51,51,51,51,51,51,51,51,51,51,51,51,51,51,51,51,51,51,51,51,51,51,51,51,51,51,
51,51,51,51,51,51,51,51,51,51,51,51,51,51,51,51,51,51,51,51,51,51,51,51,51,51,51,51,51,51,51,51,51,51,51,51,51,51,51,51,51,51,51,51,51,51,51,51,51,51,51,51,51,51,51,51,51,51,51,51,51,51,51,51,51,51,51,51,51,51,51,51,51,51,51,51,51,51,51,51,51,51,51,51,51,51,51,51,51,51,51,51,51,51,51,51,
51,51,51,51,51,51,51,51,51,51,51,51,51,51,51,51,51,51,51,51,51,51,51,51,51,51,51,51,51,51,51,51,51,51,51,51,51,51,51,51,51,51,51,51,51,51,51,51,51,51,51,51,51,51,51,51,51,51,51,51,51,51,51,51,51,51,51,51,51,51,51,51,51,51,51,51,51,51,51,51,51,51,51,51,51,51,51,51,51,51,51,51,51,51,51,51,
51,51,51,51,51,51,51,51,51,51,51,51,51,51,51,51,51,51,51,51,51,51,51,51,51,51,51,51,51,51,51,51,51,51,51,51,51,51,51,51,51,51,51,51,51,51,51,51,51,51,51,51,51,51,51,51,51,51,51,51,51,51,51,51,51,51,51,51,51,51,51,51,51,51,51,51,51,51,51,51,51,51,51,51,51,51,51,51,51,51,51,51,51,51,51,51,
51,51,51,51,51,51,51,51,51,51,51,51,51,51,51,51,51,51,51,51,51,51,51,51,51,51,51,51,51,51,51,51,51,51,51,51,51,51,51,51,51,51,51,51,51,51,51,51,51,51,51,51,51,51,51,51,51,51,51,51,51,51,51,51,51,51,51,51,51,51,51,51,51,51,51,51,51,51,51,51,51,51,51,51,51,51,51,51,51,51,51,51,51,51,51,51,
51,51,51,51,51,51,51,51,51,51,51,51,51,51,51,51,51,51,51,51,51,51,51,51,51,51,51,51,51,51,51,51,51,51,51,51,51,51,51,51,51,51,51,51,51,51,51,51,51,51,51,51,51,51,51,51,51,51,51,51,51,51,51,51,51,51,51,51,51,51,51,51,51,51,51,51,51,51,51,51,51,51,51,51,51,51,51,51,51,51,51,51,51,51,51,51,
51,51,51,51,51,51,51,51,51,51,51,51,51,51,51,51,51,51,51,51,51,51,51,51,51,51,51,51,51,51,51,51,51,51,51,51,51,51,51,51,51,51,51,51,51,51,51,51,51,51,51,51,51,51,51,51,51,51,51,51,51,51,51,51,51,51,51,51,51,51,51,51,51,51,51,51,51,51,51,51,51,51,51,51,51,51,51,51,51,51,51,51,51,51,51,51,
51,51,51,51,51,51,51,51,51,51,51,51,51,51,51,51,51,51,51,51,51,51,51,51,51,51,51,51,51,51,51,51,51,51,51,51,51,51,51,51,51,51,51,51,51,51,51,51,51,51,51,51,51,51,51,51,51,51,51,51,51,51,51,51,51,51,51,51,51,51,51,51,51,51,51,51,51,51,51,51,51,51,51,51,51,51,51,51,51,51,51,51,51,51,51,51,
51,51,51,51,51,51,51,51,51,51,51,51,51,51,51,51,51,51,51,51,51,51,51,51,51,51,51,51,51,51,51,51,51,51,51,51,51,51,51,51,51,51,51,51,51,51,51,51,51,51,51,51,51,51,51,51,51,51,51,51,51,51,51,51,51,51,51,51,51,51,51,51,51,51,51,51,51,51,51,51,51,51,51,51,51,51,51,51,51,51,51,51,51,51,51,51,
51,51,51,51,51,51,51,51,51,51,51,51,51,51,51,51,51,51,51,51,51,51,51,51,51,51,51,51,51,51,51,51,51,51,51,51,51,51,51,51,51,51,51,51,51,51,51,51,51,51,51,51,51,51,51,51,51,51,51,51,51,51,51,51,51,51,51,51,51,51,51,51,51,51,51,51,51,51,51,51,51,51,51,51,51,51,51,51,51,51,51,51,51,51,51,51,
51,51,51,51,51,51,51,51,51,51,51,51,51,51,51,51,51,51,51,51,51,51,51,51,51,51,51,51,51,51,51,51,51,51,51,51,51,51,51,51,51,51,51,51,51,51,51,51,51,51,51,51,51,51,51,51,51,51,51,51,51,51,51,51,51,51,51,51,51,51,51,51,51,51,51,51,51,51,51,51,51,51,51,51,51,51,51,51,51,51,51,51,51,51,51,51,
51,51,51,51,51,51,51,51,51,51,51,51,51,51,51,51,51,51,51,51,51,51,51,51,51,51,51,51,51,51,51,51,51,51,51,51,51,51,51,51,51,51,51,51,51,51,51,51,51,51,51,51,51,51,51,51,51,51,51,51,51,51,51,51,51,51,51,51,51,51,51,51,51,51,51,51,51,51,51,51,51,51,51,51,51,51,51,51,51,51,51,51,51,51,51,51,
51,51,51,51,51,51,51,51,51,51,51,51,51,51,51,51,51,51,51,51,51,51,51,51,51,51,51,51,51,51,51,51,51,51,51,51,51,51,51,51,51,51,51,51,51,51,51,51,51,51,51,51,51,51,51,51,51,51,51,51,51,51,51,51,51,51,51,51,51,51,51,51,51,51,51,51,51,51,51,51,51,51,51,51,51,51,51,51,51,51,51,51,51,51,51,51,
51,51,51,51,51,51,51,51,51,51,51,51,51,51,51,51,51,51,51,51,51,51,51,51,51,51,51,51,51,51,51,51,51,51,51,51,51,51,51,51,51,51,51,51,51,51,51,51,51,51,51,51,51,51,51,51,51,51,51,51,51,51,51,51,51,51,51,51,51,51,51,51,51,51,51,51,51,51,51,51,51,51,51,51,51,51,51,51,51,51,51,51,51,51,51,51,
51,51,51,51,51,51,51,51,51,51,51,51,51,51,51,51,51,51,51,51,51,51,51,51,51,51,51,51,51,51,51,51,51,51,51,51,51,51,51,51,51,51,51,51,51,51,51,51,51,51,51,51,51,51,51,51,51,51,51,51,51,51,51,51,51,51,51,51,51,51,51,51,51,51,51,51,51,51,51,51,51,51,51,51,51,51,51,51,51,51,51,51,51,51,51,51,
51,51,51,51,51,51,51,51,51,51,51,51,51,51,51,51,51,51,51,51,51,51,51,51,51,51,51,51,51,51,51,51,51,51,51,51,51,51,51,51,51,51,51,51,51,51,51,51,51,51,51,51,51,51,51,51,51,51,51,51,51,51,51,51,51,51,51,51,51,51,51,51,51,51,51,51,51,51,51,51,51,51,51,51,51,51,51,51,51,51,51,51,51,51,51,51,
51,51,51,51,51,51,51,51,51,51,51,51,51,51,51,51,51,51,51,51,51,51,51,51,51,51,51,51,51,51,51,51,51,51,51,51,51,51,51,51,51,51,51,51,51,51,51,51,51,51,51,51,51,51,51,51,51,51,51,51,51,51,51,51,51,51,51,51,51,51,51,51,51,51,51,51,51,51,51,51,51,51,51,51,51,51,51,51,51,51,51,51,51,51,51,51,
51,51,51,51,51,51,51,51,51,51,51,51,51,51,51,51,51,51,51,51,51,51,51,51,51,51,51,51,51,51,51,51,51,51,51,51,51,51,51,51,51,51,51,51,51,51,51,51,51,51,51,51,51,51,51,51,51,51,51,51,51,51,51,51,51,51,51,51,51,51,51,51,51,51,51,51,51,51,51,51,51,51,51,51,51,51,51,51,51,51,51,51,51,51,51,51,
51,51,51,51,51,51,51,51,51,51,51,51,51,51,51,51,51,51,51,51,51,51,51,51,51,51,51,51,51,51,51,51,51,51,51,51,51,51,51,51,51,51,51,51,51,51,51,51,51,51,51,51,51,51,51,51,51,51,51,51,51,51,51,51,51,51,51,51,51,51,51,51,51,51,51,51,51,51,51,51,51,51,51,51,51,51,51,51,51,51,51,51,51,51,51,51,
51,51,51,51,51,51,51,51,51,51,51,51,51,51,51,51,51,51,51,51,51,51,51,51,51,51,51,51,51,51,51,51,51,51,51,51,51,51,51,51,51,51,51,51,51,51,51,51,51,51,51,51,51,51,51,51,51,51,51,51,51,51,51,51,51,51,51,51,51,51,51,51,51,51,51,51,51,51,51,51,51,51,51,51,51,51,51,51,51,51,51,51,51,51,51,51,
51,51,51,51,51,51,51,51,51,51,51,51,51,51,51,51,51,51,51,51,51,51,51,51,51,51,51,51,51,51,51,51,51,51,51,51,51,51,51,51,51,51,51,51,51,51,51,51,51,51,51,51,51,51,51,51,51,51,51,51,51,51,51,51,51,51,51,51,51,51,51,51,51,51,51,51,51,51,51,51,51,51,51,51,51,51,51,51,51,51,51,51,51,51,51,51,
51,51,51,51,51,51,51,51,51,51,51,51,51,51,51,51,51,51,51,51,51,51,51,51,51,51,51,51,51,51,51,51,51,51,51,51,51,51,51,51,51,51,51,51,51,51,51,51,51,51,51,51,51,51,51,51,51,51,51,51,51,51,51,51,51,51,51,51,51,51,51,51,51,51,51,51,51,51,51,51,51,51,51,51,51,51,51,51,51,51,51,51,51,51,51,51,
51,51,51,51,51,51,51,51,51,51,51,51,51,51,51,51,51,51,51,51,51,51,51,51,51,51,51,51,51,51,51,51,51,51,51,51,51,51,51,51,51,51,51,51,51,51,51,51,51,51,51,51,51,51,51,51,51,51,51,51,51,51,51,51,51,51,51,51,51,51,51,51,51,51,51,51,51,51,51,51,51,51,51,51,51,51,51,51,51,51,51,51,51,51,51,51,
51,51,51,51,51,51,51,51,51,51,51,51,51,51,51,51,51,51,51,51,51,51,51,51,51,51,51,51,51,51,51,51,51,51,51,51,51,51,51,51,51,51,51,51,51,51,51,51,51,51,51,51,51,51,51,51,51,51,51,51,51,51,51,51,51,51,51,51,51,51,51,51,51,51,51,51,51,51,51,51,51,51,51,51,51,51,51,51,51,51,51,51,51,51,51,51,
51,51,51,51,51,51,51,51,51,51,51,51,51,51,51,51,51,51,51,51,51,51,51,51,51,51,51,51,51,51,51,51,51,51,51,51,51,51,51,51,51,51,51,51,51,51,51,51,51,51,51,51,51,51,51,51,51,51,51,51,51,51,51,51,51,51,51,51,51,51,51,51,51,51,51,51,51,51,51,51,51,51,51,51,51,51,51,51,51,51,51,51,51,51,51,51,
51,51,51,51,51,51,51,51,51,51,51,51,51,51,51,51,51,51,51,51,51,51,51,51,51,51,51,51,51,51,51,51,51,51,51,51,51,51,51,51,51,51,51,51,51,51,51,51,51,51,51,51,51,51,51,51,51,51,51,51,51,51,51,51,51,51,51,51,51,51,51,51,51,51,51,51,51,51,51,51,51,51,51,51,51,51,51,51,51,51,51,51,51,51,51,51,
51,51,51,51,51,51,51,51,51,51,51,51,51,51,51,51,51,51,51,51,51,51,51,51,51,51,51,51,51,51,51,51,51,51,51,51,51,51,51,51,51,51,51,51,51,51,51,51,51,51,51,51,51,51,51,51,51,51,51,51,51,51,51,51,51,51,51,51,51,51,51,51,51,51,51,51,51,51,51,51,51,51,51,51,51,51,51,51,51,51,51,51,51,51,51,51,
51,51,51,51,51,51,51,51,51,51,51,51,51,51,51,51,51,51,51,51,51,51,51,51,51,51,51,51,51,51,51,51,51,51,51,51,51,51,51,51,51,51,51,51,51,51,51,51,51,51,51,51,51,51,51,51,51,51,51,51,51,51,51,51,51,51,51,51,51,51,51,51,51,51,51,51,51,51,51,51,51,51,51,51,51,51,51,51,51,51,51,51,51,51,51,51,
51,51,51,51,51,51,51,51,51,51,51,51,51,51,51,51,51,51,51,51,51,51,51,51,51,51,51,51,51,51,51,51,51,51,51,51,51,51,51,51,51,51,51,51,51,51,51,51,51,51,51,51,51,51,51,51,51,51,51,51,51,51,51,51,51,51,51,51,51,51,51,51,51,51,51,51,51,51,51,51,51,51,51,51,51,51,51,51,51,51,51,51,51,51,51,51,
51,51,51,51,51,51,51,51,51,51,51,51,51,51,51,51,51,51,51,51,51,51,51,51,51,51,51,51,51,51,51,51,51,51,51,51,51,51,51,51,51,51,51,51,51,51,51,51,51,51,51,51,51,51,51,51,51,51,51,51,51,51,51,51,51,51,51,51,51,51,51,51,51,51,51,51,51,51,51,51,51,51,51,51,51,51,51,51,51,51,51,51,51,51,51,51,
51,51,51,51,51,51,51,51,51,51,51,51,51,51,51,51,51,51,51,51,51,51,51,51,51,51,51,51,51,51,51,51,51,51,51,51,51,51,51,51,51,51,51,51,51,51,51,51,51,51,51,51,51,51,51,51,51,51,51,51,51,51,51,51,51,51,51,51,51,51,51,51,51,51,51,51,51,51,51,51,51,51,51,51,51,51,51,51,51,51,51,51,51,51,51,51,
51,51,51,51,51,51,51,51,51,51,51,51,51,51,51,51,51,51,51,51,51,51,51,51,51,51,51,51,51,51,51,51,51,51,51,51,51,51,51,51,51,51,51,51,51,51,51,51,51,51,51,51,51,51,51,51,51,51,51,51,51,51,51,51,51,51,51,51,51,51,51,51,51,51,51,51,51,51,51,51,51,51,51,51,51,51,51,51,51,51,51,51,51,51,51,51,
51,51,51,51,51,51,51,51,51,51,51,51,51,51,51,51,51,51,51,51,51,51,51,51,51,51,51,51,51,51,51,51,51,51,51,51,51,51,51,51,51,51,51,51,51,51,51,51,51,51,51,51,51,51,51,51,51,51,51,51,51,51,51,51,51,51,51,51,51,51,51,51,51,51,51,51,51,51,51,51,51,51,51,51,51,51,51,51,51,51,51,51,51,51,51,51,
51,51,51,51,51,51,51,51,51,51,51,51,51,51,51,51,51,51,51,51,51,51,51,51,51,51,51,51,51,51,51,51,51,51,51,51,51,51,51,51,51,51,51,51,51,51,51,51,51,51,51,51,51,51,51,51,51,51,51,51,51,51,51,51,51,51,51,51,51,51,51,51,51,51,51,51,51,51,51,51,51,51,51,51,51,51,51,51,51,51,51,51,51,51,51,51,
51,51,51,51,51,51,51,51,51,51,51,51,51,51,51,51,51,51,51,51,51,51,51,51,51,51,51,51,51,51,51,51,51,51,51,51,51,51,51,51,51,51,51,51,51,51,51,51,51,51,51,51,51,51,51,51,51,51,51,51,51,51,51,51,51,51,51,51,51,51,51,51,51,51,51,51,51,51,51,51,51,51,51,51,51,51,51,51,51,51,51,51,51,51,51,51,
51,51,51,51,51,51,51,51,51,51,51,51,51,51,51,51,51,51,51,51,51,51,51,51,51,51,51,51,51,51,51,51,51,51,51,51,51,51,51,51,51,51,51,51,51,51,51,51,51,51,51,51,51,51,51,51,51,51,51,51,51,51,51,51,51,51,51,51,51,51,51,51,51,51,51,51,51,51,51,51,51,51,51,51,51,51,51,51,51,51,51,51,51,51,51,51,
51,51,51,51,51,51,51,51,51,51,51,51,51,51,51,51,51,51,51,51,51,51,51,51,51,51,51,51,51,51,51,51,51,51,51,51,51,51,51,51,51,51,51,51,51,51,51,51,51,51,51,51,51,51,51,51,51,51,51,51,51,51,51,51,51,51,51,51,51,51,51,51,51,51,51,51,51,51,51,51,51,51,51,51,51,51,51,51,51,51,51,51,51,51,51,51,
51,51,51,51,51,51,51,51,51,51,51,51,51,51,51,51,51,51,51,51,51,51,51,51,51,51,51,51,51,51,51,51,51,51,51,51,51,51,51,51,51,51,51,51,51,51,51,51,51,51,51,51,51,51,51,51,51,51,51,51,51,51,51,51,51,51,51,51,51,51,51,51,51,51,51,51,51,51,51,51,51,51,51,51,51,51,51,51,51,51,51,51,51,51,51,51,
51,51,51,51,51,51,51,51,51,51,51,51,51,51,51,51,51,51,51,51,51,51,51,51,51,51,51,51,51,51,51,51,51,51,51,51,51,51,51,51,51,51,51,51,51,51,51,51,51,51,51,51,51,51,51,51,51,51,51,51,51,51,51,51,51,51,51,51,51,51,51,51,51,51,51,51,51,51,51,51,51,51,51,51,51,51,51,51,51,51,51,51,51,51,51,51,
51,51,51,51,51,51,51,51,51,51,51,51,51,51,51,51,51,51,51,51,51,51,51,51,51,51,51,51,51,51,51,51,51,51,51,51,51,51,51,51,51,51,51,51,51,51,51,51,51,51,51,51,51,51,51,51,51,51,51,51,51,51,51,51,51,51,51,51,51,51,51,51,51,51,51,51,51,51,51,51,51,51,51,51,51,51,51,51,51,51,51,51,51,51,51,51,
51,51,51,51,51,51,51,51,51,51,51,51,51,51,51,51,51,51,51,51,51,51,51,51,51,51,51,51,51,51,51,51,51,51,51,51,51,51,51,51,51,51,51,51,51,51,51,51,51,51,51,51,51,51,51,51,51,51,51,51,51,51,51,51,51,51,51,51,51,51,51,51,51,51,51,51,51,51,51,51,51,51,51,51,51,51,51,51,51,51,51,51,51,51,51,51,
51,51,51,51,51,51,51,51,51,51,51,51,51,51,51,51,51,51,51,51,51,51,51,51,51,51,51,51,51,51,51,51,51,51,51,51,51,51,51,51,51,51,51,51,51,51,51,51,51,51,51,51,51,51,51,51,51,51,51,51,51,51,51,51,51,51,51,51,51,51,51,51,51,51,51,51,51,51,51,51,51,51,51,51,51,51,51,51,51,51,51,51,51,51,51,51,
51,51,51,51,51,51,51,51,51,51,51,51,51,51,51,51,51,51,51,51,51,51,51,51,51,51,51,51,51,51,51,51,51,51,51,51,51,51,51,51,51,51,51,51,51,51,51,51,51,51,51,51,51,51,51,51,51,51,51,51,51,51,51,51,51,51,51,51,51,51,51,51,51,51,51,51,51,51,51,51,51,51,51,51,51,51,51,51,51,51,51,51,51,51,51,51,
51,51,51,51,51,51,51,51,51,51,51,51,51,51,51,51,51,51,51,51,51,51,51,51,51,51,51,51,51,51,51,51,51,51,51,51,51,51,51,51,51,51,51,51,51,51,51,51,51,51,51,51,51,51,51,51,51,51,51,51,51,51,51,51,51,51,51,51,51,51,51,51,51,51,51,51,51,51,51,51,51,51,51,51,51,51,51,51,51,51,51,51,51,51,51,51,
51,51,51,51,51,51,51,51,51,51,51,51,51,51,51,51,51,51,51,51,51,51,51,51,51,51,51,51,51,51,51,51,51,51,51,51,51,51,51,51,51,51,51,51,51,51,51,51,51,51,51,51,51,51,51,51,51,51,51,51,51,51,51,51,51,51,51,51,51,51,51,51,51,51,51,51,51,51,51,51,51,51,51,51,51,51,51,51,51,51,51,51,51,51,51,51,
51,51,51,51,51,51,51,51,51,51,51,51,51,51,51,51,51,51,51,51,51,51,51,51,51,51,51,51,51,51,51,51,51,51,51,51,51,51,51,51,51,51,51,51,51,51,51,51,51,51,51,51,51,51,51,51,51,51,51,51,51,51,51,51,51,51,51,51,51,51,51,51,51,51,51,51,51,51,51,51,51,51,51,51,51,51,51,51,51,51,51,51,51,51,51,51,
51,51,51,51,51,51,51,51,51,51,51,51,51,51,51,51,51,51,51,51,51,51,51,51,51,51,51,51,51,51,51,51,51,51,51,51,51,51,51,51,51,51,51,51,51,51,51,51,51,51,51,51,51,51,51,51,51,51,51,51,51,51,51,51,51,51,51,51,51,51,51,51,51,51,51,51,51,51,51,51,51,51,51,51,51,51,51,51,51,51,51,51,51,51,51,51,
51,51,51,51,51,51,51,51,51,51,51,51,51,51,51,51,51,51,51,51,51,51,51,51,51,51,51,51,51,51,51,51,51,51,51,51,51,51,51,51,51,51,51,51,51,51,51,51,51,51,51,51,51,51,51,51,51,51,51,51,51,51,51,51,51,51,51,51,51,51,51,51,51,51,51,51,51,51,51,51,51,51,51,51,51,51,51,51,51,51,51,51,51,51,51,51,
51,51,51,51,51,51,51,51,51,51,51,51,51,51,51,51,51,51,51,51,51,51,51,51,51,51,51,51,51,51,51,51,51,51,51,51,51,51,51,51,51,51,51,51,51,51,51,51,51,51,51,51,51,51,51,51,51,51,51,51,51,51,51,51,51,51,51,51,51,51,51,51,51,51,51,51,51,51,51,51,51,51,51,51,51,51,51,51,51,51,51,51,51,51,51,51,
51,51,51,51,51,51,51,51,51,51,51,51,51,51,51,51,51,51,51,51,51,51,51,51,51,51,51,51,51,51,51,51,51,51,51,51,51,51,51,51,51,51,51,51,51,51,51,51,51,51,51,51,51,51,51,51,51,51,51,51,51,51,51,51,51,51,51,51,51,51,51,51,51,51,51,51,51,51,51,51,51,51,51,51,51,51,51,51,51,51,51,51,51,51,51,51,
51,51,51,51,51,51,51,51,51,51,51,51,51,51,51,51,51,51,51,51,51,51,51,51,51,51,51,51,51,51,51,51,51,51,51,51,51,51,51,51,51,51,51,51,51,51,51,51,51,51,51,51,51,51,51,51,51,51,51,51,51,51,51,51,51,51,51,51,51,51,51,51,51,51,51,51,51,51,51,51,51,51,51,51,51,51,51,51,51,51,51,51,51,51,51,51,
51,51,51,51,51,51,51,51,51,51,51,51,51,51,51,51,51,51,51,51,51,51,51,51,51,51,51,51,51,51,51,51,51,51,51,51,51,51,51,51,51,51,51,51,51,51,51,51,51,51,51,51,51,51,51,51,51,51,51,51,51,51,51,51,51,51,51,51,51,51,51,51,51,51,51,51,51,51,51,51,51,51,51,51,51,51,51,51,51,51,51,51,51,51,51,51
</data>
 </layer>
 <layer id="5" name="logica" width="96" height="96" opacity="0.45">
  <data encoding="csv">
3,3,3,3,3,3,3,3,3,3,3,3,3,3,3,3,3,3,3,3,3,3,3,3,3,3,3,3,3,3,3,3,3,3,3,3,3,3,3,3,3,3,3,3,3,3,3,3,3,3,3,3,3,3,3,3,3,3,3,3,3,3,3,3,3,3,3,3,3,3,3,3,3,3,3,3,3,3,3,3,3,3,3,3,3,3,3,3,3,3,3,3,3,3,3,3,
3,3,3,3,3,3,3,3,3,3,3,3,3,3,3,3,3,3,3,3,3,3,3,3,3,3,3,3,3,3,3,3,3,3,3,3,3,3,3,3,3,3,3,3,3,3,3,3,3,1,1,1,1,1,1,1,1,1,1,1,1,1,6,3,1,1,3,3,3,3,3,3,3,3,3,3,3,3,3,3,3,3,3,3,3,3,3,3,3,3,3,3,3,3,3,3,
3,3,3,3,3,3,3,3,3,3,3,3,3,3,3,3,3,3,3,3,3,3,3,3,3,3,3,3,3,3,3,3,3,3,3,3,3,3,3,3,3,3,3,3,3,3,3,1,1,1,1,1,1,1,1,1,1,1,1,1,1,1,1,1,1,1,1,1,1,1,1,3,3,3,3,3,3,3,3,3,3,3,3,3,3,3,3,3,3,3,3,3,3,3,3,3,
3,3,3,3,3,3,3,3,3,3,3,3,3,3,3,3,3,3,3,3,3,3,3,3,3,3,3,3,3,3,3,3,3,3,3,3,3,3,3,3,3,3,3,3,1,1,1,1,1,1,1,1,1,1,1,1,1,1,1,1,1,1,1,1,1,1,1,1,1,1,1,1,3,3,3,3,3,3,3,3,3,3,3,3,3,3,3,3,3,3,3,3,3,3,3,3,
3,3,3,3,3,3,3,3,3,3,3,3,3,3,3,3,3,3,3,3,3,3,3,3,3,3,3,3,3,3,3,3,3,3,3,3,3,3,3,3,3,1,1,1,1,1,1,1,1,1,1,1,1,1,1,1,1,1,1,1,1,1,1,1,1,1,1,1,1,1,1,1,1,1,3,3,3,3,3,3,3,3,3,3,3,3,3,3,3,3,3,3,3,3,3,3,
3,3,3,3,3,3,3,3,3,3,3,3,3,3,3,3,3,3,3,3,3,3,3,3,3,3,3,3,3,3,3,3,3,3,3,3,3,3,1,1,1,1,1,1,1,1,1,1,1,1,1,1,1,1,1,1,1,1,1,1,1,1,1,1,1,1,1,1,1,1,1,1,1,1,1,1,1,3,3,3,3,1,1,1,1,1,3,3,3,3,3,3,3,3,3,3,
3,3,3,3,3,3,3,3,3,3,3,3,3,3,3,3,3,3,3,3,3,3,3,3,3,3,3,3,3,3,1,1,1,1,1,3,1,1,1,1,1,1,1,1,1,1,1,1,1,1,1,1,1,1,1,1,1,1,1,1,1,1,1,1,1,1,1,1,1,1,1,1,1,1,1,1,1,1,1,1,1,1,1,1,1,1,1,1,3,3,3,3,3,3,3,3,
3,3,3,3,3,3,3,3,3,3,3,3,3,3,3,3,3,3,3,1,1,1,1,1,1,1,1,1,1,1,1,1,1,1,1,1,1,1,1,1,1,1,1,1,1,1,1,1,1,1,1,1,1,1,1,1,1,1,1,1,1,1,1,1,3,3,1,1,1,1,1,1,1,1,1,1,1,1,1,1,1,1,1,1,1,1,1,1,1,3,3,3,3,3,3,3,
3,3,3,3,3,3,3,3,3,3,3,3,3,3,3,3,3,1,1,1,1,1,1,1,1,1,1,1,1,1,1,1,1,1,1,1,1,1,1,1,1,6,6,6,1,1,1,1,1,3,3,3,3,3,3,3,3,3,3,3,3,3,3,3,3,3,3,3,6,1,1,1,1,1,1,1,1,1,1,1,1,1,1,1,1,1,1,1,1,3,3,3,3,3,3,3,
3,3,3,3,3,3,3,3,3,3,3,3,2,2,2,2,1,1,1,1,1,1,1,1,1,1,1,1,1,1,1,1,1,1,1,1,1,1,1,1,1,6,6,6,1,3,3,3,3,3,3,3,3,3,3,3,3,3,3,3,3,3,3,3,3,3,3,3,3,3,1,1,1,1,1,1,1,1,1,1,1,1,1,1,1,1,1,1,1,1,3,3,3,3,3,3,
3,3,3,3,3,3,3,3,3,3,2,2,2,2,2,2,2,1,1,1,1,1,1,1,1,1,1,1,1,1,1,1,1,1,1,1,1,1,1,1,1,6,6,6,3,3,3,3,3,3,3,3,3,3,3,3,3,3,3,3,3,3,3,3,3,3,3,3,3,3,3,3,1,1,1,1,1,1,1,1,1,1,1,1,1,1,1,1,1,1,3,3,3,3,3,3,
3,3,3,3,3,3,3,3,3,3,2,2,2,2,2,2,2,1,1,1,1,1,1,1,1,1,1,1,1,1,1,1,1,1,1,1,1,1,1,3,3,3,3,3,3,3,3,3,3,3,3,3,3,3,3,3,3,3,3,3,3,3,3,3,3,3,3,3,3,3,3,3,3,3,3,3,1,1,1,1,1,1,1,1,1,1,1,1,1,1,3,3,3,3,3,3,
3,3,3,3,3,3,3,3,3,2,2,2,2,2,2,2,2,2,6,6,6,1,1,1,6,6,1,1,1,1,1,1,1,1,1,1,1,1,3,3,3,3,3,3,3,3,3,3,3,3,3,3,3,3,3,3,3,3,3,3,3,3,3,3,3,3,3,3,3,3,3,3,3,3,3,3,3,1,1,6,1,1,1,1,1,1,1,1,1,1,3,3,3,3,3,3,
3,3,3,3,3,3,3,3,3,2,2,2,2,2,2,2,2,2,6,6,6,1,1,1,6,6,1,1,1,1,1,1,1,1,1,1,1,1,1,3,3,3,3,3,3,3,3,3,3,3,3,3,3,3,3,3,3,3,3,3,3,3,3,3,3,3,3,3,3,3,3,3,3,3,3,3,3,1,1,1,1,1,1,1,1,1,1,1,1,1,3,3,3,3,3,3,
3,3,3,3,3,3,3,3,3,2,2,2,2,2,2,2,2,2,6,6,6,3,3,3,3,3,3,3,3,3,1,1,1,1,1,1,1,1,1,1,1,3,3,3,3,3,3,3,3,3,3,3,3,3,3,3,3,3,3,3,3,3,3,3,3,3,3,3,3,3,3,3,3,3,3,3,3,3,1,1,1,1,1,1,1,1,1,1,1,3,3,3,3,3,3,3,
3,3,3,3,3,3,3,3,3,2,2,2,2,2,2,2,2,2,3,3,3,3,3,3,3,3,3,3,3,3,3,3,3,3,1,1,1,1,1,1,1,3,3,3,3,3,3,3,3,3,3,3,3,3,3,3,3,3,3,3,3,3,3,3,3,3,3,3,3,3,3,3,3,3,3,3,3,3,1,1,1,1,1,1,1,1,1,1,1,3,3,3,3,3,3,3,
3,3,3,3,3,3,3,3,3,1,2,2,2,2,2,2,2,2,3,3,3,3,3,3,3,3,3,3,3,3,3,3,3,3,1,1,1,1,1,1,1,1,3,3,3,3,3,3,3,3,3,3,3,3,3,3,3,3,3,3,3,3,3,3,3,3,3,3,3,3,3,3,3,3,3,3,3,3,3,1,1,1,1,1,1,1,1,1,1,3,3,3,3,3,3,3,
3,3,3,3,3,3,3,3,1,1,1,1,2,2,2,2,2,3,3,3,3,3,3,3,3,3,3,3,3,3,3,3,3,3,3,1,1,1,1,1,1,1,1,3,3,3,3,3,3,3,3,3,3,3,3,3,3,3,3,3,3,3,3,3,3,3,3,3,3,3,3,3,3,3,3,3,3,3,3,3,3,1,1,1,1,1,1,1,1,3,3,3,3,3,3,3,
3,3,3,3,3,3,3,3,1,1,1,1,6,6,6,3,3,3,3,3,3,3,3,3,3,3,3,3,3,3,3,3,3,3,3,3,1,1,1,1,1,1,1,1,3,3,3,3,3,3,3,3,3,3,3,3,3,3,3,3,3,3,3,3,3,3,3,3,3,3,3,3,3,3,3,3,3,3,3,3,3,3,1,1,1,1,1,1,1,3,3,3,3,3,3,3,
3,3,3,3,3,3,3,1,1,1,1,1,6,6,6,3,3,3,3,3,3,3,3,3,3,3,3,3,3,3,3,3,3,3,3,3,3,6,1,1,1,1,1,1,1,3,3,3,3,3,3,3,3,3,3,3,3,3,3,3,3,3,3,3,3,3,3,3,3,3,3,3,3,3,3,3,3,3,3,3,3,3,3,1,1,1,1,1,1,3,3,3,3,3,3,3,
3,3,3,3,3,3,3,1,1,1,1,1,6,6,6,3,3,3,3,3,3,3,3,3,3,3,3,3,3,3,3,3,3,3,3,3,3,3,1,1,1,1,1,1,1,1,3,3,3,3,3,3,3,3,3,3,3,3,3,3,3,3,3,3,3,3,3,3,3,3,3,3,3,3,3,3,3,3,3,3,3,3,3,1,1,1,1,1,1,3,3,3,3,3,3,3,
3,3,3,3,3,3,3,1,1,1,1,1,1,1,3,3,3,3,3,3,3,3,3,3,3,3,3,3,3,3,3,3,3,3,3,3,3,3,1,1,1,1,1,1,1,1,3,3,3,3,3,3,3,3,3,3,3,3,3,3,3,3,3,3,3,3,3,3,3,3,3,3,3,3,3,3,3,3,3,3,3,3,3,3,1,1,1,1,1,1,3,3,3,3,3,3,
3,3,3,3,3,3,3,1,1,1,1,1,1,1,3,3,3,3,3,3,3,3,3,3,3,3,3,3,3,3,3,3,3,3,3,3,3,3,3,1,1,1,1,1,1,1,1,3,3,3,3,3,3,3,3,3,3,3,3,3,3,3,3,3,3,3,3,3,3,3,3,3,3,3,3,3,3,3,3,3,3,3,3,3,1,1,1,1,1,1,1,3,3,3,3,3,
3,3,3,3,3,3,3,1,1,1,1,1,1,1,3,3,3,3,3,3,3,3,3,3,3,3,3,3,3,3,3,3,3,3,3,3,3,3,3,3,3,1,1,1,1,1,1,1,3,3,3,3,3,3,3,3,3,3,3,3,3,3,3,3,3,3,3,3,3,3,3,3,3,3,3,3,3,3,3,3,3,3,3,3,1,1,1,1,1,1,1,3,3,3,3,3,
3,3,3,3,3,3,3,1,1,1,1,1,6,6,3,3,3,3,3,3,3,3,3,3,3,3,3,3,3,3,3,3,3,3,3,3,3,3,3,3,3,3,1,1,1,1,1,1,1,1,3,3,3,3,3,3,3,3,3,3,3,3,3,3,3,3,3,3,3,3,3,3,3,3,3,3,3,3,3,3,3,3,3,3,1,6,1,1,1,1,1,3,3,3,3,3,
3,3,3,3,3,3,3,1,1,1,1,1,6,6,3,3,3,3,3,3,3,3,3,3,3,3,3,2,2,2,2,2,3,3,3,3,3,3,3,3,3,3,3,1,1,1,1,1,1,1,3,3,3,3,3,3,3,3,3,3,3,3,3,3,3,3,3,3,3,3,3,3,3,3,3,3,3,3,3,3,3,3,3,3,1,1,1,1,1,1,1,3,3,3,3,3,
3,3,3,3,3,3,3,1,1,1,1,1,1,1,3,3,3,3,3,3,3,3,3,3,3,3,2,2,2,2,2,2,2,3,3,3,3,3,3,3,3,3,3,1,1,1,1,1,1,1,1,3,3,3,3,3,3,3,3,3,3,3,3,3,3,3,3,3,3,3,3,3,3,3,3,3,3,3,3,3,3,3,3,3,3,1,1,1,1,1,1,3,3,3,3,3,
3,3,3,3,3,3,3,1,1,1,1,1,1,1,3,3,3,3,3,3,3,3,3,3,3,2,2,2,2,2,2,2,2,3,3,3,3,3,3,3,3,3,3,3,1,1,1,1,1,1,1,1,3,3,3,3,3,3,3,3,3,3,3,3,3,3,3,3,3,3,3,3,3,3,3,3,3,3,3,3,3,3,3,3,3,3,1,1,1,1,1,1,3,3,3,3,
3,3,3,3,3,3,3,1,1,1,1,1,1,1,3,3,3,3,3,3,3,3,3,3,3,2,2,2,2,2,2,2,2,2,3,3,3,3,3,3,3,3,3,3,3,6,1,1,1,1,1,1,3,3,3,3,3,3,3,3,3,3,3,3,3,3,3,3,3,3,3,3,3,3,3,3,3,3,3,3,3,3,3,3,3,3,1,1,1,1,1,1,1,3,3,3,
3,3,3,3,3,3,3,1,1,1,1,1,1,1,3,3,3,3,3,3,3,3,3,3,3,2,2,2,2,2,2,2,2,2,3,3,3,3,3,3,3,3,3,3,3,3,1,1,1,1,1,1,1,3,3,3,3,3,3,3,3,3,3,3,3,3,3,3,3,3,3,3,3,3,3,3,3,3,3,3,3,3,3,3,3,3,1,1,1,1,1,1,1,3,3,3,
3,3,3,3,3,3,1,1,1,1,1,1,1,1,1,3,3,3,3,3,3,3,3,3,3,2,2,2,2,2,2,2,2,2,3,3,3,3,3,3,3,3,3,3,3,3,3,1,1,1,1,1,1,1,3,3,3,3,3,3,3,3,3,3,3,3,3,3,3,3,3,3,3,3,3,3,3,3,3,3,1,1,6,1,1,1,1,1,1,1,1,1,1,3,3,3,
3,3,3,3,3,3,1,1,1,1,1,1,1,1,1,3,3,3,3,3,3,3,3,3,3,2,2,2,2,2,2,2,2,2,1,3,3,3,3,3,3,3,3,3,3,3,3,1,1,1,1,1,1,1,1,3,3,3,3,3,3,3,3,3,3,3,3,3,3,3,2,2,2,3,3,3,1,1,1,1,1,1,1,1,1,1,1,1,1,1,1,1,1,3,3,3,
3,3,3,3,3,3,1,1,1,1,1,1,1,1,1,3,3,3,3,3,3,3,3,3,3,3,2,2,2,2,2,2,2,1,1,1,3,3,3,3,3,3,3,3,3,3,3,3,1,1,1,1,1,1,1,1,3,3,3,3,3,3,3,3,3,3,3,3,2,2,2,2,2,2,1,1,1,1,1,1,1,1,1,1,1,1,1,1,1,1,1,6,6,3,3,3,
3,3,3,3,3,3,1,1,1,1,1,1,1,1,1,3,3,3,3,3,3,3,3,3,3,3,3,3,2,2,2,2,1,1,1,1,3,3,3,3,3,3,3,3,3,3,3,3,3,1,1,1,1,1,1,1,1,3,3,3,3,3,3,3,3,1,1,2,2,2,2,2,2,2,2,1,1,1,1,1,1,1,1,1,1,1,1,1,1,1,1,6,6,3,3,3,
3,3,3,3,3,3,1,1,1,1,1,1,1,1,1,1,1,3,3,3,3,3,3,3,3,3,3,3,3,3,3,1,1,1,1,1,1,1,3,3,3,3,3,3,3,3,3,3,3,3,3,1,1,1,1,1,1,1,1,1,1,6,6,1,1,1,1,2,2,2,2,2,2,2,2,2,1,1,1,1,1,1,1,1,1,1,1,1,1,1,1,1,1,3,3,3,
3,3,3,3,3,3,3,1,1,1,1,1,1,1,1,1,1,1,3,3,3,3,3,3,3,3,3,3,3,3,3,3,1,1,1,1,1,1,1,3,3,3,3,3,3,3,3,3,3,3,3,3,1,1,1,1,1,1,1,1,1,6,6,1,1,1,1,2,2,2,2,2,2,2,2,2,1,1,1,1,1,1,1,1,3,3,3,1,1,1,1,1,1,3,3,3,
3,3,3,3,3,3,1,1,1,1,1,1,1,1,1,1,1,1,1,3,3,3,3,3,3,3,3,3,3,3,3,3,3,3,1,1,1,1,1,1,3,3,3,3,3,3,3,3,3,3,3,3,1,1,1,1,1,1,1,1,1,1,1,1,1,1,1,2,2,2,2,2,2,2,2,2,1,1,1,1,3,3,3,3,3,3,3,1,1,1,1,1,1,3,3,3,
3,3,3,3,3,3,1,1,1,1,1,1,1,1,1,1,1,1,1,6,3,3,3,3,3,3,3,3,3,3,3,3,3,3,1,1,1,1,1,1,1,3,3,3,3,3,3,3,3,3,3,3,3,1,1,1,1,1,1,1,1,1,1,1,1,1,1,1,2,2,2,2,2,2,2,1,3,3,3,3,3,3,3,3,3,3,3,1,1,1,1,1,1,3,3,3,
3,3,3,3,3,1,1,1,1,1,1,1,3,1,1,1,1,1,1,1,1,1,3,3,3,3,3,3,3,3,3,3,3,3,3,1,1,1,1,1,1,1,3,3,3,3,3,3,3,3,3,3,1,1,1,1,1,1,1,1,1,1,1,1,1,1,1,1,2,2,2,2,2,2,2,3,3,3,3,3,3,3,3,3,3,3,3,1,1,1,1,1,1,3,3,3,
3,3,3,3,3,1,1,1,1,1,1,3,3,3,1,1,1,1,1,1,1,1,1,3,3,3,3,3,3,3,3,3,3,3,3,3,1,1,1,1,1,1,1,3,3,3,3,3,3,3,3,1,1,1,1,1,1,1,1,1,1,1,1,1,1,1,1,3,3,2,2,2,3,3,3,3,3,3,3,3,3,3,3,3,3,3,3,1,1,1,1,1,1,3,3,3,
3,3,3,3,3,1,1,1,1,1,1,3,3,3,1,1,1,1,1,1,1,1,1,3,3,3,3,3,3,3,3,3,3,3,3,3,3,1,1,1,1,1,1,1,3,3,3,1,3,3,1,1,1,1,1,1,1,1,1,1,1,1,1,1,6,3,3,3,3,3,3,3,3,3,3,3,3,3,3,3,3,3,3,3,3,3,3,6,1,1,1,1,1,3,3,3,
3,3,3,3,1,1,1,1,6,6,6,3,3,3,3,3,1,1,1,1,1,1,1,1,3,3,3,3,3,3,3,3,3,3,3,3,3,3,1,1,1,1,1,1,1,1,1,1,1,1,1,1,1,1,1,1,1,1,1,1,1,1,1,1,1,1,3,3,3,3,3,3,3,3,3,3,3,3,3,3,3,3,3,3,3,3,3,1,1,1,1,1,1,1,3,3,
3,3,3,3,1,1,1,1,6,6,6,3,3,3,3,3,3,1,1,1,1,1,1,1,1,3,3,3,3,3,3,3,3,3,3,3,3,3,3,1,1,1,1,1,1,1,1,1,1,1,1,1,1,1,1,1,1,3,1,1,1,1,1,1,1,1,3,3,3,3,3,3,3,3,3,3,3,3,3,3,3,3,3,3,3,3,3,1,1,1,1,1,1,1,3,3,
3,3,3,3,1,1,1,1,6,6,6,3,3,3,3,3,3,3,1,1,1,1,1,1,1,1,1,3,3,3,3,3,3,3,3,3,3,3,3,3,1,1,1,1,1,1,1,1,1,1,1,1,1,1,1,1,3,3,3,1,1,1,1,1,1,1,1,1,3,3,3,3,3,3,3,3,3,3,3,3,3,3,3,3,3,3,3,1,1,1,1,1,1,1,3,3,
3,3,3,1,1,1,1,1,1,1,3,3,3,3,3,3,3,3,3,1,1,1,1,1,1,1,1,1,3,3,3,3,3,3,3,3,3,3,3,3,3,1,1,1,1,1,1,1,1,1,1,1,1,1,1,3,3,3,3,3,3,1,1,1,1,1,1,1,1,3,3,3,3,3,3,3,3,3,3,3,3,3,3,3,3,3,3,1,1,1,1,1,1,1,3,3,
3,3,3,1,1,1,1,1,1,3,3,3,3,3,3,3,3,3,3,3,1,1,1,1,1,1,1,1,6,3,3,3,3,3,3,3,3,3,3,3,3,1,1,1,1,1,1,1,1,1,1,1,1,1,3,3,3,3,3,3,3,3,1,1,1,1,1,1,1,1,3,3,3,3,3,3,3,3,3,3,3,3,3,3,3,3,1,1,1,1,1,1,1,1,3,3,
3,3,3,1,1,1,1,1,1,3,3,3,3,3,3,3,3,3,3,3,3,3,1,1,1,1,1,1,1,1,3,3,3,3,3,3,3,3,3,3,3,1,1,1,1,1,1,1,1,1,1,1,1,1,3,3,3,3,3,3,3,3,1,1,1,1,1,1,1,1,1,3,3,3,3,3,3,3,3,3,3,3,3,3,3,3,1,1,1,1,1,1,1,3,3,3,
3,3,1,1,1,1,1,1,1,3,3,3,3,3,3,3,3,3,3,3,3,3,3,1,1,1,1,1,1,1,1,1,3,3,3,3,3,3,3,3,1,1,1,1,1,1,1,1,1,1,1,1,1,1,1,3,3,3,3,3,3,3,3,1,1,1,1,1,1,1,1,1,3,3,3,3,3,3,3,3,3,3,3,3,3,6,6,6,1,1,1,1,1,3,3,3,
3,3,1,1,1,1,1,1,1,3,3,3,3,3,3,3,3,3,3,3,3,3,3,3,1,1,1,1,1,1,1,1,1,3,3,3,3,3,3,3,3,1,1,1,1,1,1,1,1,1,1,1,1,1,3,3,3,3,3,3,3,3,3,3,3,1,1,1,1,1,1,1,1,1,3,3,3,3,3,3,3,3,3,3,3,6,6,6,1,1,1,1,1,3,3,3,
3,1,1,1,1,1,1,1,3,3,3,3,3,3,3,3,3,3,3,3,3,3,3,3,1,1,1,1,1,1,1,1,1,1,3,3,3,3,3,3,3,1,1,1,1,1,1,1,1,1,1,1,1,1,3,3,3,3,3,3,3,3,3,3,3,3,3,1,1,1,1,1,1,1,1,3,3,3,3,3,3,3,3,3,3,6,6,6,1,1,1,1,1,3,3,3,
3,1,1,1,1,1,1,1,3,3,3,3,3,3,3,3,3,3,3,3,3,3,3,3,3,3,1,1,1,1,1,1,1,1,3,3,3,3,3,3,1,1,1,1,1,1,1,1,1,1,1,1,1,1,3,3,3,3,3,3,3,3,3,3,3,3,3,3,1,1,1,1,1,1,1,1,3,3,3,3,3,3,3,3,3,1,1,1,1,1,1,1,3,3,3,3,
3,1,1,1,1,1,1,1,3,3,3,3,3,3,3,3,3,3,3,3,3,3,3,3,3,3,3,1,1,1,1,1,1,1,1,3,3,3,3,1,1,1,1,1,1,1,1,1,1,1,1,1,1,1,1,3,3,3,3,3,3,3,3,3,3,3,3,3,1,1,1,1,1,1,1,1,3,3,3,3,3,3,3,3,3,1,1,1,1,1,1,1,3,3,3,3,
3,1,1,1,1,1,1,1,3,3,3,3,3,3,3,3,3,3,3,3,3,3,3,3,3,3,3,3,3,1,1,1,1,1,1,1,1,3,1,1,1,1,1,1,1,1,1,1,1,1,1,1,1,1,1,1,3,3,3,3,3,3,3,3,3,3,3,3,3,1,1,1,1,1,1,1,1,3,3,3,3,3,3,3,1,1,1,1,1,1,1,3,3,3,3,3,
3,1,1,1,1,1,1,1,3,3,3,3,3,3,3,3,3,3,3,3,3,3,3,3,3,3,3,3,3,3,1,1,1,1,1,1,1,1,1,1,1,1,1,1,1,1,1,1,1,1,1,1,1,1,1,1,1,3,3,3,3,3,3,3,3,3,3,3,3,3,1,1,1,1,1,1,1,1,1,3,3,3,3,3,1,1,1,1,1,1,1,3,3,3,3,3,
3,1,1,1,1,1,1,1,3,3,3,3,3,3,3,3,3,3,3,3,3,3,3,3,3,3,3,3,3,3,3,1,1,1,1,1,1,1,1,1,1,1,1,1,1,3,3,1,3,3,3,1,1,1,1,1,1,1,3,3,3,3,3,3,3,3,3,3,3,3,3,3,1,1,1,1,1,1,1,1,1,3,3,3,1,1,1,1,1,1,3,3,3,3,3,3,
3,1,1,1,1,1,1,1,3,3,3,3,3,3,3,3,3,3,3,3,3,3,3,3,3,3,3,3,3,3,3,3,1,1,1,1,1,1,1,1,1,1,1,1,3,3,3,3,3,3,3,3,1,1,1,1,1,1,1,3,3,3,3,3,3,3,3,3,3,3,3,3,3,1,1,1,1,1,1,1,1,3,3,3,1,1,1,1,1,1,3,3,3,3,3,3,
3,1,1,1,1,1,1,1,3,3,3,3,3,3,3,3,3,3,3,3,3,3,3,3,3,3,3,3,3,3,3,3,3,1,1,1,1,1,1,1,1,1,1,3,3,3,3,3,3,3,3,3,3,1,1,1,1,1,1,1,3,3,3,3,3,3,3,3,3,3,3,3,3,3,1,1,1,1,1,1,1,1,3,1,1,1,1,1,1,1,3,3,3,3,3,3,
3,1,1,1,1,1,1,1,3,3,3,3,3,3,3,3,3,3,3,3,3,3,3,3,3,3,3,3,3,3,3,3,3,3,1,1,1,1,1,1,1,1,3,3,3,3,3,3,3,3,3,3,3,3,1,1,1,1,1,1,1,3,3,3,3,3,3,3,3,3,3,3,3,3,3,1,1,1,1,1,1,1,1,1,1,1,1,1,1,1,3,3,3,3,3,3,
3,1,1,1,1,1,1,1,3,3,3,3,3,3,3,3,3,3,3,3,3,3,3,3,3,3,3,3,3,3,3,3,3,3,1,1,1,1,1,1,1,1,1,3,3,3,3,3,3,3,3,3,3,3,3,1,1,1,1,1,1,1,3,3,3,3,3,3,3,3,3,3,3,3,3,3,6,1,1,1,1,1,1,1,1,1,1,1,1,3,3,3,3,3,3,3,
3,1,1,1,1,1,1,1,3,3,3,3,3,3,3,3,3,3,3,3,3,3,3,3,3,3,3,3,3,3,3,3,3,3,1,1,1,1,1,1,1,1,1,1,3,3,3,3,3,3,3,3,3,3,3,3,1,1,1,1,1,1,1,3,3,3,3,3,3,3,3,3,3,3,3,3,3,1,1,1,1,1,1,1,1,1,1,1,1,3,3,3,3,3,3,3,
3,1,1,1,1,1,1,1,3,3,3,3,3,3,3,3,3,3,3,3,3,3,3,3,3,3,3,3,3,3,3,3,3,3,1,1,1,1,1,1,1,1,1,1,3,3,3,3,3,3,3,3,3,3,3,3,3,1,1,1,1,1,1,1,3,3,3,3,3,3,3,3,3,3,3,3,3,3,1,1,1,1,1,1,1,1,1,1,1,3,3,3,3,3,3,3,
3,1,1,1,1,1,1,1,3,3,3,3,3,3,3,3,3,3,3,3,3,3,3,3,3,3,3,3,3,3,3,3,3,3,6,6,1,1,1,1,1,1,1,1,1,3,3,3,3,3,3,3,3,3,3,3,3,3,1,1,1,1,1,2,2,2,2,2,3,3,3,3,3,3,3,3,3,3,3,1,1,1,1,1,1,1,1,1,1,3,3,3,3,3,3,3,
3,6,1,1,1,1,1,1,3,3,3,3,3,3,3,3,3,3,3,3,3,3,3,3,3,3,3,3,3,3,3,3,3,3,6,6,1,1,1,1,1,1,1,1,1,1,1,3,3,3,3,3,3,3,3,3,3,3,3,1,1,1,2,2,2,2,2,2,2,3,3,3,3,3,3,3,3,3,3,3,1,1,1,1,1,1,1,1,1,3,3,3,3,3,3,3,
3,3,1,1,1,1,1,1,3,3,3,3,3,3,3,3,3,3,3,3,3,3,3,3,3,3,3,3,3,3,3,3,3,3,1,1,1,1,1,1,1,1,1,1,1,1,1,1,3,3,3,3,3,3,3,3,3,3,3,3,1,2,2,2,2,2,2,2,2,2,3,3,3,3,3,3,3,3,3,3,1,1,1,1,1,1,1,1,1,3,3,3,3,3,3,3,
3,1,1,1,1,1,1,3,3,3,3,3,3,3,3,3,3,3,3,3,3,3,3,3,3,3,3,3,3,3,3,3,3,3,1,1,1,1,1,1,6,1,1,1,1,1,1,1,3,3,3,3,3,3,3,3,3,3,3,3,3,2,2,2,2,2,2,2,2,2,3,3,3,3,3,3,3,3,3,3,1,1,1,1,1,1,1,1,1,3,3,3,3,3,3,3,
3,1,1,1,1,1,1,3,3,3,3,3,3,3,3,3,3,3,3,3,3,3,3,3,3,3,3,3,3,3,3,3,3,1,1,1,1,1,1,1,3,1,1,1,1,1,1,1,1,3,3,3,3,3,3,3,3,3,3,3,3,2,2,2,2,2,2,2,2,2,2,3,3,3,3,3,3,3,3,3,3,1,1,1,1,1,1,1,3,3,3,3,3,3,3,3,
3,3,1,1,1,1,1,1,3,3,3,3,3,3,3,3,3,3,3,3,3,3,3,3,3,3,3,3,3,3,3,3,3,1,1,1,1,1,1,1,3,3,3,1,1,1,1,1,1,3,3,3,3,3,3,3,3,3,3,3,3,2,2,2,2,2,2,2,2,2,3,3,3,3,3,3,3,3,3,3,3,1,1,1,1,1,1,1,3,3,3,3,3,3,3,3,
3,3,1,1,1,1,1,1,3,3,3,3,3,3,3,3,3,3,3,3,3,3,3,3,3,3,3,3,3,3,3,3,3,2,2,2,2,1,1,3,3,3,3,1,1,1,1,1,1,1,3,3,3,3,3,3,3,3,3,3,3,2,2,2,2,2,2,2,2,2,3,3,3,3,3,3,3,3,3,3,3,1,1,1,1,1,1,1,3,3,3,3,3,3,3,3,
3,3,1,1,1,1,1,1,6,3,3,3,3,3,3,3,3,3,3,3,3,3,3,3,3,3,3,3,3,3,3,3,2,2,2,2,2,2,2,3,3,3,3,3,1,1,1,1,1,1,1,1,3,3,3,3,3,3,3,3,3,3,2,2,2,2,2,2,2,3,3,3,3,3,3,3,3,3,3,3,3,1,1,1,1,1,1,3,3,3,3,3,3,3,3,3,
3,3,1,1,1,1,1,1,1,3,3,3,3,3,3,3,3,3,3,3,3,3,3,3,3,3,3,3,3,3,3,3,2,2,2,2,2,2,2,2,3,3,3,3,3,1,1,1,1,1,1,1,1,3,3,3,3,3,3,3,3,3,3,2,2,2,2,2,3,3,3,3,3,3,3,3,3,3,3,3,3,6,6,6,1,1,1,3,3,3,3,3,3,3,3,3,
3,3,1,1,1,1,1,1,1,1,3,3,3,3,3,3,3,3,3,3,3,3,3,3,3,3,3,3,3,3,3,2,2,2,2,2,2,2,2,2,3,3,3,3,3,3,1,1,1,1,1,1,1,1,3,3,3,3,3,3,3,3,3,3,3,2,3,3,3,3,3,3,3,3,3,3,3,3,3,3,3,6,6,6,1,1,1,1,3,3,3,3,3,3,3,3,
3,3,3,1,1,1,1,1,1,1,3,3,3,3,3,3,3,3,3,3,3,3,3,3,3,3,3,3,3,3,3,2,2,2,2,2,2,2,2,2,3,3,3,3,3,3,3,1,1,1,1,1,1,1,3,3,3,3,3,3,3,3,3,3,3,3,3,3,3,3,3,3,3,3,3,3,3,3,3,3,3,6,6,6,1,1,1,1,3,3,3,3,3,3,3,3,
3,3,3,3,1,1,1,1,1,1,1,3,3,3,3,3,3,3,3,3,3,3,3,3,3,3,3,3,3,3,3,2,2,2,2,2,2,2,2,3,3,3,3,3,3,3,3,3,1,1,1,1,1,1,1,3,3,3,3,3,3,3,3,3,3,3,3,3,3,3,3,3,3,3,3,3,3,3,3,3,3,1,1,1,1,1,1,1,3,3,3,3,3,3,3,3,
3,3,3,3,1,1,1,1,1,1,1,3,3,3,3,3,3,3,3,3,3,3,3,3,3,3,3,3,3,3,3,3,2,2,2,2,2,2,2,3,3,3,3,3,3,3,3,3,1,1,1,1,1,1,1,1,3,3,3,3,3,3,3,3,3,3,3,3,3,3,3,3,3,3,3,3,3,3,3,3,3,1,1,1,1,1,1,1,3,3,3,3,3,3,3,3,
3,3,3,3,3,1,1,1,1,1,1,3,3,3,3,3,3,3,3,3,3,3,3,3,3,3,3,3,3,3,3,3,1,2,2,2,2,2,2,3,3,3,3,3,3,3,3,3,3,1,1,1,1,1,1,1,1,3,3,3,3,3,3,3,3,3,3,3,3,3,3,3,3,3,3,3,3,3,3,3,3,1,1,1,1,1,1,1,3,3,3,3,3,3,3,3,
3,3,3,3,3,1,1,1,1,1,1,3,3,3,3,3,3,3,3,3,3,3,3,3,3,3,3,3,3,3,3,3,1,1,2,2,2,1,3,3,3,3,3,3,3,3,3,3,3,3,1,1,1,1,1,1,1,1,3,3,3,3,3,3,3,3,3,3,3,3,3,3,3,3,3,3,3,3,3,3,1,6,1,1,1,1,1,3,3,3,3,3,3,3,3,3,
3,3,3,3,3,1,1,1,1,1,1,1,3,3,3,3,3,3,3,3,3,3,3,3,3,3,3,3,3,3,3,1,1,1,1,1,1,3,3,3,3,3,3,3,3,3,3,3,3,3,3,3,1,1,1,1,1,1,6,3,3,3,3,3,3,3,3,3,3,3,3,3,3,3,3,3,3,3,3,3,1,1,1,1,1,1,1,3,3,3,3,3,3,3,3,3,
3,3,3,3,3,3,1,1,1,1,1,1,1,1,3,3,3,3,3,3,3,3,3,3,3,3,3,3,3,3,3,1,1,1,1,1,1,3,3,3,3,3,3,3,3,3,3,3,3,3,3,3,3,1,1,1,1,1,1,1,3,3,3,3,3,3,3,3,3,3,3,3,3,3,3,3,3,3,3,2,2,2,2,1,1,1,3,3,3,3,3,3,3,3,3,3,
3,3,3,3,3,3,1,1,1,1,1,1,1,1,1,1,3,3,3,3,3,3,3,3,3,3,3,3,3,3,3,1,1,1,1,1,1,3,3,3,3,3,3,3,3,3,3,3,3,3,3,3,3,1,1,1,1,1,1,1,1,3,3,3,3,3,3,3,3,3,3,3,3,3,3,3,3,3,2,2,2,2,2,2,2,1,3,3,3,3,3,3,3,3,3,3,
3,3,3,3,3,3,1,1,1,1,1,1,6,1,1,1,1,3,3,3,3,3,3,3,3,3,3,3,3,3,3,1,1,1,1,1,1,3,3,3,3,3,3,3,3,3,3,3,3,3,3,3,3,3,1,1,1,1,1,1,1,1,3,3,3,3,3,3,3,3,3,3,3,3,3,3,3,2,2,2,2,2,2,2,2,2,3,3,3,3,3,3,3,3,3,3,
3,3,3,3,3,3,1,1,1,1,1,1,1,1,1,1,1,3,3,3,3,3,3,3,3,3,3,3,3,3,1,1,1,1,1,1,3,3,3,3,3,3,3,3,3,3,3,3,3,3,3,3,3,3,1,1,1,1,1,1,1,1,1,1,1,3,3,3,3,3,3,3,3,3,3,1,1,2,2,2,2,2,2,2,2,2,3,3,3,3,3,3,3,3,3,3,
3,3,3,3,3,1,1,1,1,1,1,1,1,1,1,1,1,1,3,3,3,3,3,3,3,3,3,3,3,3,1,1,1,1,1,1,3,3,3,3,3,3,3,3,3,3,3,3,3,3,3,3,3,3,3,3,1,1,1,1,1,1,1,1,1,1,1,1,1,6,6,6,1,1,1,6,1,2,2,2,2,2,2,2,2,2,3,3,3,3,3,3,3,3,3,3,
3,3,3,3,3,1,1,1,1,1,1,1,1,1,1,1,1,1,1,3,3,3,3,3,3,3,3,3,3,3,6,1,1,1,1,1,3,3,3,3,3,3,3,3,3,3,3,3,3,3,3,3,3,3,3,3,3,1,1,1,1,1,1,1,1,1,1,1,1,6,6,6,1,1,1,1,1,2,2,2,2,2,2,2,2,2,3,3,3,3,3,3,3,3,3,3,
3,3,3,3,3,1,1,1,1,1,1,1,1,1,1,1,1,1,1,1,1,3,3,3,3,3,3,3,3,3,1,1,1,1,1,1,3,3,3,3,3,3,3,3,3,3,3,3,3,3,3,3,3,3,3,3,1,1,1,1,1,1,1,1,1,1,1,1,1,6,6,6,1,1,1,1,1,1,2,2,2,2,2,2,2,3,3,3,3,3,3,3,3,3,3,3,
3,3,3,3,3,1,1,1,1,1,1,1,1,1,1,1,1,1,1,1,1,1,1,1,1,1,3,3,3,3,1,1,1,1,1,3,3,3,3,3,3,3,3,3,3,3,3,3,3,3,3,3,1,1,1,1,1,1,1,1,1,1,1,1,1,1,1,1,1,1,1,1,1,1,1,1,1,1,2,2,2,2,2,2,3,3,3,3,3,3,3,3,3,3,3,3,
3,3,3,3,3,1,1,1,1,1,1,1,1,1,1,1,1,1,1,1,1,1,1,1,6,1,1,3,3,3,1,1,1,1,1,3,3,3,3,3,3,3,3,3,3,3,3,6,6,6,1,1,1,1,1,1,1,1,1,1,1,1,1,1,1,1,1,1,1,1,1,1,1,1,1,1,1,1,1,2,2,2,2,3,3,3,3,3,3,3,3,3,3,3,3,3,
3,3,3,3,3,3,1,1,1,1,1,1,1,1,1,1,1,1,1,1,1,1,1,1,1,1,1,1,1,1,1,1,1,1,1,3,3,3,3,3,3,3,3,3,3,1,1,6,6,6,1,1,1,1,1,1,1,1,1,1,1,1,1,1,1,1,1,1,1,1,1,1,1,1,1,1,1,3,3,3,3,3,3,3,3,3,3,3,3,3,3,3,3,3,3,3,
3,3,3,3,3,3,1,1,1,1,1,1,1,1,1,1,1,1,1,1,1,1,1,1,1,1,1,1,1,1,1,1,1,1,1,1,1,1,1,1,6,1,1,1,1,1,1,6,6,6,1,1,1,1,1,1,1,1,1,1,1,1,1,1,1,1,1,1,3,3,1,1,1,1,1,3,3,3,3,3,3,3,3,3,3,3,3,3,3,3,3,3,3,3,3,3,
3,3,3,3,3,3,3,1,1,1,1,1,1,1,1,1,1,1,1,1,1,1,1,1,1,1,1,1,1,1,1,1,1,1,1,1,1,1,1,1,1,1,1,1,1,1,1,1,1,1,1,1,1,1,1,1,1,1,1,1,1,1,1,1,1,3,3,3,3,3,3,3,3,3,3,3,3,3,3,3,3,3,3,3,3,3,3,3,3,3,3,3,3,3,3,3,
3,3,3,3,3,3,3,3,3,1,1,1,1,1,3,3,3,3,3,3,3,1,1,1,1,1,1,1,1,1,1,1,1,1,1,1,1,1,1,1,1,1,1,1,1,1,1,1,1,1,1,1,1,1,1,1,1,1,3,3,3,3,3,3,3,3,3,3,3,3,3,3,3,3,3,3,3,3,3,3,3,3,3,3,3,3,3,3,3,3,3,3,3,3,3,3,
3,3,3,3,3,3,3,3,3,3,3,3,3,3,3,3,3,3,3,3,3,3,1,1,1,1,1,1,1,1,1,1,1,1,1,1,1,1,1,1,1,1,1,1,1,1,1,1,1,1,1,1,1,1,3,3,3,3,3,3,3,3,3,3,3,3,3,3,3,3,3,3,3,3,3,3,3,3,3,3,3,3,3,3,3,3,3,3,3,3,3,3,3,3,3,3,
3,3,3,3,3,3,3,3,3,3,3,3,3,3,3,3,3,3,3,3,3,3,3,3,3,3,3,1,1,1,1,1,6,6,1,1,1,1,1,1,1,1,1,1,1,1,1,1,1,1,1,1,3,3,3,3,3,3,3,3,3,3,3,3,3,3,3,3,3,3,3,3,3,3,3,3,3,3,3,3,3,3,3,3,3,3,3,3,3,3,3,3,3,3,3,3,
3,3,3,3,3,3,3,3,3,3,3,3,3,3,3,3,3,3,3,3,3,3,3,3,3,3,3,3,1,1,1,1,6,6,1,1,1,1,1,1,1,1,1,1,1,1,1,1,1,1,3,3,3,3,3,3,3,3,3,3,3,3,3,3,3,3,3,3,3,3,3,3,3,3,3,3,3,3,3,3,3,3,3,3,3,3,3,3,3,3,3,3,3,3,3,3,
3,3,3,3,3,3,3,3,3,3,3,3,3,3,3,3,3,3,3,3,3,3,3,3,3,3,3,3,3,3,3,3,3,3,3,3,3,3,3,3,3,1,1,1,1,1,3,3,3,3,3,3,3,3,3,3,3,3,3,3,3,3,3,3,3,3,3,3,3,3,3,3,3,3,3,3,3,3,3,3,3,3,3,3,3,3,3,3,3,3,3,3,3,3,3,3,
3,3,3,3,3,3,3,3,3,3,3,3,3,3,3,3,3,3,3,3,3,3,3,3,3,3,3,3,3,3,3,3,3,3,3,3,3,3,3,3,3,3,3,3,3,3,3,3,3,3,3,3,3,3,3,3,3,3,3,3,3,3,3,3,3,3,3,3,3,3,3,3,3,3,3,3,3,3,3,3,3,3,3,3,3,3,3,3,3,3,3,3,3,3,3,3,
3,3,3,3,3,3,3,3,3,3,3,3,3,3,3,3,3,3,3,3,3,3,3,3,3,3,3,3,3,3,3,3,3,3,3,3,3,3,3,3,3,3,3,3,3,3,3,3,3,3,3,3,3,3,3,3,3,3,3,3,3,3,3,3,3,3,3,3,3,3,3,3,3,3,3,3,3,3,3,3,3,3,3,3,3,3,3,3,3,3,3,3,3,3,3,3
</data>
 </layer>
 <objectgroup draworder="index" id="6" name="estructuras">
  <object id="1" name="base_jugador" gid="32" x="352" y="2668.8" width="256" height="248"/>
  <object id="2" name="base_enemiga" gid="33" x="2656" y="364.8" width="256" height="248"/>
  <object id="3" name="pilar" gid="34" x="1544" y="1544" width="128" height="184"/>
  <object id="4" name="escudo" gid="35" x="1549.12" y="1549.12" width="208" height="208"/>
  <object id="5" name="pronexo" gid="36" x="342.08" y="1046.08" width="96" height="112"/>
  <object id="6" name="pronexo" gid="36" x="1046.08" y="342.08" width="96" height="112"/>
  <object id="7" name="pronexo" gid="36" x="2006.08" y="2710.08" width="96" height="112"/>
  <object id="8" name="pronexo" gid="36" x="2710.08" y="2006.08" width="96" height="112"/>
  <object id="9" name="recurso" gid="38" x="158.08" y="1630.08" width="64" height="72"/>
  <object id="10" name="recurso" gid="38" x="1630.08" y="158.08" width="64" height="72"/>
  <object id="11" name="recurso" gid="38" x="1438.08" y="2910.08" width="64" height="72"/>
  <object id="12" name="recurso" gid="38" x="2910.08" y="1438.08" width="64" height="72"/>
  <object id="13" name="recurso" gid="38" x="446.08" y="1022.08" width="64" height="72"/>
  <object id="14" name="recurso" gid="38" x="1022.08" y="446.08" width="64" height="72"/>
  <object id="15" name="recurso" gid="38" x="2110.08" y="2750.08" width="64" height="72"/>
  <object id="16" name="recurso" gid="38" x="2750.08" y="2110.08" width="64" height="72"/>
  <object id="17" name="recurso" gid="38" x="1246.08" y="1854.08" width="64" height="72"/>
  <object id="18" name="recurso" gid="38" x="1854.08" y="1246.08" width="64" height="72"/>
  <object id="19" name="agujero" gid="37" x="465.92" y="465.92" width="112" height="112"/>
  <object id="20" name="agujero" gid="37" x="977.92" y="977.92" width="112" height="112"/>
  <object id="21" name="agujero" gid="37" x="2641.92" y="2641.92" width="112" height="112"/>
  <object id="22" name="agujero" gid="37" x="2129.92" y="2129.92" width="112" height="112"/>
  <object id="23" name="torre_vigilancia" gid="47" x="528" y="2768" width="80" height="128"/>
  <object id="24" name="torre_vigilancia" gid="47" x="2768" y="528" width="80" height="128"/>
  <object id="25" name="estacion_rota" gid="42" x="592" y="2448" width="224" height="176"/>
  <object id="26" name="estacion_rota" gid="42" x="2448" y="592" width="224" height="176"/>
  <object id="27" name="restos_nave" gid="41" x="592" y="1680" width="231" height="106"/>
  <object id="28" name="restos_nave" gid="41" x="1680" y="592" width="231" height="106"/>
  <object id="29" name="nave_destruida_2" gid="40" x="624" y="880" width="239" height="105"/>
  <object id="30" name="nave_destruida_2" gid="40" x="880" y="624" width="239" height="105"/>
  <object id="31" name="cristales" gid="44" x="48" y="2608" width="96" height="112"/>
  <object id="32" name="cristales" gid="44" x="2608" y="48" width="96" height="112"/>
  <object id="33" name="satelite" gid="43" x="1552" y="2512" width="72" height="72"/>
  <object id="34" name="satelite" gid="43" x="2512" y="1552" width="72" height="72"/>
  <object id="35" name="restos_nave" gid="41" x="2128" y="2448" width="231" height="106"/>
  <object id="36" name="restos_nave" gid="41" x="2448" y="2128" width="231" height="106"/>
  <object id="37" name="antena_larga_1" gid="122" x="281.25" y="2212.28" width="70" height="167"/>
  <object id="38" name="antena_larga_1" gid="122" x="2212.28" y="281.25" width="70" height="167"/>
  <object id="39" name="antena_plato_1" gid="126" x="64" y="2009.6" width="76" height="110"/>
  <object id="40" name="antena_plato_1" gid="126" x="2009.6" y="64" width="76" height="110"/>
  <object id="41" name="satelite_baliza" gid="131" x="335.59" y="1379.06" width="164" height="112"/>
  <object id="42" name="satelite_baliza" gid="131" x="1379.06" y="335.59" width="164" height="112"/>
  <object id="43" name="antena_multipolar_2" gid="130" x="432" y="809.6" width="105" height="132"/>
  <object id="44" name="antena_multipolar_2" gid="130" x="809.6" y="432" width="105" height="132"/>
  <object id="45" name="satelite_dorsal" gid="121" x="448.71" y="667.73" width="227" height="132"/>
  <object id="46" name="satelite_dorsal" gid="121" x="667.73" y="448.71" width="227" height="132"/>
  <object id="47" name="antena_plato_2" gid="127" x="415.65" y="2538.68" width="82" height="125"/>
  <object id="48" name="antena_plato_2" gid="127" x="2538.68" y="415.65" width="82" height="125"/>
  <object id="49" name="antena_larga_3" gid="124" x="809.13" y="2731" width="66" height="166"/>
  <object id="50" name="antena_larga_3" gid="124" x="2731" y="809.13" width="66" height="166"/>
  <object id="51" name="antena_multipolar_1" gid="129" x="1078.09" y="2967.83" width="172" height="166"/>
  <object id="52" name="antena_multipolar_1" gid="129" x="2967.83" y="1078.09" width="172" height="166"/>
  <object id="53" name="antena_larga_4" gid="125" x="1319.56" y="2808.2" width="69" height="169"/>
  <object id="54" name="antena_larga_4" gid="125" x="2808.2" y="1319.56" width="69" height="169"/>
  <object id="55" name="satelite_frontal" gid="120" x="1574.54" y="2810.01" width="221" height="148"/>
  <object id="56" name="satelite_frontal" gid="120" x="2810.01" y="1574.54" width="221" height="148"/>
  <object id="57" name="satelite_2" gid="119" x="2278.4" y="2662.4" width="216" height="147"/>
  <object id="58" name="satelite_2" gid="119" x="2662.4" y="2278.4" width="216" height="147"/>
  <object id="59" name="antena_plato_3" gid="128" x="2414.3" y="2607.24" width="71" height="110"/>
  <object id="60" name="antena_plato_3" gid="128" x="2607.24" y="2414.3" width="71" height="110"/>
  <object id="61" name="antena_plato_2" gid="127" x="635.38" y="1213.25" width="82" height="125"/>
  <object id="62" name="antena_plato_2" gid="127" x="1213.25" y="635.38" width="82" height="125"/>
  <object id="63" name="antena_larga_2" gid="123" x="917.18" y="1468.09" width="64" height="169"/>
  <object id="64" name="antena_larga_2" gid="123" x="1468.09" y="917.18" width="64" height="169"/>
  <object id="65" name="antena_larga_2" gid="123" x="1865.95" y="2445.42" width="64" height="169"/>
  <object id="66" name="antena_larga_2" gid="123" x="2445.42" y="1865.95" width="64" height="169"/>
  <object id="67" name="antena_larga_4" gid="125" x="1320.89" y="2062.78" width="69" height="169"/>
  <object id="68" name="antena_larga_4" gid="125" x="2062.78" y="1320.89" width="69" height="169"/>
  <object id="69" name="antena_multipolar_2" gid="130" x="1130.67" y="2016.29" width="105" height="132"/>
  <object id="70" name="antena_multipolar_2" gid="130" x="2016.29" y="1130.67" width="105" height="132"/>
  <object id="71" name="antena_plato_3" gid="128" x="989.17" y="2633.93" width="71" height="110"/>
  <object id="72" name="antena_plato_3" gid="128" x="2633.93" y="989.17" width="71" height="110"/>
 </objectgroup>
 <objectgroup draworder="index" id="7" name="objetos">
  <object id="73" name="" type="spawn" x="362.56" y="2656">
   <properties>
    <property name="owner" type="int" value="1"/>
   </properties>
   <point/>
  </object>
  <object id="74" name="" type="spawn" x="2666.56" y="352">
   <properties>
    <property name="owner" type="int" value="2"/>
   </properties>
   <point/>
  </object>
  <object id="75" name="" type="pilar" x="1536" y="1536">
   <point/>
  </object>
  <object id="76" name="" type="barrera" x="1536" y="1536">
   <properties>
    <property name="hp" type="int" value="500"/>
   </properties>
   <point/>
  </object>
  <object id="77" name="" type="pronexo" x="336" y="1040">
   <properties>
    <property name="index" type="int" value="1"/>
    <property name="radio" type="int" value="3"/>
   </properties>
   <point/>
  </object>
  <object id="78" name="" type="pronexo" x="1040" y="336">
   <properties>
    <property name="index" type="int" value="2"/>
    <property name="radio" type="int" value="3"/>
   </properties>
   <point/>
  </object>
  <object id="79" name="" type="pronexo" x="2000" y="2704">
   <properties>
    <property name="index" type="int" value="3"/>
    <property name="radio" type="int" value="3"/>
   </properties>
   <point/>
  </object>
  <object id="80" name="" type="pronexo" x="2704" y="2000">
   <properties>
    <property name="index" type="int" value="4"/>
    <property name="radio" type="int" value="3"/>
   </properties>
   <point/>
  </object>
  <object id="81" name="" type="agujero" x="432" y="432">
   <properties>
    <property name="cycleSeconds" type="int" value="90"/>
    <property name="openSeconds" type="int" value="30"/>
    <property name="pairId" value="A"/>
    <property name="warningSeconds" type="int" value="5"/>
   </properties>
   <point/>
  </object>
  <object id="82" name="" type="agujero" x="944" y="944">
   <properties>
    <property name="cycleSeconds" type="int" value="90"/>
    <property name="openSeconds" type="int" value="30"/>
    <property name="pairId" value="A"/>
    <property name="warningSeconds" type="int" value="5"/>
   </properties>
   <point/>
  </object>
  <object id="83" name="" type="agujero" x="2608" y="2608">
   <properties>
    <property name="cycleSeconds" type="int" value="90"/>
    <property name="openSeconds" type="int" value="30"/>
    <property name="pairId" value="B"/>
    <property name="warningSeconds" type="int" value="5"/>
   </properties>
   <point/>
  </object>
  <object id="84" name="" type="agujero" x="2096" y="2096">
   <properties>
    <property name="cycleSeconds" type="int" value="90"/>
    <property name="openSeconds" type="int" value="30"/>
    <property name="pairId" value="B"/>
    <property name="warningSeconds" type="int" value="5"/>
   </properties>
   <point/>
  </object>
  <object id="85" name="" type="recurso" x="144" y="1616">
   <properties>
    <property name="amount" type="int" value="300"/>
   </properties>
   <point/>
  </object>
  <object id="86" name="" type="recurso" x="1616" y="144">
   <properties>
    <property name="amount" type="int" value="300"/>
   </properties>
   <point/>
  </object>
  <object id="87" name="" type="recurso" x="1424" y="2896">
   <properties>
    <property name="amount" type="int" value="300"/>
   </properties>
   <point/>
  </object>
  <object id="88" name="" type="recurso" x="2896" y="1424">
   <properties>
    <property name="amount" type="int" value="300"/>
   </properties>
   <point/>
  </object>
  <object id="89" name="" type="recurso" x="432" y="1008">
   <properties>
    <property name="amount" type="int" value="300"/>
   </properties>
   <point/>
  </object>
  <object id="90" name="" type="recurso" x="1008" y="432">
   <properties>
    <property name="amount" type="int" value="300"/>
   </properties>
   <point/>
  </object>
  <object id="91" name="" type="recurso" x="2096" y="2736">
   <properties>
    <property name="amount" type="int" value="300"/>
   </properties>
   <point/>
  </object>
  <object id="92" name="" type="recurso" x="2736" y="2096">
   <properties>
    <property name="amount" type="int" value="300"/>
   </properties>
   <point/>
  </object>
  <object id="93" name="" type="recurso" x="1232" y="1840">
   <properties>
    <property name="amount" type="int" value="300"/>
   </properties>
   <point/>
  </object>
  <object id="94" name="" type="recurso" x="1840" y="1232">
   <properties>
    <property name="amount" type="int" value="300"/>
   </properties>
   <point/>
  </object>
  <object id="95" name="" type="mob_spawn" x="1424" y="1648">
   <properties>
    <property name="count" type="int" value="3"/>
   </properties>
   <point/>
  </object>
  <object id="96" name="" type="mob_spawn" x="1648" y="1424">
   <properties>
    <property name="count" type="int" value="3"/>
   </properties>
   <point/>
  </object>
  <object id="97" name="" type="mob_spawn" x="1424" y="1424">
   <properties>
    <property name="count" type="int" value="3"/>
   </properties>
   <point/>
  </object>
  <object id="98" name="" type="mob_spawn" x="1680" y="1680">
   <properties>
    <property name="count" type="int" value="3"/>
   </properties>
   <point/>
  </object>
  <object id="99" name="" type="torre_vigilancia" x="528" y="2768">
   <properties>
    <property name="visionRadius" type="int" value="10"/>
   </properties>
   <point/>
  </object>
  <object id="100" name="" type="torre_vigilancia" x="2768" y="528">
   <properties>
    <property name="visionRadius" type="int" value="10"/>
   </properties>
   <point/>
  </object>
  <object id="101" name="" type="zona" x="368" y="2672">
   <properties>
    <property name="nombre" value="Base Azul"/>
   </properties>
   <point/>
  </object>
  <object id="102" name="" type="zona" x="2672" y="368">
   <properties>
    <property name="nombre" value="Base Roja"/>
   </properties>
   <point/>
  </object>
  <object id="103" name="" type="zona" x="1552" y="1552">
   <properties>
    <property name="nombre" value="Núcleo"/>
   </properties>
   <point/>
  </object>
  <object id="104" name="" type="zona" x="432" y="432">
   <properties>
    <property name="nombre" value="Portal Norte"/>
   </properties>
   <point/>
  </object>
  <object id="105" name="" type="zona" x="2608" y="2608">
   <properties>
    <property name="nombre" value="Portal Sur"/>
   </properties>
   <point/>
  </object>
  <object id="106" name="" type="zona" x="944" y="944">
   <properties>
    <property name="nombre" value="Bolsa Norte"/>
   </properties>
   <point/>
  </object>
  <object id="107" name="" type="zona" x="2096" y="2096">
   <properties>
    <property name="nombre" value="Bolsa Sur"/>
   </properties>
   <point/>
  </object>
  <object id="108" name="" type="zona" x="1136" y="2288">
   <properties>
    <property name="nombre" value="Nebulosa Oeste"/>
   </properties>
   <point/>
  </object>
  <object id="109" name="" type="zona" x="2288" y="1136">
   <properties>
    <property name="nombre" value="Nebulosa Este"/>
   </properties>
   <point/>
  </object>
  <object id="110" name="" type="zona" x="1232" y="1840">
   <properties>
    <property name="nombre" value="Cruce Oeste"/>
   </properties>
   <point/>
  </object>
  <object id="111" name="" type="zona" x="1840" y="1232">
   <properties>
    <property name="nombre" value="Cruce Este"/>
   </properties>
   <point/>
  </object>
  <object id="112" name="Punto Obstaculo" type="OBSTACLE_RING" x="256" y="1872">
   <properties>
    <property name="modelo" value="nave_destruida_2"/>
   </properties>
   <point/>
  </object>
  <object id="113" name="Punto Obstaculo" type="OBSTACLE_RING" x="1872" y="256">
   <properties>
    <property name="modelo" value="nave_destruida_2"/>
   </properties>
   <point/>
  </object>
  <object id="114" name="Punto Obstaculo" type="OBSTACLE_RING" x="1191.45" y="2768.25">
   <properties>
    <property name="modelo" value="estacion_rota"/>
   </properties>
   <point/>
  </object>
  <object id="115" name="Punto Obstaculo" type="OBSTACLE_RING" x="2768.25" y="1191.45">
   <properties>
    <property name="modelo" value="estacion_rota"/>
   </properties>
   <point/>
  </object>
  <object id="116" name="Punto Obstaculo" type="OBSTACLE_RING" x="224" y="886.4">
   <properties>
    <property name="modelo" value="cristales"/>
   </properties>
   <point/>
  </object>
  <object id="117" name="Punto Obstaculo" type="OBSTACLE_RING" x="886.4" y="224">
   <properties>
    <property name="modelo" value="cristales"/>
   </properties>
   <point/>
  </object>
  <object id="118" name="Punto Obstaculo" type="OBSTACLE_RING" x="2153.6" y="2816">
   <properties>
    <property name="modelo" value="satelite"/>
   </properties>
   <point/>
  </object>
  <object id="119" name="Punto Obstaculo" type="OBSTACLE_RING" x="2816" y="2153.6">
   <properties>
    <property name="modelo" value="satelite"/>
   </properties>
   <point/>
  </object>
  <object id="120" name="Punto Obstaculo" type="OBSTACLE_RING" x="190.27" y="2458.88">
   <properties>
    <property name="modelo" value="nave_destruida_1"/>
   </properties>
   <point/>
  </object>
  <object id="121" name="Punto Obstaculo" type="OBSTACLE_RING" x="2458.88" y="190.27">
   <properties>
    <property name="modelo" value="nave_destruida_1"/>
   </properties>
   <point/>
  </object>
  <object id="122" name="Punto Obstaculo" type="OBSTACLE_RING" x="1154.67" y="2577.11">
   <properties>
    <property name="modelo" value="nave_destruida_2"/>
   </properties>
   <point/>
  </object>
  <object id="123" name="Punto Obstaculo" type="OBSTACLE_RING" x="2577.11" y="1154.67">
   <properties>
    <property name="modelo" value="nave_destruida_2"/>
   </properties>
   <point/>
  </object>
  <object id="124" name="Punto Obstaculo" type="OBSTACLE_RING" x="921.7" y="1668.68">
   <properties>
    <property name="modelo" value="estacion_rota"/>
   </properties>
   <point/>
  </object>
  <object id="125" name="Punto Obstaculo" type="OBSTACLE_RING" x="1668.68" y="921.7">
   <properties>
    <property name="modelo" value="estacion_rota"/>
   </properties>
   <point/>
  </object>
  <object id="126" name="Punto Obstaculo" type="OBSTACLE_RING" x="1767.11" y="2869.33">
   <properties>
    <property name="modelo" value="nave_destruida_1"/>
   </properties>
   <point/>
  </object>
  <object id="127" name="Punto Obstaculo" type="OBSTACLE_RING" x="2869.33" y="1767.11">
   <properties>
    <property name="modelo" value="nave_destruida_1"/>
   </properties>
   <point/>
  </object>
  <object id="128" name="Punto Obstaculo" type="OBSTACLE_RING" x="57.6" y="1692.8">
   <properties>
    <property name="modelo" value="nave_destruida_2"/>
   </properties>
   <point/>
  </object>
  <object id="129" name="Punto Obstaculo" type="OBSTACLE_RING" x="1692.8" y="57.6">
   <properties>
    <property name="modelo" value="nave_destruida_2"/>
   </properties>
   <point/>
  </object>
  <object id="130" name="Punto Obstaculo" type="OBSTACLE_RING" x="87.8" y="1501.27">
   <properties>
    <property name="modelo" value="estacion_rota"/>
   </properties>
   <point/>
  </object>
  <object id="131" name="Punto Obstaculo" type="OBSTACLE_RING" x="1501.27" y="87.8">
   <properties>
    <property name="modelo" value="estacion_rota"/>
   </properties>
   <point/>
  </object>
 </objectgroup>
 <objectgroup draworder="index" id="8" name="robots">
  <object id="132" name="robot_capsula" gid="61" x="1392" y="1616" width="72" height="80"/>
  <object id="133" name="robot_capsula" gid="61" x="1616" y="1392" width="72" height="80"/>
  <object id="134" name="robot_capsula" gid="61" x="1424" y="1424" width="72" height="80"/>
  <object id="135" name="robotsitoo" gid="53" x="1264" y="1744" width="64" height="64"/>
  <object id="136" name="robotsitoo" gid="53" x="1744" y="1264" width="64" height="64"/>
 </objectgroup>
 <objectgroup draworder="index" id="9" name="eventos" color="#ff5a3c">
  <object id="137" name="caida_norte" type="zona_caida" x="416" y="416" width="224" height="224">
   <properties>
    <property name="amount" type="int" value="1"/>
    <property name="damage" type="int" value="40"/>
    <property name="intervalSeconds" type="int" value="45"/>
    <property name="objeto" value="satelite"/>
    <property name="radius" type="int" value="1"/>
    <property name="warningSeconds" type="int" value="4"/>
    <property name="grupo" type="int" value="1"/>
   </properties>
  </object>
  <object id="138" name="caida_sur" type="zona_caida" x="2400" y="2400" width="224" height="224">
   <properties>
    <property name="amount" type="int" value="1"/>
    <property name="damage" type="int" value="40"/>
    <property name="intervalSeconds" type="int" value="45"/>
    <property name="objeto" value="satelite"/>
    <property name="radius" type="int" value="1"/>
    <property name="warningSeconds" type="int" value="4"/>
    <property name="grupo" type="int" value="1"/>
   </properties>
  </object>
  <object id="139" name="caida_oeste" type="zona_caida" x="1120" y="1728" width="224" height="224">
   <properties>
    <property name="amount" type="int" value="1"/>
    <property name="damage" type="int" value="40"/>
    <property name="intervalSeconds" type="int" value="45"/>
    <property name="objeto" value="satelite"/>
    <property name="radius" type="int" value="1"/>
    <property name="warningSeconds" type="int" value="4"/>
    <property name="grupo" type="int" value="1"/>
   </properties>
  </object>
  <object id="140" name="caida_este" type="zona_caida" x="1728" y="1120" width="224" height="224">
   <properties>
    <property name="amount" type="int" value="1"/>
    <property name="damage" type="int" value="40"/>
    <property name="intervalSeconds" type="int" value="45"/>
    <property name="objeto" value="satelite"/>
    <property name="radius" type="int" value="1"/>
    <property name="warningSeconds" type="int" value="4"/>
    <property name="grupo" type="int" value="1"/>
   </properties>
  </object>
  <object id="141" name="caida_noroeste" type="zona_caida" x="672" y="1344" width="224" height="224">
   <properties>
    <property name="amount" type="int" value="1"/>
    <property name="damage" type="int" value="40"/>
    <property name="intervalSeconds" type="int" value="45"/>
    <property name="objeto" value="satelite"/>
    <property name="radius" type="int" value="1"/>
    <property name="warningSeconds" type="int" value="4"/>
    <property name="grupo" type="int" value="2"/>
   </properties>
  </object>
  <object id="142" name="caida_noreste" type="zona_caida" x="1344" y="672" width="224" height="224">
   <properties>
    <property name="amount" type="int" value="1"/>
    <property name="damage" type="int" value="40"/>
    <property name="intervalSeconds" type="int" value="45"/>
    <property name="objeto" value="satelite"/>
    <property name="radius" type="int" value="1"/>
    <property name="warningSeconds" type="int" value="4"/>
    <property name="grupo" type="int" value="2"/>
   </properties>
  </object>
  <object id="143" name="caida_suroeste" type="zona_caida" x="1504" y="2176" width="224" height="224">
   <properties>
    <property name="amount" type="int" value="1"/>
    <property name="damage" type="int" value="40"/>
    <property name="intervalSeconds" type="int" value="45"/>
    <property name="objeto" value="satelite"/>
    <property name="radius" type="int" value="1"/>
    <property name="warningSeconds" type="int" value="4"/>
    <property name="grupo" type="int" value="2"/>
   </properties>
  </object>
  <object id="144" name="caida_sureste" type="zona_caida" x="2176" y="1504" width="224" height="224">
   <properties>
    <property name="amount" type="int" value="1"/>
    <property name="damage" type="int" value="40"/>
    <property name="intervalSeconds" type="int" value="45"/>
    <property name="objeto" value="satelite"/>
    <property name="radius" type="int" value="1"/>
    <property name="warningSeconds" type="int" value="4"/>
    <property name="grupo" type="int" value="2"/>
   </properties>
  </object>
  <object id="145" name="niebla_norte" type="niebla_movil" x="320" y="320" width="192" height="192">
   <properties>
    <property name="maxCells" type="int" value="13"/>
    <property name="cellsPerSecond" type="float" value="1.25"/>
    <property name="warningSeconds" type="int" value="5"/>
    <property name="holdSeconds" type="int" value="6"/>
    <property name="restSeconds" type="int" value="20"/>
    <property name="startSeconds" type="int" value="40"/>
    <property name="slowFactor" type="int" value="2"/>
    <property name="visionRadius" type="int" value="2"/>
   </properties>
  </object>
  <object id="146" name="niebla_norte ruta 1" type="ruta_niebla" x="416" y="416">
   <properties>
    <property name="niebla" value="niebla_norte"/>
    <property name="orden" type="int" value="1"/>
   </properties>
   <polyline points="0,0 -80,240 -80,624"/>
  </object>
  <object id="147" name="niebla_norte ruta 2" type="ruta_niebla" x="416" y="416">
   <properties>
    <property name="niebla" value="niebla_norte"/>
    <property name="orden" type="int" value="2"/>
   </properties>
   <polyline points="0,0 240,-80 624,-80"/>
  </object>
  <object id="148" name="niebla_centro" type="niebla_movil" x="832" y="832" width="192" height="192">
   <properties>
    <property name="maxCells" type="int" value="13"/>
    <property name="cellsPerSecond" type="float" value="1.25"/>
    <property name="warningSeconds" type="int" value="5"/>
    <property name="holdSeconds" type="int" value="6"/>
    <property name="restSeconds" type="int" value="20"/>
    <property name="startSeconds" type="int" value="62"/>
    <property name="slowFactor" type="int" value="2"/>
    <property name="visionRadius" type="int" value="2"/>
   </properties>
  </object>
  <object id="149" name="niebla_centro ruta 1" type="ruta_niebla" x="928" y="928">
   <properties>
    <property name="niebla" value="niebla_centro"/>
    <property name="orden" type="int" value="1"/>
   </properties>
   <polyline points="0,0 512,-160"/>
  </object>
  <object id="150" name="niebla_centro ruta 2" type="ruta_niebla" x="928" y="928">
   <properties>
    <property name="niebla" value="niebla_centro"/>
    <property name="orden" type="int" value="2"/>
   </properties>
   <polyline points="0,0 -160,512"/>
  </object>
  <object id="151" name="niebla_sur" type="niebla_movil" x="2496" y="2496" width="192" height="192">
   <properties>
    <property name="maxCells" type="int" value="13"/>
    <property name="cellsPerSecond" type="float" value="1.25"/>
    <property name="warningSeconds" type="int" value="5"/>
    <property name="holdSeconds" type="int" value="6"/>
    <property name="restSeconds" type="int" value="20"/>
    <property name="startSeconds" type="int" value="84"/>
    <property name="slowFactor" type="int" value="2"/>
    <property name="visionRadius" type="int" value="2"/>
   </properties>
  </object>
  <object id="152" name="niebla_sur ruta 1" type="ruta_niebla" x="2592" y="2592">
   <properties>
    <property name="niebla" value="niebla_sur"/>
    <property name="orden" type="int" value="1"/>
   </properties>
   <polyline points="0,0 -208,112 -592,112"/>
  </object>
  <object id="153" name="niebla_sur ruta 2" type="ruta_niebla" x="2592" y="2592">
   <properties>
    <property name="niebla" value="niebla_sur"/>
    <property name="orden" type="int" value="2"/>
   </properties>
   <polyline points="0,0 112,-208 112,-592"/>
  </object>
 </objectgroup>
 <objectgroup id="11" name="obstaculos-vista" locked="1">
  <object id="154" name="nave_destruida_2" gid="40" x="285.4" y="1901.4" width="239" height="105"/>
  <object id="155" name="nave_destruida_2" gid="40" x="1901.4" y="285.4" width="239" height="105"/>
  <object id="156" name="estacion_rota" gid="42" x="1240.73" y="2817.53" width="224" height="176"/>
  <object id="157" name="estacion_rota" gid="42" x="2817.53" y="1240.73" width="224" height="176"/>
  <object id="158" name="cristales" gid="44" x="255.36" y="917.76" width="96" height="112"/>
  <object id="159" name="cristales" gid="44" x="917.76" y="255.36" width="96" height="112"/>
  <object id="160" name="satelite" gid="43" x="2173.76" y="2836.16" width="72" height="72"/>
  <object id="161" name="satelite" gid="43" x="2836.16" y="2173.76" width="72" height="72"/>
  <object id="162" name="nave_destruida_1" gid="39" x="228.91" y="2497.52" width="295" height="138"/>
  <object id="163" name="nave_destruida_1" gid="39" x="2497.52" y="228.91" width="295" height="138"/>
  <object id="164" name="nave_destruida_2" gid="40" x="1184.07" y="2606.51" width="239" height="105"/>
  <object id="165" name="nave_destruida_2" gid="40" x="2606.51" y="1184.07" width="239" height="105"/>
  <object id="166" name="estacion_rota" gid="42" x="970.98" y="1717.96" width="224" height="176"/>
  <object id="167" name="estacion_rota" gid="42" x="1717.96" y="970.98" width="224" height="176"/>
  <object id="168" name="nave_destruida_1" gid="39" x="1805.75" y="2907.97" width="295" height="138"/>
  <object id="169" name="nave_destruida_1" gid="39" x="2907.97" y="1805.75" width="295" height="138"/>
  <object id="170" name="nave_destruida_2" gid="40" x="87" y="1722.2" width="239" height="105"/>
  <object id="171" name="nave_destruida_2" gid="40" x="1722.2" y="87" width="239" height="105"/>
  <object id="172" name="estacion_rota" gid="42" x="137.08" y="1550.55" width="224" height="176"/>
  <object id="173" name="estacion_rota" gid="42" x="1550.55" y="137.08" width="224" height="176"/>
 </objectgroup>
</map>
