<?xml version="1.0" encoding="UTF-8"?>
<map version="1.10" tiledversion="1.11.0" orientation="isometric" renderorder="right-down" width="58" height="58" tilewidth="64" tileheight="32" infinite="0" backgroundcolor="#05070f" nextlayerid="7" nextobjectid="57">
 <tileset firstgid="1" source="tilesets/logica.tsx"/>
 <tileset firstgid="7" source="tilesets/suelo.tsx"/>
 <tileset firstgid="19" source="tilesets/asteroides.tsx"/>
 <tileset firstgid="27" source="tilesets/estructuras.tsx"/>
 <layer id="1" name="fondo" width="58" height="58">
  <data encoding="csv">
9,8,10,7,7,7,9,7,8,7,7,10,10,7,8,7,10,7,7,8,7,10,7,8,7,8,9,10,8,7,9,8,7,8,9,7,7,7,8,10,10,9,10,10,9,9,8,8,8,7,9,10,9,10,9,7,7,10,
8,9,8,10,10,7,7,9,9,9,10,10,7,7,9,10,7,7,9,10,9,10,9,7,10,9,8,7,10,7,8,9,8,8,10,10,10,7,8,10,10,9,8,10,9,10,9,10,8,8,7,8,8,8,8,7,10,8,
9,9,7,8,10,9,9,8,7,10,10,10,10,10,7,10,10,7,8,7,8,10,8,7,9,7,7,7,8,7,9,7,7,8,10,8,9,9,9,10,7,7,10,10,10,10,9,7,8,7,9,9,10,8,7,8,9,8,
7,9,7,9,9,8,9,8,9,8,8,8,10,8,8,10,9,7,7,9,10,9,8,9,10,9,9,7,8,7,8,10,8,9,8,10,7,10,9,7,7,10,8,10,8,10,9,7,10,10,10,7,8,8,8,7,8,10,
8,10,9,8,8,7,7,7,8,10,8,8,7,9,8,9,8,9,9,10,8,7,9,10,10,8,8,7,10,8,7,8,8,8,10,7,7,9,10,7,7,8,8,9,7,7,10,7,7,10,9,8,9,10,10,8,9,8,
10,8,10,7,10,10,9,7,8,10,7,8,9,7,8,9,8,9,8,10,8,7,10,10,8,8,8,10,10,9,10,8,9,9,7,9,7,9,10,10,7,10,9,9,7,7,8,7,7,9,9,7,8,9,8,10,9,10,
8,10,9,7,9,7,8,10,7,9,7,7,9,7,8,7,9,7,10,7,9,10,9,8,7,8,7,8,9,7,8,8,9,9,8,9,10,8,9,9,7,9,7,7,7,8,10,8,10,7,10,10,10,9,8,8,9,8,
8,10,9,7,8,7,7,9,10,8,7,7,10,9,8,9,7,10,8,8,9,10,7,9,9,9,9,8,7,9,8,9,8,7,9,10,7,10,9,8,8,7,7,9,7,8,10,7,10,7,9,9,8,7,8,10,9,10,
8,9,8,7,10,8,7,8,7,7,7,8,9,7,10,10,7,7,8,10,9,7,10,7,7,7,10,9,7,9,8,8,8,10,10,10,7,10,9,7,8,7,8,9,9,9,8,7,10,7,10,9,7,8,10,9,9,10,
10,10,7,8,9,7,10,7,9,10,7,10,9,10,8,8,7,7,8,9,9,8,9,7,9,8,10,10,10,7,8,7,10,10,10,9,8,10,9,10,9,7,9,7,9,9,10,7,8,7,9,9,9,7,10,10,7,9,
10,9,7,9,7,7,9,8,8,9,10,9,8,9,10,7,10,8,7,7,10,10,8,9,10,7,8,8,10,10,9,9,9,9,9,10,8,9,10,10,7,8,8,7,8,10,8,10,9,10,10,8,8,8,7,8,9,7,
9,8,9,9,8,7,10,10,10,8,10,9,9,7,10,9,9,8,8,7,9,8,10,10,10,10,9,7,8,7,10,10,10,7,7,10,10,10,8,7,8,8,8,7,10,7,7,7,8,8,7,9,8,9,10,7,7,7,
9,8,10,9,8,7,7,9,10,9,9,8,10,8,8,7,10,9,7,7,8,10,10,7,9,8,10,9,8,10,7,9,10,9,10,8,7,9,7,8,10,8,9,8,8,10,8,9,9,7,10,8,8,10,10,7,8,10,
7,8,7,8,10,7,7,8,10,10,9,7,7,8,9,8,8,10,7,9,10,9,9,10,8,7,7,7,9,7,9,10,7,8,10,9,9,10,7,7,10,8,9,10,8,9,9,10,7,10,8,10,7,10,7,10,7,7,
9,8,7,9,9,9,9,7,9,9,9,9,7,7,7,8,7,10,10,10,9,10,10,8,10,8,7,9,8,8,9,9,10,9,7,8,10,8,8,10,7,7,10,9,8,10,7,7,9,7,8,7,10,10,10,8,8,8,
10,10,8,7,9,9,9,9,9,9,9,8,10,8,8,8,8,8,9,8,9,7,10,9,8,8,7,10,7,7,7,10,8,10,9,7,9,8,7,7,8,8,7,9,8,10,9,7,7,9,8,7,9,9,8,7,8,9,
7,8,7,9,10,9,8,9,7,8,7,10,10,7,10,7,10,8,7,8,10,9,10,9,9,10,7,9,9,10,10,7,9,8,10,10,8,7,10,8,10,7,7,10,9,10,8,8,7,7,8,10,7,9,8,8,9,9,
8,8,7,7,10,10,8,9,8,7,10,9,7,10,7,8,8,10,8,10,8,8,7,10,8,10,9,7,8,8,8,7,7,9,7,10,10,9,10,9,8,10,10,9,10,10,8,7,7,10,10,8,10,10,8,10,10,7,
7,8,9,10,9,7,10,7,7,8,7,9,7,7,10,8,7,7,7,8,8,10,9,8,8,7,9,9,8,9,9,10,8,9,10,8,9,8,9,9,7,8,8,10,8,9,9,10,8,9,7,7,9,10,7,9,10,9,
9,10,9,8,9,9,7,10,8,8,7,9,9,9,9,7,7,8,8,9,10,10,9,7,8,10,8,7,7,7,7,9,9,7,9,8,10,9,8,8,9,10,8,8,7,8,8,10,7,7,8,9,10,9,7,7,9,10,
10,8,8,7,7,7,7,10,8,8,8,7,7,7,8,8,10,8,10,8,9,7,9,7,10,7,10,10,10,7,10,8,8,7,9,8,7,7,9,9,7,9,10,9,9,8,7,7,8,9,8,8,8,9,8,10,9,8,
10,10,10,7,7,10,8,9,8,10,7,8,8,7,7,7,7,8,9,8,7,7,7,8,7,7,7,7,9,8,7,10,7,8,8,8,7,7,7,7,9,10,7,8,7,8,9,9,9,10,9,7,9,9,9,7,9,9,
10,9,7,10,7,10,7,9,10,7,8,7,9,8,10,7,8,9,7,7,9,10,7,10,8,10,9,9,8,9,8,8,10,8,7,7,10,7,9,9,7,10,10,7,10,7,9,8,9,9,10,8,10,8,10,8,7,9,
9,8,10,9,8,10,10,9,8,8,9,10,8,8,9,9,8,8,8,9,9,8,8,9,8,9,7,8,7,8,10,8,8,9,9,10,9,8,7,7,9,8,10,10,7,7,10,10,8,9,10,7,8,9,10,7,8,10,
10,8,8,8,7,10,10,9,9,7,10,8,10,8,9,10,10,10,7,10,8,9,7,10,10,7,7,9,8,8,8,9,7,10,8,10,7,9,9,10,10,8,8,10,7,9,7,9,9,10,10,7,7,7,10,10,9,9,
7,8,9,10,8,10,10,8,8,8,7,8,10,8,8,9,10,10,9,8,10,9,8,9,10,9,10,8,10,7,9,9,8,9,9,10,10,10,7,9,8,9,10,7,7,9,8,9,7,7,8,7,9,9,7,8,8,8,
10,9,8,8,10,8,7,9,8,10,8,7,10,7,7,9,10,8,8,10,10,7,10,10,8,10,8,10,8,7,8,9,10,10,9,10,9,10,10,7,8,9,7,7,7,9,7,10,10,8,7,8,10,8,9,7,9,9,
10,8,9,10,9,10,9,7,9,9,9,10,10,9,9,9,8,10,7,9,8,9,9,8,7,7,10,10,7,10,9,7,7,7,8,10,7,10,8,7,8,7,10,8,7,8,7,10,7,7,9,8,9,9,9,8,10,7,
9,7,10,7,10,7,7,10,10,10,7,7,10,8,10,10,7,7,10,8,8,7,10,7,7,7,7,8,7,8,10,7,9,8,10,8,7,9,8,7,9,10,10,9,7,7,7,7,7,7,10,9,9,8,10,7,9,9,
10,10,8,8,7,9,8,10,10,10,10,9,9,9,9,7,9,7,8,9,10,8,10,10,10,8,10,9,7,9,9,9,10,8,7,9,8,8,9,10,9,7,10,10,8,8,9,7,10,10,8,9,7,10,10,7,9,7,
8,10,9,9,10,8,8,8,8,7,8,9,9,9,10,8,8,7,10,9,7,9,10,7,8,9,7,9,9,7,7,7,8,10,8,9,9,10,7,10,8,9,7,9,8,8,10,7,7,7,7,9,10,10,7,10,7,7,
9,9,8,7,10,8,10,8,9,8,8,8,7,9,9,7,7,7,9,10,7,7,8,9,7,8,9,10,7,10,9,9,9,10,7,9,10,10,8,10,8,8,7,10,8,7,8,8,7,9,8,10,7,10,7,7,10,9,
9,8,10,7,9,8,9,8,7,8,10,8,10,8,9,10,10,8,8,7,9,9,9,8,9,10,7,9,10,10,7,8,7,8,10,9,7,9,8,9,10,9,8,8,7,10,9,10,8,7,9,8,7,10,9,8,10,7,
9,8,9,10,7,10,8,9,8,8,8,8,8,8,7,7,10,9,8,8,8,8,9,8,7,7,10,7,9,9,9,10,7,7,10,10,8,9,8,8,9,7,8,9,7,9,10,7,7,9,8,9,10,7,9,7,10,10,
7,8,7,8,7,8,8,8,7,9,9,7,7,7,8,9,7,10,8,10,7,9,7,8,7,9,7,10,10,9,7,7,7,10,8,8,8,8,10,10,8,7,10,10,7,10,7,9,9,10,8,9,10,9,10,7,9,8,
9,8,10,7,9,7,8,7,9,10,8,7,8,8,10,10,10,7,7,7,9,9,7,7,9,7,7,10,8,7,9,7,9,9,8,7,7,9,7,10,8,10,7,8,9,10,9,9,8,7,9,10,8,10,8,9,10,9,
10,10,9,7,8,9,8,8,10,10,7,9,8,8,9,9,10,9,9,8,9,7,7,8,7,9,10,7,10,10,9,7,8,8,10,9,9,8,8,9,7,10,9,8,10,7,7,10,7,10,10,8,10,9,7,10,10,10,
9,9,9,9,10,10,9,7,10,10,10,9,8,9,8,10,10,8,7,9,9,8,9,8,10,7,7,7,9,10,9,9,10,10,10,10,9,7,9,10,7,7,8,7,10,9,10,8,8,10,10,10,10,9,7,8,9,9,
9,7,9,8,7,9,9,10,8,9,8,8,10,8,7,7,9,7,10,7,7,9,7,9,10,7,7,7,8,8,10,9,8,8,10,7,8,8,7,7,7,7,8,10,10,10,7,7,9,8,8,9,9,8,7,9,7,7,
9,8,10,10,7,7,8,10,7,10,7,8,8,8,7,8,8,9,7,10,9,10,9,10,7,8,10,8,10,9,10,10,7,8,7,8,8,9,10,8,7,9,10,9,7,9,10,9,10,7,7,10,9,8,10,8,10,9,
9,8,10,7,9,7,9,8,8,8,7,8,9,8,10,10,8,8,9,9,8,10,10,8,9,10,8,8,10,8,9,10,9,8,10,8,8,7,7,9,10,7,8,9,7,10,7,8,8,9,8,7,7,9,9,8,7,9,
7,8,9,8,10,9,9,10,10,8,9,8,7,9,9,10,7,10,8,10,9,7,8,9,7,9,8,7,10,7,8,10,8,9,8,10,7,9,8,8,10,9,10,9,7,7,9,7,7,8,7,7,9,8,9,7,10,10,
8,9,7,9,10,10,9,10,7,8,10,8,10,8,7,9,8,8,8,9,8,7,8,9,9,10,7,8,9,8,8,10,10,8,8,7,10,8,9,9,8,8,8,9,7,10,8,8,10,10,8,7,9,7,9,10,8,7,
7,9,9,8,7,9,10,7,8,9,10,10,9,9,8,7,7,7,10,10,7,9,9,7,10,10,10,8,9,7,9,7,9,9,8,7,8,7,7,10,8,9,9,8,8,7,9,9,10,8,9,9,8,9,8,9,9,8,
7,7,7,10,7,8,10,10,10,8,9,7,8,8,8,8,10,10,7,7,10,10,8,8,9,7,7,10,8,9,7,7,10,9,7,10,7,8,8,10,9,7,10,9,8,10,7,9,10,10,8,10,7,7,9,9,10,9,
10,8,9,9,7,8,8,10,7,8,9,10,9,8,10,10,9,7,8,8,8,7,8,9,7,8,9,10,8,10,8,7,7,10,7,10,8,7,7,10,10,8,8,10,7,8,9,7,10,8,7,9,7,7,8,10,9,7,
8,10,7,8,7,9,8,9,9,7,9,7,8,9,9,10,7,9,7,9,9,7,7,8,9,9,8,10,7,10,7,7,10,7,7,9,8,8,9,10,8,9,9,10,7,7,9,8,10,10,7,7,7,8,10,10,8,10,
10,8,7,9,9,8,9,8,7,8,8,9,10,9,10,10,9,9,7,9,10,9,8,7,8,10,7,8,8,9,10,9,7,9,9,8,7,7,8,10,7,9,9,8,8,7,9,9,9,8,9,10,9,7,9,9,10,9,
8,8,9,8,8,8,7,10,10,10,10,9,8,7,8,9,9,9,9,7,8,7,8,9,9,10,9,10,7,10,9,8,9,9,7,8,9,8,7,8,7,10,10,8,9,7,8,8,7,8,7,7,7,9,8,7,8,9,
7,9,7,8,9,9,7,10,10,9,8,7,10,7,7,9,10,10,9,10,7,7,9,9,7,10,9,8,7,7,8,8,8,7,9,9,10,9,8,9,8,9,10,7,9,10,9,9,9,8,9,7,10,7,9,8,8,10,
7,7,8,7,7,8,8,9,9,8,8,8,7,9,8,10,10,8,9,10,10,8,9,7,7,7,7,10,9,7,8,10,10,10,8,7,9,7,9,10,8,8,9,8,9,10,9,9,10,8,8,10,9,8,9,9,7,9,
7,10,8,8,9,10,8,7,8,9,7,10,8,10,8,9,7,7,8,7,8,9,8,9,7,8,10,10,7,10,9,10,9,7,8,8,7,7,8,8,10,7,7,7,9,7,7,7,10,8,10,7,8,8,8,7,9,10,
7,9,8,8,7,9,8,7,9,9,7,7,8,7,10,9,9,7,9,7,10,9,9,10,9,10,10,9,10,10,8,10,10,10,8,7,8,9,10,8,8,7,7,7,7,10,9,10,9,10,7,10,10,9,10,8,10,9,
7,10,9,9,7,8,9,9,10,9,10,8,8,7,9,8,8,9,8,8,8,10,8,7,9,10,9,10,7,10,8,9,10,7,9,9,9,10,7,9,10,9,10,7,10,10,8,8,7,8,9,10,8,9,9,10,9,7,
8,7,9,7,8,9,9,9,9,8,9,10,7,10,7,8,8,10,9,9,7,10,10,9,7,9,10,10,9,9,8,10,8,8,9,7,8,9,7,7,10,10,10,10,10,7,7,10,10,10,10,10,8,7,10,10,10,8,
7,8,8,10,7,9,9,10,10,7,7,8,7,7,7,10,7,8,10,7,8,9,10,7,10,8,10,7,8,9,9,8,7,8,9,9,7,9,10,9,9,10,10,7,9,9,8,10,10,9,9,8,8,7,8,9,10,10,
8,9,9,8,10,7,9,7,7,10,9,7,9,8,10,9,8,8,10,10,10,8,8,7,8,10,7,7,8,7,10,8,7,8,10,8,9,8,8,8,8,7,10,7,8,7,7,10,8,9,10,10,8,7,8,7,8,10,
9,8,9,8,9,9,9,8,8,8,10,7,9,10,8,9,8,7,8,10,8,8,10,9,10,7,7,9,7,8,7,9,10,9,7,10,7,8,10,9,9,7,8,8,10,9,8,9,7,7,7,9,8,8,9,7,8,9
</data>
 </layer>
 <layer id="2" name="terreno-visual" width="58" height="58">
  <data encoding="csv">
0,0,0,0,0,0,0,0,0,0,0,0,0,0,0,0,0,0,0,0,0,0,0,0,0,0,0,0,0,0,0,0,0,0,0,0,0,0,0,0,0,0,0,0,0,0,0,0,0,0,0,0,0,0,0,0,0,0,
0,0,0,0,0,0,0,0,0,0,0,0,0,0,0,0,0,0,0,0,0,0,0,0,0,0,0,0,0,0,0,0,0,0,0,0,0,0,0,0,0,0,0,0,0,0,0,0,0,0,0,0,0,0,0,0,0,0,
0,0,0,0,0,0,0,0,0,0,0,0,0,0,0,0,0,0,0,0,0,0,0,0,0,0,0,0,0,0,0,0,17,18,17,0,0,0,0,0,0,0,0,0,0,0,0,0,0,0,0,0,0,0,0,0,0,0,
0,0,0,0,0,0,0,0,18,0,0,0,0,0,0,0,0,0,0,0,0,0,0,0,0,0,0,0,0,0,0,0,18,17,18,0,0,0,0,0,0,0,0,0,0,0,0,0,0,0,0,0,0,0,0,0,0,0,
0,0,0,0,0,18,17,18,17,18,17,18,0,14,14,14,14,14,14,14,14,14,14,14,14,14,14,0,0,0,0,0,17,18,17,0,0,0,0,0,0,0,0,0,0,0,0,0,0,0,0,0,0,0,0,0,0,0,
0,0,0,0,18,17,18,17,18,17,18,17,18,14,14,14,14,14,14,14,14,14,14,14,14,14,14,14,14,14,14,14,18,17,18,0,0,0,0,0,0,0,0,0,0,0,0,0,0,0,0,0,0,0,0,0,0,0,
0,0,0,0,17,18,17,18,17,18,17,18,17,14,14,14,14,14,14,14,14,14,14,14,14,14,14,14,14,14,14,14,17,18,17,14,0,0,0,0,0,0,0,0,0,0,0,0,0,0,0,0,0,0,0,0,0,0,
0,0,0,0,18,17,18,17,18,17,18,17,18,14,0,0,0,0,0,0,0,0,0,0,0,0,14,14,16,16,14,14,14,17,14,14,14,14,14,0,0,0,0,0,0,0,0,0,0,0,0,0,0,0,0,0,0,0,
0,0,0,18,17,18,17,18,17,18,17,18,17,18,0,0,0,0,0,0,0,0,0,0,0,0,0,0,16,16,0,0,14,14,14,14,14,14,14,14,14,14,0,0,0,0,0,0,0,0,0,0,0,0,0,0,0,0,
0,0,0,0,18,17,18,17,18,17,18,17,18,17,0,0,0,0,0,0,0,0,0,0,0,0,0,0,16,16,0,0,0,0,0,14,14,14,14,14,14,14,14,14,0,0,0,0,0,0,0,0,0,0,0,0,0,0,
0,0,0,0,17,18,17,18,17,18,17,18,17,18,17,18,17,18,0,0,0,0,0,0,0,0,0,14,16,16,14,14,0,0,0,0,0,0,14,14,14,14,14,14,14,14,0,0,0,0,0,0,0,0,0,0,0,0,
0,0,0,0,18,17,18,17,18,17,18,17,18,17,18,17,18,17,18,17,18,17,18,17,18,14,14,14,14,14,14,14,14,14,14,0,0,0,0,0,14,14,14,14,14,14,14,14,0,0,0,0,0,0,0,0,0,0,
0,0,0,0,0,18,17,18,17,18,17,18,0,18,17,18,17,18,17,18,17,18,17,18,17,18,14,14,14,14,14,14,14,14,14,14,14,14,0,0,0,0,0,14,14,14,14,14,14,14,0,0,0,0,0,0,0,0,
0,0,0,0,18,17,18,17,18,0,0,0,0,0,0,0,18,17,18,17,18,17,18,17,18,17,14,14,14,0,0,14,14,14,14,14,14,14,14,14,0,0,0,0,0,14,14,14,14,14,14,14,0,0,0,0,0,0,
0,0,0,0,17,18,17,0,0,13,11,12,13,11,0,0,0,0,0,0,0,18,17,18,17,18,0,0,0,0,0,0,0,0,14,14,14,14,14,14,14,14,0,0,0,0,0,14,14,14,14,14,0,0,0,0,0,0,
0,0,0,0,18,17,18,0,13,11,12,13,11,12,13,0,0,0,0,0,0,15,18,17,18,0,0,0,0,0,0,0,0,0,0,0,0,14,14,14,14,14,14,14,14,0,0,0,0,14,14,14,14,0,0,0,0,0,
0,0,0,0,17,18,17,13,11,12,13,11,12,13,11,12,0,0,0,0,15,15,15,0,0,0,0,0,0,0,0,0,0,0,0,0,0,0,0,14,14,14,14,14,14,14,14,18,17,18,14,14,14,14,0,0,0,0,
0,0,0,0,18,17,18,11,12,13,11,12,13,11,12,13,0,0,0,0,15,15,15,0,0,0,0,0,0,0,0,0,0,0,0,12,13,11,12,13,11,14,14,14,14,14,18,17,18,17,18,14,14,14,0,0,0,0,
0,0,0,0,17,18,17,12,13,11,12,13,11,12,13,11,0,0,0,15,15,15,0,0,0,0,0,0,0,0,0,0,0,11,12,13,11,12,13,11,12,13,11,14,14,14,17,18,17,18,17,18,14,14,14,0,0,0,
0,0,0,0,18,17,18,13,11,12,13,11,12,13,11,12,0,0,0,15,15,0,0,0,0,0,0,0,0,0,0,0,0,12,13,11,12,13,11,12,13,11,12,13,0,0,18,17,18,17,18,17,18,17,14,14,0,0,
0,0,0,0,17,18,17,11,12,13,11,12,13,11,12,13,0,0,15,15,15,0,0,0,0,0,0,0,0,0,0,0,12,13,11,12,13,11,12,13,11,12,13,11,12,0,14,18,17,18,17,18,17,18,17,14,0,0,
0,17,18,17,18,17,18,0,13,11,12,13,11,12,13,0,0,0,15,15,15,0,0,0,0,0,0,0,0,0,0,0,13,11,12,13,11,12,13,11,12,13,11,12,13,0,14,14,14,0,0,0,0,17,14,14,0,0,
0,18,17,18,17,18,17,0,0,12,13,11,12,13,0,0,0,0,15,15,0,0,0,0,0,0,0,0,0,0,0,0,11,12,13,11,12,13,11,12,13,11,12,13,11,0,14,14,0,0,0,0,0,14,14,14,0,0,
0,17,18,17,18,17,18,0,0,0,0,0,0,0,0,0,0,15,15,15,15,0,0,0,0,0,0,0,0,0,0,0,0,13,11,12,13,11,12,13,11,12,13,11,14,14,14,14,0,0,0,0,0,14,14,14,0,0,
0,0,0,0,17,15,15,0,0,0,0,0,0,0,0,0,0,0,15,15,15,15,0,0,0,0,17,18,17,18,17,18,0,11,12,13,11,12,13,11,12,13,11,14,14,14,14,0,0,0,0,0,0,14,14,14,14,0,
0,0,0,0,15,15,15,15,15,15,0,0,0,0,0,0,0,0,0,15,15,15,15,0,0,17,18,17,18,17,18,17,18,0,0,11,12,13,11,12,13,14,14,14,14,14,0,0,0,0,0,0,0,0,14,14,14,0,
0,0,0,0,17,15,15,15,15,15,15,15,15,15,0,0,0,0,0,0,15,15,15,15,17,18,17,18,17,18,17,18,17,18,0,0,0,0,0,14,14,14,14,14,0,0,0,0,0,0,0,0,0,0,14,14,14,0,
0,0,0,0,18,17,18,0,15,15,15,15,15,15,15,15,15,15,15,15,15,15,15,15,18,17,18,17,18,17,18,17,18,17,14,14,14,14,14,14,14,14,14,0,0,0,0,0,0,0,0,17,18,17,14,14,14,0,
0,14,14,14,17,18,17,0,0,0,0,15,15,15,15,15,15,15,15,15,15,15,15,15,17,18,17,18,17,18,17,18,17,18,15,15,15,15,15,15,15,0,0,0,0,0,0,0,0,0,0,18,17,18,14,14,14,0,
0,14,14,14,18,17,18,0,0,0,0,0,0,0,0,0,0,15,15,15,15,15,15,15,18,17,18,17,18,17,18,17,18,17,15,15,15,15,15,15,15,15,15,15,15,15,15,0,0,0,0,17,18,17,14,14,14,0,
0,14,14,14,17,18,17,0,0,0,0,0,0,0,0,14,14,14,14,14,14,14,14,14,17,18,17,18,17,18,17,18,17,18,15,15,15,15,15,15,15,15,15,15,15,15,15,15,15,15,0,18,17,18,0,0,0,0,
0,14,14,14,0,0,0,0,0,0,0,0,0,0,14,14,14,14,14,0,0,0,0,0,18,17,18,17,18,17,18,17,18,17,15,15,15,15,0,0,0,0,0,0,15,15,15,15,15,15,15,15,15,17,0,0,0,0,
0,14,14,14,0,0,0,0,0,0,0,0,14,14,14,14,14,12,13,11,12,13,11,0,0,18,17,18,17,18,17,18,17,0,0,15,15,15,15,0,0,0,0,0,0,0,0,0,15,15,15,15,15,15,0,0,0,0,
0,14,14,14,14,0,0,0,0,0,0,14,14,14,14,11,12,13,11,12,13,11,12,13,11,0,18,17,18,17,18,17,0,0,0,0,15,15,15,15,0,0,0,0,0,0,0,0,0,0,0,15,15,17,0,0,0,0,
0,0,14,14,14,0,0,0,0,0,14,14,14,14,11,12,13,11,12,13,11,12,13,11,12,0,0,0,0,0,0,0,0,0,0,0,0,15,15,15,15,0,0,0,0,0,0,0,0,0,0,18,17,18,17,18,17,0,
0,0,14,14,14,0,0,0,0,0,14,14,0,11,12,13,11,12,13,11,12,13,11,12,13,11,0,0,0,0,0,0,0,0,0,0,0,0,15,15,0,0,0,0,12,13,11,12,13,0,0,17,18,17,18,17,18,0,
0,0,14,14,17,0,0,0,0,14,14,14,0,12,13,11,12,13,11,12,13,11,12,13,11,12,0,0,0,0,0,0,0,0,0,0,0,15,15,15,0,0,0,12,13,11,12,13,11,12,0,18,17,18,17,18,17,0,
0,0,14,17,18,17,18,17,18,17,18,14,0,13,11,12,13,11,12,13,11,12,13,11,12,13,0,0,0,0,0,0,0,0,0,0,0,15,15,15,0,0,12,13,11,12,13,11,12,13,11,17,18,17,0,0,0,0,
0,0,14,14,17,18,17,18,17,18,17,18,0,0,12,13,11,12,13,11,12,13,11,12,13,0,0,0,0,0,0,0,0,0,0,0,0,15,15,0,0,0,13,11,12,13,11,12,13,11,12,18,17,18,0,0,0,0,
0,0,0,14,14,14,18,17,18,17,18,17,14,14,14,11,12,13,11,12,13,11,12,13,11,0,0,0,0,0,0,0,0,0,0,0,15,15,15,0,0,0,11,12,13,11,12,13,11,12,13,17,18,17,0,0,0,0,
0,0,0,0,14,14,14,18,17,18,17,18,14,14,14,14,14,11,12,13,11,12,13,0,0,0,0,0,0,0,0,0,0,0,0,15,15,15,0,0,0,0,12,13,11,12,13,11,12,13,11,18,17,18,0,0,0,0,
0,0,0,0,14,14,14,14,18,17,18,14,14,14,14,14,14,14,14,0,0,0,0,0,0,0,0,0,0,0,0,0,0,0,0,15,15,15,0,0,0,0,13,11,12,13,11,12,13,11,12,17,18,17,0,0,0,0,
0,0,0,0,0,14,14,14,14,0,0,0,0,14,14,14,14,14,14,14,14,0,0,0,0,0,0,0,0,0,0,0,0,18,17,18,15,0,0,0,0,0,0,12,13,11,12,13,11,12,0,18,17,18,0,0,0,0,
0,0,0,0,0,0,14,14,14,14,14,0,0,0,0,0,14,14,14,14,14,14,14,14,0,0,0,0,0,0,0,0,18,17,18,17,18,0,0,0,0,0,0,0,11,12,13,11,12,0,0,17,18,17,0,0,0,0,
0,0,0,0,0,0,14,14,14,14,14,14,14,0,0,0,0,0,14,14,14,14,14,14,14,14,14,0,0,14,14,14,17,18,17,18,17,18,17,18,17,18,0,0,0,0,0,0,0,18,17,18,17,18,0,0,0,0,
0,0,0,0,0,0,0,0,14,14,14,14,14,14,14,0,0,0,0,0,14,14,14,14,14,14,14,14,14,14,14,14,18,17,18,17,18,17,18,17,18,17,18,17,18,0,18,17,18,17,18,17,18,0,0,0,0,0,
0,0,0,0,0,0,0,0,0,0,14,14,14,14,14,14,14,14,0,0,0,0,0,14,14,14,14,14,14,14,14,14,14,18,17,18,17,18,17,18,17,18,17,18,17,18,17,18,17,18,17,18,17,18,0,0,0,0,
0,0,0,0,0,0,0,0,0,0,0,0,14,14,14,14,14,14,14,14,0,0,0,0,0,0,14,14,16,16,14,0,0,0,0,0,0,0,0,0,18,17,18,17,18,17,18,17,18,17,18,17,18,17,0,0,0,0,
0,0,0,0,0,0,0,0,0,0,0,0,0,0,14,14,14,14,14,14,14,14,14,0,0,0,0,0,16,16,0,0,0,0,0,0,0,0,0,0,0,0,0,0,17,18,17,18,17,18,17,18,17,18,0,0,0,0,
0,0,0,0,0,0,0,0,0,0,0,0,0,0,0,0,14,14,14,14,14,14,14,14,14,14,0,0,16,16,0,0,0,0,0,0,0,0,0,0,0,0,0,0,18,17,18,17,18,17,18,17,18,17,18,0,0,0,
0,0,0,0,0,0,0,0,0,0,0,0,0,0,0,0,0,0,0,14,14,14,14,14,17,14,14,14,16,16,14,14,0,0,0,0,0,0,0,0,0,0,0,0,14,18,17,18,17,18,17,18,17,18,0,0,0,0,
0,0,0,0,0,0,0,0,0,0,0,0,0,0,0,0,0,0,0,0,0,0,14,17,18,17,14,14,14,14,14,14,14,14,14,14,14,14,14,14,14,14,14,14,14,17,18,17,18,17,18,17,18,17,0,0,0,0,
0,0,0,0,0,0,0,0,0,0,0,0,0,0,0,0,0,0,0,0,0,0,0,18,17,18,14,14,14,14,14,14,14,14,14,14,14,14,14,14,14,14,14,14,14,18,17,18,17,18,17,18,17,18,0,0,0,0,
0,0,0,0,0,0,0,0,0,0,0,0,0,0,0,0,0,0,0,0,0,0,0,17,18,17,0,0,0,0,0,14,14,14,14,14,14,14,14,14,14,14,14,14,14,0,18,17,18,17,18,17,18,0,0,0,0,0,
0,0,0,0,0,0,0,0,0,0,0,0,0,0,0,0,0,0,0,0,0,0,0,18,17,18,0,0,0,0,0,0,0,0,0,0,0,0,0,0,0,0,0,0,0,0,0,0,0,18,0,0,0,0,0,0,0,0,
0,0,0,0,0,0,0,0,0,0,0,0,0,0,0,0,0,0,0,0,0,0,0,17,18,17,0,0,0,0,0,0,0,0,0,0,0,0,0,0,0,0,0,0,0,0,0,0,0,0,0,0,0,0,0,0,0,0,
0,0,0,0,0,0,0,0,0,0,0,0,0,0,0,0,0,0,0,0,0,0,0,0,0,0,0,0,0,0,0,0,0,0,0,0,0,0,0,0,0,0,0,0,0,0,0,0,0,0,0,0,0,0,0,0,0,0,
0,0,0,0,0,0,0,0,0,0,0,0,0,0,0,0,0,0,0,0,0,0,0,0,0,0,0,0,0,0,0,0,0,0,0,0,0,0,0,0,0,0,0,0,0,0,0,0,0,0,0,0,0,0,0,0,0,0
</data>
 </layer>
 <layer id="3" name="decoracion" width="58" height="58">
  <data encoding="csv">
25,0,22,0,21,0,19,25,22,0,0,25,0,24,0,0,0,0,20,19,24,21,19,22,22,20,26,0,24,0,0,24,0,0,26,19,0,26,20,0,0,24,0,0,21,0,0,23,21,21,0,19,0,0,0,21,0,0,
0,25,0,0,20,25,0,23,23,0,22,20,0,0,21,0,23,26,22,0,21,0,0,26,23,19,21,0,24,0,0,24,23,22,23,25,0,20,0,24,22,0,25,19,0,0,0,19,20,21,0,24,0,21,23,0,0,20,
0,24,0,22,24,0,24,25,22,25,0,0,0,0,25,0,19,25,23,0,0,0,22,24,20,21,22,0,0,0,0,0,0,0,0,24,26,25,0,0,0,24,25,0,21,23,0,26,0,0,25,24,22,19,23,0,0,0,
0,23,0,25,25,24,25,22,0,23,24,26,25,25,22,0,24,24,0,23,25,22,25,26,26,0,0,0,0,20,22,25,0,0,0,0,0,0,24,21,23,0,20,0,20,0,23,21,26,25,20,24,0,22,0,0,22,19,
0,0,0,22,25,0,0,0,0,0,0,0,25,0,0,0,0,0,0,0,0,0,0,0,0,0,0,0,0,23,26,22,0,0,0,0,26,0,0,24,23,0,0,0,25,23,0,0,0,20,21,24,0,0,0,0,0,0,
0,0,24,0,0,0,0,0,0,0,0,0,0,0,0,0,0,0,0,0,0,0,0,0,0,0,0,0,0,0,0,0,0,0,0,22,25,0,26,0,0,25,0,26,26,24,0,0,0,0,0,25,23,0,0,22,0,0,
0,0,21,25,0,0,0,0,0,0,0,0,0,0,0,0,0,0,0,0,0,0,0,0,0,0,0,0,0,0,0,0,0,0,0,0,26,26,22,0,0,23,0,20,0,24,0,23,21,23,23,0,0,26,24,0,0,21,
23,0,22,0,0,0,0,0,0,0,0,0,0,0,26,23,25,26,0,22,24,25,0,25,26,23,0,0,0,0,0,0,0,0,0,0,0,0,0,25,0,0,0,0,21,23,24,19,22,21,0,20,20,0,20,22,0,22,
20,25,26,0,0,0,0,0,0,0,0,0,0,0,22,24,0,0,0,26,25,0,0,20,0,25,26,0,0,0,24,24,0,0,0,0,0,0,0,0,0,0,24,24,25,21,0,23,23,0,22,25,0,26,24,0,23,0,
19,22,23,24,0,0,0,0,0,0,0,0,0,0,23,0,0,24,25,21,0,24,21,20,0,23,25,0,0,0,0,22,24,0,26,0,0,0,0,0,0,0,0,0,0,22,0,0,0,0,22,0,0,23,0,0,19,0,
20,0,24,26,0,0,0,0,0,0,0,0,0,0,0,0,0,0,25,0,25,0,24,25,0,0,24,0,0,0,0,0,0,24,24,24,23,0,0,0,0,0,0,0,0,0,23,24,24,0,0,19,22,0,0,0,22,23,
24,25,23,22,0,0,0,0,0,0,0,0,0,0,0,0,0,0,0,0,0,0,0,0,0,0,0,0,0,0,0,0,0,0,0,24,25,0,22,25,0,0,0,0,0,0,0,0,23,26,22,0,0,26,0,0,0,0,
0,19,0,22,22,0,0,0,0,0,0,0,0,0,0,0,0,0,0,0,0,0,0,0,0,0,0,0,0,0,0,0,0,0,0,0,0,0,0,0,25,26,0,0,0,0,0,0,0,0,0,24,24,0,0,21,25,0,
0,0,20,26,0,0,0,0,0,22,23,25,23,25,23,24,0,0,0,0,0,0,0,0,0,0,0,0,0,26,26,0,0,0,0,0,0,0,0,0,23,24,23,0,23,0,0,0,0,0,0,0,23,26,23,23,20,0,
0,21,0,26,0,0,0,23,25,0,0,0,0,0,0,0,26,25,24,0,24,0,0,0,0,0,0,25,26,23,24,24,26,23,0,0,0,0,0,0,0,0,0,23,23,26,26,0,0,0,0,0,26,22,0,21,25,23,
19,0,25,25,0,0,0,25,0,0,0,0,0,0,0,23,23,24,25,0,25,0,0,0,0,0,22,0,0,23,26,20,25,25,0,0,0,0,0,0,0,0,0,0,0,22,0,26,25,0,0,0,0,26,0,25,24,0,
0,0,23,0,0,0,0,0,0,0,0,0,0,0,0,0,25,20,0,22,0,0,0,0,0,25,22,0,21,20,25,0,0,0,26,0,26,25,23,0,0,0,0,0,0,0,0,0,0,0,0,0,0,0,23,22,25,0,
0,0,0,22,0,0,0,0,0,0,0,0,0,0,0,0,0,0,0,0,0,0,0,23,0,0,19,26,0,19,0,26,26,25,22,0,0,0,0,0,0,0,0,0,0,0,0,0,0,0,0,0,0,0,24,0,0,24,
19,21,0,0,0,0,0,0,0,0,0,0,0,0,0,0,23,22,0,0,0,0,0,22,0,26,23,24,24,21,0,0,25,0,0,0,0,0,0,0,0,0,0,0,0,0,0,0,0,0,0,0,0,0,0,0,26,23,
0,21,19,26,0,0,0,0,0,0,0,0,0,0,0,0,23,24,0,0,0,23,24,23,25,21,0,0,0,23,23,26,0,0,0,0,0,0,0,0,0,0,0,0,26,23,0,0,0,0,0,0,0,0,0,0,26,19,
0,25,26,26,0,0,0,0,0,0,0,0,0,0,0,0,23,26,0,0,0,24,25,25,0,19,23,21,24,24,25,25,0,0,0,0,0,0,0,0,0,0,0,0,0,26,0,0,0,0,0,0,0,0,0,0,26,0,
25,0,0,0,0,0,0,0,0,0,0,0,0,0,0,23,23,0,0,0,0,0,0,0,0,24,25,22,0,0,24,22,0,0,0,0,0,0,0,0,0,0,0,0,0,22,0,0,0,25,23,22,23,0,0,0,25,25,
23,0,0,0,0,0,0,22,25,0,0,0,0,0,22,25,0,22,0,0,0,24,22,20,25,25,23,0,0,19,19,25,0,0,0,0,0,0,0,0,0,0,0,0,0,25,0,0,0,26,20,0,23,0,0,0,25,0,
0,0,0,0,0,0,0,23,25,23,0,25,23,23,23,26,24,0,0,0,0,26,22,0,25,24,22,23,25,0,24,24,23,0,0,0,0,0,0,0,0,0,0,0,0,0,0,0,25,23,0,25,26,0,0,0,23,0,
0,0,25,25,0,0,0,26,0,0,22,22,0,0,19,0,22,0,0,0,0,0,0,24,26,22,0,0,0,0,0,0,0,0,0,0,0,0,0,0,0,0,0,0,0,0,0,26,0,26,0,0,22,0,0,0,0,0,
0,0,0,0,0,0,0,0,0,0,23,23,0,24,23,0,0,22,0,0,0,0,0,23,22,0,0,0,0,0,0,0,0,24,25,0,0,0,0,0,0,0,0,0,0,0,26,26,0,20,19,19,23,23,0,0,0,24,
21,0,0,24,0,0,0,0,0,0,0,0,0,0,26,22,25,22,24,24,0,0,0,0,0,0,0,0,0,0,0,0,0,0,26,24,22,22,22,0,0,0,0,0,25,24,0,25,25,0,0,26,23,26,0,0,0,0,
25,23,22,25,0,0,0,25,0,0,0,0,0,0,0,0,0,0,0,0,0,0,0,0,0,0,0,0,0,0,0,0,0,0,0,0,0,0,0,0,0,0,0,23,25,0,0,20,22,21,0,0,0,0,0,0,0,25,
0,0,0,0,0,0,0,22,22,0,23,0,0,0,0,0,0,0,0,0,0,0,0,0,0,0,0,0,0,0,0,0,0,0,0,0,0,0,0,0,0,0,26,22,24,26,23,0,25,26,23,0,0,0,0,0,0,26,
0,0,0,0,0,0,0,24,26,26,0,0,0,24,24,25,26,0,0,0,0,0,0,0,0,0,0,0,0,0,0,0,0,0,0,0,0,0,0,0,0,0,0,0,0,0,0,26,0,0,24,0,0,0,0,0,0,24,
26,0,0,0,0,0,0,22,25,25,26,25,0,0,25,0,0,0,0,0,0,0,0,0,0,0,0,0,0,0,0,0,0,0,0,0,0,0,0,0,0,0,0,0,0,0,0,0,0,0,22,0,0,0,24,25,0,24,
0,0,0,0,22,0,23,24,23,0,0,0,25,23,0,0,0,0,0,24,24,23,22,0,0,0,0,0,0,0,0,0,0,0,0,0,0,0,22,22,22,23,25,0,0,0,0,0,0,0,0,0,0,0,25,0,0,0,
25,0,0,0,0,0,19,19,25,21,26,25,0,0,0,0,0,0,0,0,0,0,0,26,23,0,0,0,0,0,0,0,0,0,0,0,0,0,0,25,22,26,0,22,0,0,22,24,0,0,0,0,0,0,22,0,0,0,
0,0,0,0,0,22,0,21,0,23,0,0,0,0,0,0,0,0,0,0,0,0,0,0,0,0,0,0,0,0,0,0,26,23,24,26,0,0,0,0,22,26,20,0,23,23,0,23,0,0,23,0,0,0,25,0,23,23,
0,25,0,0,0,26,21,20,26,0,0,0,0,0,0,0,0,0,0,0,0,0,0,0,0,0,0,26,23,26,24,25,0,0,22,22,22,0,0,0,0,23,0,23,25,0,24,23,22,25,26,0,0,0,0,0,0,24,
0,23,0,0,0,22,0,24,26,22,0,0,22,0,0,0,0,0,0,0,0,0,0,0,0,0,23,0,21,23,24,19,23,0,0,19,22,25,0,0,0,25,25,24,0,0,0,0,0,26,23,0,0,0,0,0,0,0,
0,26,0,0,0,25,0,22,22,0,0,0,24,0,0,0,0,0,0,0,0,0,0,0,0,0,24,23,25,0,0,23,0,0,0,0,23,0,0,0,24,23,22,0,0,0,0,0,0,0,0,0,0,0,0,0,0,24,
0,24,0,0,0,0,0,0,0,0,0,0,0,0,0,0,0,0,0,0,0,0,0,0,0,0,25,0,23,0,26,21,0,0,21,26,24,0,0,0,22,0,0,0,0,0,0,0,0,0,0,0,0,0,0,0,0,23,
0,22,0,0,0,0,0,0,0,0,0,0,24,24,0,0,0,0,0,0,0,0,0,0,0,25,0,20,22,0,0,0,0,0,22,25,24,0,0,24,0,24,0,0,0,0,0,0,0,0,0,0,0,0,25,0,26,22,
21,22,22,0,0,0,0,0,0,0,0,0,0,0,0,0,0,0,0,0,0,0,0,0,0,22,22,0,0,0,0,0,20,0,24,26,0,0,0,22,0,24,0,0,0,0,0,0,0,0,0,0,0,0,22,22,19,0,
0,22,24,22,0,0,0,0,0,0,0,0,0,0,0,0,0,0,0,0,0,0,0,25,23,24,0,0,24,23,0,0,0,25,25,0,0,0,22,25,0,26,0,0,0,0,0,0,0,0,0,0,0,0,25,0,26,0,
21,0,0,0,0,0,0,0,0,0,0,0,0,0,0,0,0,0,0,23,0,0,22,23,0,24,24,19,26,0,0,20,26,25,0,0,0,0,25,19,19,26,0,0,0,0,0,0,0,0,0,0,0,0,22,0,23,23,
0,0,0,0,0,0,0,0,0,23,22,25,0,0,0,0,0,0,0,0,0,0,0,22,0,20,0,19,25,25,24,0,26,0,0,0,0,24,23,0,26,22,26,0,0,0,0,0,0,0,22,0,0,0,24,26,0,0,
0,21,20,0,23,26,0,0,0,0,0,24,23,0,25,23,0,0,0,0,0,0,0,0,0,0,24,26,22,25,24,26,0,0,0,0,0,0,22,0,24,22,25,22,0,0,0,0,0,0,22,0,0,0,0,26,22,19,
0,23,26,25,22,23,0,0,0,0,0,0,0,0,0,25,0,26,0,0,0,0,0,0,0,0,0,24,23,0,0,0,0,0,0,0,0,0,0,0,0,0,26,22,22,26,0,23,26,0,0,0,0,0,0,20,0,23,
23,24,23,19,26,23,0,0,0,0,0,0,0,0,0,0,25,25,0,24,0,0,0,0,0,0,0,0,0,0,0,0,0,0,0,0,0,0,0,0,0,0,0,0,0,0,0,0,0,0,0,0,0,24,23,0,24,0,
0,0,0,26,22,0,0,23,25,26,0,0,0,0,0,0,0,0,0,26,0,24,22,0,0,0,0,0,0,0,0,0,0,0,0,0,0,0,0,0,0,0,0,0,0,0,0,0,0,0,0,0,0,0,22,20,0,20,
26,0,0,0,0,26,0,0,0,22,26,22,0,0,0,0,0,0,0,0,0,26,22,25,24,23,0,0,0,0,0,23,22,24,0,0,23,22,23,23,0,0,0,0,0,0,0,0,0,0,0,0,0,0,0,0,20,0,
0,0,26,21,24,24,0,0,19,22,19,22,0,22,0,0,0,0,0,0,0,0,0,22,26,25,23,0,0,0,22,26,20,26,0,19,0,21,0,0,26,25,26,0,0,0,0,0,0,0,0,0,0,0,22,26,21,23,
0,26,25,0,22,0,21,0,23,23,0,21,20,0,25,23,0,0,0,0,0,0,0,0,0,0,22,24,0,0,26,0,26,0,21,0,22,19,0,0,19,26,19,22,0,0,0,0,0,0,0,0,0,0,0,26,22,20,
24,23,0,19,0,0,25,0,0,0,0,24,0,0,22,24,23,23,22,0,0,0,0,0,0,0,0,0,0,0,0,0,23,25,26,0,0,0,25,26,23,26,24,0,0,0,0,0,0,0,0,0,0,0,25,0,0,25,
0,25,0,26,26,0,25,0,0,0,23,26,19,0,0,0,19,0,25,22,26,26,0,0,0,0,0,0,0,0,0,0,0,0,0,0,0,0,0,0,0,0,0,0,0,0,0,0,0,0,0,0,0,0,22,25,0,0,
22,0,0,0,0,24,25,23,0,0,0,0,21,0,0,25,0,22,26,23,0,22,25,0,0,0,0,0,0,0,0,0,0,0,0,0,0,0,0,0,0,0,0,0,0,0,0,0,0,0,0,0,0,0,0,0,0,23,
0,0,0,0,25,26,0,0,20,22,23,24,21,25,19,25,0,0,0,0,0,24,22,0,0,0,22,24,0,0,0,0,0,0,0,0,0,0,0,0,0,0,0,0,0,0,0,0,0,0,0,0,0,25,26,19,22,23,
0,24,22,24,19,25,26,0,24,26,0,0,0,21,23,22,0,22,22,22,24,26,23,0,0,0,26,19,0,0,25,0,25,23,25,25,25,25,24,25,26,0,24,0,0,0,0,24,25,0,23,0,24,26,24,20,0,0,
23,0,0,0,0,0,0,25,21,20,22,0,25,20,19,0,0,0,22,20,25,19,23,0,0,0,26,0,23,22,0,0,0,0,0,24,0,0,0,20,0,23,0,0,19,0,23,0,25,23,23,0,26,26,19,21,0,25,
0,21,23,26,25,0,23,0,0,0,0,24,0,0,19,0,25,25,19,19,19,0,22,24,0,26,0,0,21,23,21,19,0,0,0,24,23,20,0,24,0,0,0,0,0,24,21,0,26,0,21,0,21,23,19,0,0,26,
25,0,24,0,0,21,0,0,0,22,0,0,0,0,22,19,25,23,25,23,20,0,24,0,24,22,25,25,0,21,23,25,0,0,0,0,23,26,19,0,20,22,23,0,0,0,19,0,20,0,0,0,0,0,0,0,22,0
</data>
 </layer>
 <layer id="4" name="logica" width="58" height="58" opacity="0.45">
  <data encoding="csv">
3,3,3,3,3,3,3,3,3,3,3,3,3,3,3,3,3,3,3,3,3,3,3,3,3,3,3,3,3,3,3,3,3,3,3,3,3,3,3,3,3,3,3,3,3,3,3,3,3,3,3,3,3,3,3,3,3,3,
3,3,3,3,3,3,3,3,3,3,3,3,3,3,3,3,3,3,3,3,3,3,3,3,3,3,3,3,3,3,3,3,3,3,3,3,3,3,3,3,3,3,3,3,3,3,3,3,3,3,3,3,3,3,3,3,3,3,
3,3,3,3,3,3,3,3,3,3,3,3,3,3,3,3,3,3,3,3,3,3,3,3,3,3,3,3,3,3,3,3,1,1,1,3,3,3,3,3,3,3,3,3,3,3,3,3,3,3,3,3,3,3,3,3,3,3,
3,3,3,3,3,3,3,3,1,3,3,3,3,3,3,3,3,3,3,3,3,3,3,3,3,3,3,3,3,3,3,3,1,1,1,3,3,3,3,3,3,3,3,3,3,3,3,3,3,3,3,3,3,3,3,3,3,3,
3,3,3,3,3,1,1,1,1,1,1,1,3,4,4,4,4,4,4,4,4,4,4,4,4,4,4,3,3,3,3,3,1,1,1,3,3,3,3,3,3,3,3,3,3,3,3,3,3,3,3,3,3,3,3,3,3,3,
3,3,3,3,1,1,1,1,1,1,1,1,1,4,4,4,4,4,4,4,4,4,4,4,4,4,4,4,4,4,4,4,1,1,1,3,3,3,3,3,3,3,3,3,3,3,3,3,3,3,3,3,3,3,3,3,3,3,
3,3,3,3,1,1,1,1,1,1,1,1,1,4,4,4,4,4,4,4,4,4,4,4,4,4,4,4,4,4,4,4,1,1,1,4,3,3,3,3,3,3,3,3,3,3,3,3,3,3,3,3,3,3,3,3,3,3,
3,3,3,3,1,1,1,6,6,6,1,1,1,4,3,3,3,3,3,3,3,3,3,3,3,3,4,4,3,3,4,4,4,1,4,4,4,4,4,3,3,3,3,3,3,3,3,3,3,3,3,3,3,3,3,3,3,3,
3,3,3,1,1,1,1,6,6,6,1,1,1,1,3,3,3,3,3,3,3,3,3,3,3,3,3,3,3,3,3,3,4,4,4,4,4,4,4,4,4,4,3,3,3,3,3,3,3,3,3,3,3,3,3,3,3,3,
3,3,3,3,1,1,1,6,6,6,1,1,1,1,3,3,3,3,3,3,3,3,3,3,3,3,3,3,3,3,3,3,3,3,3,4,4,4,4,4,4,4,4,4,3,3,3,3,3,3,3,3,3,3,3,3,3,3,
3,3,3,3,1,1,1,1,1,1,1,1,1,1,1,1,1,1,3,3,3,3,3,3,3,3,3,4,3,3,4,4,3,3,3,3,3,3,4,4,4,4,4,4,4,4,3,3,3,3,3,3,3,3,3,3,3,3,
3,3,3,3,1,1,1,1,1,1,1,1,1,1,1,1,1,1,1,1,1,1,1,1,1,4,4,4,4,4,4,4,4,4,4,3,3,3,3,3,4,4,4,4,4,4,4,4,3,3,3,3,3,3,3,3,3,3,
3,3,3,3,3,1,1,1,1,1,1,1,3,1,1,1,1,1,1,1,1,1,1,1,1,1,4,4,4,4,4,4,4,4,4,4,4,4,3,3,3,3,3,4,4,4,4,4,4,4,3,3,3,3,3,3,3,3,
3,3,3,3,1,1,1,1,1,3,3,3,3,3,3,3,1,1,1,1,1,1,1,1,1,1,4,4,4,3,3,4,4,4,4,4,4,4,4,4,3,3,3,3,3,4,4,4,4,4,4,4,3,3,3,3,3,3,
3,3,3,3,1,1,1,3,3,2,2,2,2,2,3,3,3,3,3,3,3,1,1,1,1,1,3,3,3,3,3,3,3,3,4,4,4,4,4,4,4,4,3,3,3,3,3,4,4,4,4,4,3,3,3,3,3,3,
3,3,3,3,1,1,1,3,2,2,2,2,2,2,2,3,3,3,3,3,3,5,1,1,1,3,3,3,3,3,3,3,3,3,3,3,3,4,4,4,4,4,4,4,4,3,3,3,3,4,4,4,4,3,3,3,3,3,
3,3,3,3,1,1,1,2,2,2,2,2,2,2,2,2,3,3,3,3,5,5,5,3,3,3,3,3,3,3,3,3,3,3,3,3,3,3,3,4,4,4,4,4,4,4,4,1,1,1,4,4,4,4,3,3,3,3,
3,3,3,3,1,1,1,2,2,2,2,2,2,2,2,2,3,3,3,3,5,5,5,3,3,3,3,3,3,3,3,3,3,3,3,2,2,2,2,2,2,4,4,4,4,4,1,1,1,1,1,4,4,4,3,3,3,3,
3,3,3,3,1,1,1,2,2,2,2,2,2,2,2,2,3,3,3,5,5,5,3,3,3,3,3,3,3,3,3,3,3,2,2,2,2,2,6,6,6,2,2,4,4,4,1,1,1,1,1,1,4,4,4,3,3,3,
3,3,3,3,1,1,1,2,2,2,2,2,2,2,2,2,3,3,3,5,5,3,3,3,3,3,3,3,3,3,3,3,3,2,2,2,2,2,6,6,6,2,2,2,3,3,1,1,1,1,1,1,1,1,4,4,3,3,
3,3,3,3,1,1,1,2,2,2,2,2,2,2,2,2,3,3,5,5,5,3,3,3,3,3,3,3,3,3,3,3,2,2,2,2,2,2,2,2,2,2,2,2,2,3,4,1,1,1,1,1,1,1,1,4,3,3,
3,1,1,1,1,1,1,3,2,2,2,2,2,2,2,3,3,3,5,5,5,3,3,3,3,3,3,3,3,3,3,3,2,2,2,2,2,2,2,2,2,2,2,2,2,3,4,4,4,3,3,3,3,1,4,4,3,3,
3,1,1,1,1,1,1,3,3,2,2,2,2,2,3,3,3,3,5,5,3,3,3,3,3,3,3,3,3,3,3,3,2,2,2,2,2,2,2,2,2,2,2,2,2,3,4,4,3,3,3,3,3,4,4,4,3,3,
3,1,1,1,1,1,1,3,3,3,3,3,3,3,3,3,3,5,5,5,5,3,3,3,3,3,3,3,3,3,3,3,3,2,2,2,2,2,2,2,2,2,2,2,4,4,4,4,3,3,3,3,3,4,4,4,3,3,
3,3,3,3,1,5,5,3,3,3,3,3,3,3,3,3,3,3,5,5,5,5,3,3,3,3,1,1,1,1,1,1,3,2,2,2,2,2,2,2,2,2,2,4,6,6,4,3,3,3,3,3,3,4,4,4,4,3,
3,3,3,3,5,5,5,5,5,5,3,3,3,3,3,3,3,3,3,5,5,5,5,3,3,1,1,1,1,1,1,1,1,3,3,2,2,2,2,2,2,4,4,4,6,6,3,3,3,3,3,3,3,3,4,4,4,3,
3,3,3,3,1,5,5,5,5,5,5,6,6,5,3,3,3,3,3,3,5,5,5,5,1,1,1,1,1,1,1,1,1,1,3,3,3,3,3,4,4,4,4,4,3,3,3,3,3,3,3,3,3,3,4,4,4,3,
3,3,3,3,1,1,1,3,5,5,5,6,6,5,5,5,5,5,5,5,5,5,5,5,1,1,1,1,1,1,1,1,1,1,4,4,4,4,4,4,4,4,4,3,3,3,3,3,3,3,3,1,1,1,4,4,4,3,
3,4,4,4,1,1,1,3,3,3,3,5,5,5,5,5,5,5,5,5,5,5,5,5,1,1,1,1,6,6,1,1,1,1,5,5,5,5,5,5,5,3,3,3,3,3,3,3,3,3,3,1,1,1,4,4,4,3,
3,4,4,4,1,1,1,3,3,3,3,3,3,3,3,3,3,5,5,5,5,5,5,5,1,1,1,1,6,6,1,1,1,1,5,5,5,5,5,5,5,5,5,5,5,5,5,3,3,3,3,1,1,1,4,4,4,3,
3,4,4,4,1,1,1,3,3,3,3,3,3,3,3,4,4,4,4,4,4,4,4,4,1,1,1,1,1,1,1,1,1,1,5,5,5,5,5,5,5,5,5,5,5,6,6,5,5,5,3,1,1,1,3,3,3,3,
3,4,4,4,3,3,3,3,3,3,3,3,3,3,4,4,4,4,4,3,3,3,3,3,1,1,1,1,1,1,1,1,1,1,5,5,5,5,3,3,3,3,3,3,5,6,6,5,5,5,5,5,5,1,3,3,3,3,
3,4,4,4,3,3,3,3,3,3,3,3,6,6,4,4,4,2,2,2,2,2,2,3,3,1,1,1,1,1,1,1,1,3,3,5,5,5,5,3,3,3,3,3,3,3,3,3,5,5,5,5,5,5,3,3,3,3,
3,4,4,4,4,3,3,3,3,3,3,4,6,6,4,2,2,2,2,2,2,2,2,2,2,3,1,1,1,1,1,1,3,3,3,3,5,5,5,5,3,3,3,3,3,3,3,3,3,3,3,5,5,1,3,3,3,3,
3,3,4,4,4,3,3,3,3,3,4,4,4,4,2,2,2,2,2,2,2,2,2,2,2,3,3,3,3,3,3,3,3,3,3,3,3,5,5,5,5,3,3,3,3,3,3,3,3,3,3,1,1,1,1,1,1,3,
3,3,4,4,4,3,3,3,3,3,4,4,3,2,2,2,2,2,2,2,2,2,2,2,2,2,3,3,3,3,3,3,3,3,3,3,3,3,5,5,3,3,3,3,2,2,2,2,2,3,3,1,1,1,1,1,1,3,
3,3,4,4,1,3,3,3,3,4,4,4,3,2,2,2,2,2,2,2,2,2,2,2,2,2,3,3,3,3,3,3,3,3,3,3,3,5,5,5,3,3,3,2,2,2,2,2,2,2,3,1,1,1,1,1,1,3,
3,3,4,1,1,1,1,1,1,1,1,4,3,2,2,2,2,2,2,2,2,2,2,2,2,2,3,3,3,3,3,3,3,3,3,3,3,5,5,5,3,3,2,2,2,2,2,2,2,2,2,1,1,1,3,3,3,3,
3,3,4,4,1,1,1,1,1,1,1,1,3,3,2,2,2,6,6,6,2,2,2,2,2,3,3,3,3,3,3,3,3,3,3,3,3,5,5,3,3,3,2,2,2,2,2,2,2,2,2,1,1,1,3,3,3,3,
3,3,3,4,4,4,1,1,1,1,1,1,4,4,4,2,2,6,6,6,2,2,2,2,2,3,3,3,3,3,3,3,3,3,3,3,5,5,5,3,3,3,2,2,2,2,2,2,2,2,2,1,1,1,3,3,3,3,
3,3,3,3,4,4,4,1,1,1,1,1,4,4,4,4,4,2,2,2,2,2,2,3,3,3,3,3,3,3,3,3,3,3,3,5,5,5,3,3,3,3,2,2,2,2,2,2,2,2,2,1,1,1,3,3,3,3,
3,3,3,3,4,4,4,4,1,1,1,4,4,4,4,4,4,4,4,3,3,3,3,3,3,3,3,3,3,3,3,3,3,3,3,5,5,5,3,3,3,3,2,2,2,2,2,2,2,2,2,1,1,1,3,3,3,3,
3,3,3,3,3,4,4,4,4,3,3,3,3,4,4,4,4,4,4,4,4,3,3,3,3,3,3,3,3,3,3,3,3,1,1,1,5,3,3,3,3,3,3,2,2,2,2,2,2,2,3,1,1,1,3,3,3,3,
3,3,3,3,3,3,4,4,4,4,4,3,3,3,3,3,4,4,4,4,4,4,4,4,3,3,3,3,3,3,3,3,1,1,1,1,1,3,3,3,3,3,3,3,2,2,2,2,2,3,3,1,1,1,3,3,3,3,
3,3,3,3,3,3,4,4,4,4,4,4,4,3,3,3,3,3,4,4,4,4,4,4,4,4,4,3,3,4,4,4,1,1,1,1,1,1,1,1,1,1,3,3,3,3,3,3,3,1,1,1,1,1,3,3,3,3,
3,3,3,3,3,3,3,3,4,4,4,4,4,4,4,3,3,3,3,3,4,4,4,4,4,4,4,4,4,4,4,4,1,1,1,1,1,1,1,1,1,1,1,1,1,3,1,1,1,1,1,1,1,3,3,3,3,3,
3,3,3,3,3,3,3,3,3,3,4,4,4,4,4,4,4,4,3,3,3,3,3,4,4,4,4,4,4,4,4,4,4,1,1,1,1,1,1,1,1,1,1,1,1,1,1,1,1,1,1,1,1,1,3,3,3,3,
3,3,3,3,3,3,3,3,3,3,3,3,4,4,4,4,4,4,4,4,3,3,3,3,3,3,4,4,3,3,4,3,3,3,3,3,3,3,3,3,1,1,1,1,1,1,1,1,1,1,1,1,1,1,3,3,3,3,
3,3,3,3,3,3,3,3,3,3,3,3,3,3,4,4,4,4,4,4,4,4,4,3,3,3,3,3,3,3,3,3,3,3,3,3,3,3,3,3,3,3,3,3,1,1,1,1,6,6,6,1,1,1,3,3,3,3,
3,3,3,3,3,3,3,3,3,3,3,3,3,3,3,3,4,4,4,4,4,4,4,4,4,4,3,3,3,3,3,3,3,3,3,3,3,3,3,3,3,3,3,3,1,1,1,1,6,6,6,1,1,1,1,3,3,3,
3,3,3,3,3,3,3,3,3,3,3,3,3,3,3,3,3,3,3,4,4,4,4,4,1,4,4,4,3,3,4,4,3,3,3,3,3,3,3,3,3,3,3,3,4,1,1,1,6,6,6,1,1,1,3,3,3,3,
3,3,3,3,3,3,3,3,3,3,3,3,3,3,3,3,3,3,3,3,3,3,4,1,1,1,4,4,4,4,4,4,4,4,4,4,4,4,4,4,4,4,4,4,4,1,1,1,1,1,1,1,1,1,3,3,3,3,
3,3,3,3,3,3,3,3,3,3,3,3,3,3,3,3,3,3,3,3,3,3,3,1,1,1,4,4,4,4,4,4,4,4,4,4,4,4,4,4,4,4,4,4,4,1,1,1,1,1,1,1,1,1,3,3,3,3,
3,3,3,3,3,3,3,3,3,3,3,3,3,3,3,3,3,3,3,3,3,3,3,1,1,1,3,3,3,3,3,4,4,4,4,4,4,4,4,4,4,4,4,4,4,3,1,1,1,1,1,1,1,3,3,3,3,3,
3,3,3,3,3,3,3,3,3,3,3,3,3,3,3,3,3,3,3,3,3,3,3,1,1,1,3,3,3,3,3,3,3,3,3,3,3,3,3,3,3,3,3,3,3,3,3,3,3,1,3,3,3,3,3,3,3,3,
3,3,3,3,3,3,3,3,3,3,3,3,3,3,3,3,3,3,3,3,3,3,3,1,1,1,3,3,3,3,3,3,3,3,3,3,3,3,3,3,3,3,3,3,3,3,3,3,3,3,3,3,3,3,3,3,3,3,
3,3,3,3,3,3,3,3,3,3,3,3,3,3,3,3,3,3,3,3,3,3,3,3,3,3,3,3,3,3,3,3,3,3,3,3,3,3,3,3,3,3,3,3,3,3,3,3,3,3,3,3,3,3,3,3,3,3,
3,3,3,3,3,3,3,3,3,3,3,3,3,3,3,3,3,3,3,3,3,3,3,3,3,3,3,3,3,3,3,3,3,3,3,3,3,3,3,3,3,3,3,3,3,3,3,3,3,3,3,3,3,3,3,3,3,3
</data>
 </layer>
 <objectgroup id="5" name="estructuras" draworder="index">
  <object id="1" x="330" y="330" name="base_jugador" gid="27" width="256" height="248"/>
  <object id="2" x="478" y="190" name="recurso" gid="33" width="64" height="72"/>
  <object id="3" x="190" y="510" name="recurso" gid="33" width="64" height="72"/>
  <object id="4" x="114" y="754" name="agujero" gid="32" width="112" height="112"/>
  <object id="5" x="474.4" y="634.4" name="restos_nave" gid="36" width="231" height="106"/>
  <object id="6" x="774" y="454" name="pronexo" gid="31" width="96" height="112"/>
  <object id="7" x="1106" y="146" name="agujero" gid="32" width="112" height="112"/>
  <object id="8" x="442" y="890" name="nave_destruida_2" gid="35" width="239" height="105"/>
  <object id="9" x="894" y="414" name="recurso" gid="33" width="64" height="72"/>
  <object id="10" x="1050.4" y="378.4" name="restos_nave" gid="36" width="231" height="106"/>
  <object id="11" x="455.2" y="1095.2" name="nave_destruida_1" gid="34" width="295" height="138"/>
  <object id="12" x="326" y="1286" name="pronexo" gid="31" width="96" height="112"/>
  <object id="13" x="414" y="1310" name="recurso" gid="33" width="64" height="72"/>
  <object id="14" x="647.2" y="1287.2" name="nave_destruida_1" gid="34" width="295" height="138"/>
  <object id="15" x="952" y="952" name="pilar" gid="29" width="128" height="184"/>
  <object id="16" x="957" y="957" name="escudo" gid="30" width="208" height="208"/>
  <object id="17" x="1319.2" y="679.2" name="nave_destruida_1" gid="34" width="295" height="138"/>
  <object id="18" x="1470" y="574" name="recurso" gid="33" width="64" height="72"/>
  <object id="19" x="1574" y="614" name="pronexo" gid="31" width="96" height="112"/>
  <object id="20" x="1511.2" y="871.2" name="nave_destruida_1" gid="34" width="295" height="138"/>
  <object id="21" x="890.4" y="1562.4" name="restos_nave" gid="36" width="231" height="106"/>
  <object id="22" x="990" y="1470" name="recurso" gid="33" width="64" height="72"/>
  <object id="23" x="1498" y="1050" name="nave_destruida_2" gid="35" width="239" height="105"/>
  <object id="24" x="1126" y="1446" name="pronexo" gid="31" width="96" height="112"/>
  <object id="25" x="818" y="1778" name="agujero" gid="32" width="112" height="112"/>
  <object id="26" x="1466.4" y="1306.4" name="restos_nave" gid="36" width="231" height="106"/>
  <object id="27" x="1810" y="1170" name="agujero" gid="32" width="112" height="112"/>
  <object id="28" x="1694" y="1374" name="recurso" gid="33" width="64" height="72"/>
  <object id="29" x="1406" y="1694" name="recurso" gid="33" width="64" height="72"/>
  <object id="30" x="1642" y="1642" name="base_enemiga" gid="28" width="256" height="248"/>
 </objectgroup>
 <objectgroup id="6" name="objetos" draworder="index">
  <object id="31" x="368" y="368" type="spawn"><properties><property name="owner" type="int" value="1"/></properties><point/></object>
  <object id="32" x="1488" y="1488" type="spawn"><properties><property name="owner" type="int" value="2"/></properties><point/></object>
  <object id="33" x="928" y="928" type="pilar"><point/></object>
  <object id="34" x="928" y="928" type="barrera"><properties><property name="hp" type="int" value="500"/></properties><point/></object>
  <object id="35" x="752" y="432" type="pronexo"><properties><property name="index" type="int" value="1"/></properties><point/></object>
  <object id="36" x="1552" y="592" type="pronexo"><properties><property name="index" type="int" value="2"/></properties><point/></object>
  <object id="37" x="304" y="1264" type="pronexo"><properties><property name="index" type="int" value="3"/></properties><point/></object>
  <object id="38" x="1104" y="1424" type="pronexo"><properties><property name="index" type="int" value="4"/></properties><point/></object>
  <object id="39" x="1072" y="112" type="agujero"><properties><property name="pairId" type="string" value="A"/><property name="cycleSeconds" type="int" value="90"/><property name="openSeconds" type="int" value="30"/></properties><point/></object>
  <object id="40" x="784" y="1744" type="agujero"><properties><property name="pairId" type="string" value="A"/><property name="cycleSeconds" type="int" value="90"/><property name="openSeconds" type="int" value="30"/></properties><point/></object>
  <object id="41" x="80" y="720" type="agujero"><properties><property name="pairId" type="string" value="B"/><property name="cycleSeconds" type="int" value="90"/><property name="openSeconds" type="int" value="30"/></properties><point/></object>
  <object id="42" x="1776" y="1136" type="agujero"><properties><property name="pairId" type="string" value="B"/><property name="cycleSeconds" type="int" value="90"/><property name="openSeconds" type="int" value="30"/></properties><point/></object>
  <object id="43" x="464" y="176" type="recurso"><properties><property name="amount" type="int" value="300"/></properties><point/></object>
  <object id="44" x="1392" y="1680" type="recurso"><properties><property name="amount" type="int" value="300"/></properties><point/></object>
  <object id="45" x="176" y="496" type="recurso"><properties><property name="amount" type="int" value="300"/></properties><point/></object>
  <object id="46" x="1680" y="1360" type="recurso"><properties><property name="amount" type="int" value="300"/></properties><point/></object>
  <object id="47" x="880" y="400" type="recurso"><properties><property name="amount" type="int" value="300"/></properties><point/></object>
  <object id="48" x="976" y="1456" type="recurso"><properties><property name="amount" type="int" value="300"/></properties><point/></object>
  <object id="49" x="1456" y="560" type="recurso"><properties><property name="amount" type="int" value="300"/></properties><point/></object>
  <object id="50" x="400" y="1296" type="recurso"><properties><property name="amount" type="int" value="300"/></properties><point/></object>
  <object id="51" x="816" y="912" type="mob_spawn"><properties><property name="count" type="int" value="3"/></properties><point/></object>
  <object id="52" x="1040" y="944" type="mob_spawn"><properties><property name="count" type="int" value="3"/></properties><point/></object>
  <object id="53" x="912" y="784" type="mob_spawn"><properties><property name="count" type="int" value="3"/></properties><point/></object>
  <object id="54" x="944" y="1072" type="mob_spawn"><properties><property name="count" type="int" value="3"/></properties><point/></object>
  <object id="55" x="896" y="224" type="asteroid_gate" width="64" height="128"><properties><property name="cycleSeconds" type="int" value="60"/><property name="openSeconds" type="int" value="20"/></properties></object>
  <object id="56" x="896" y="1504" type="asteroid_gate" width="64" height="128"><properties><property name="cycleSeconds" type="int" value="60"/><property name="openSeconds" type="int" value="20"/></properties></object>
 </objectgroup>
</map>
